(1001)
(T3 D=6. CR=0. TAPER=15DEG - ZMIN=-0.075 - CHAMFER MILL)
G17
G21
(WHEN USING FUSION FOR PERSONAL USE, THE FEEDRATE OF RAPID)
(MOVES IS REDUCED TO MATCH THE FEEDRATE OF CUTTING MOVES,)
(WHICH CAN INCREASE MACHINING TIME. UNRESTRICTED RAPID MOVES)
(ARE AVAILABLE WITH A FUSION SUBSCRIPTION.)
G91 Z0.
G90

(TRACE1)
M6 T3
M3 S20000
G94
G54
G0 X9.558 Y285.604
G43 Z6.
G1 Z1. F750.
Z-0.075 F250.
G3 X10.539 Y285.916 I-0.482 J3.214 F750.
G1 X10.607 Y285.983
X10.659 Y286.067
Y294.305
X9.968 Y294.207
X9.558 Y294.146
X9.489 Y294.617
G2 X11.922 Y295.048 I3.783 J-14.261
X13.714 Y295.01 I0.706 J-8.907
G1 X13.953 Y294.967
X14.19 Y294.911
G2 X15.304 Y294.452 I-0.712 J-3.312
G1 X15.446 Y294.344
G2 X16.122 Y293.398 I-1.334 J-1.666
G1 X16.161 Y293.247
G2 X15.999 Y291.629 I-2.899 J-0.527
G1 X15.892 Y291.423
X15.64 Y291.021
X15.302 Y290.69
G2 X14.518 Y290.192 I-1.707 J1.822
G1 X14.075 Y290.023
X16.376 Y286.333
G3 X17.37 Y285.868 I0.89 J0.606
G1 X17.557
X17.743 Y285.885
X17.826 Y285.558
G2 X16.126 Y285.171 I-2.247 J5.942
X15.381 Y285.589 I0.034 J0.933
G1 X13.081 Y289.848
G2 X11.874 Y289.917 I-0.361 J4.282
G1 Y286.067
G3 X12.166 Y285.837 I0.4 J0.207
G1 X12.363 Y285.761
X12.564 Y285.697
X12.974 Y285.604
Y285.277
X9.558
Y285.604
Z1.
X9.301 Y283.
Z-0.075 F250.
X80.5 F750.
G3 X81.5 Y284. I0. J1.
G1 Y296.
G3 X80.5 Y297. I-1. J0.
G1 X6.5
G3 X5.5 Y296. I0. J-1.
G1 Y284.
G3 X6.5 Y283. I1. J0.
G1 X9.301
Z1.
X77.173 Y294.333
Z-0.075 F250.
X77.189 Y294.275 F750.
X77.162 Y294.195
G2 X76.506 Y293.177 I-9.293 J5.267
G1 X76.429 Y293.144
X76.332 Y293.125
X76.232 Y293.121
X73.643
X73.546 Y293.113
X73.457 Y293.075
X73.41 Y292.999
X73.4 Y292.908
X73.419 Y292.179
X73.438 Y291.344
G3 X73.771 Y290.938 I0.389 J-0.02
G1 X74.607 Y290.942
G2 X76.813 Y289.908 I-0.046 J-2.968
G1 X77.003 Y289.596
G2 X77.22 Y288.922 I-1.404 J-0.826
X77.101 Y287.734 I-2.346 J-0.364
G1 X76.895 Y287.271
G2 X76.472 Y286.548 I-9.531 J5.088
G1 Y286.55
X76.478 Y286.562
X76.489 Y286.583
X76.566 Y286.72
G2 X74.639 Y285.171 I-3.3 J2.132
X73.344 Y285.085 I-0.882 J3.502
X72.162 Y285.342 I0.463 J4.979
G1 X71.942 Y285.429
G2 X71.869 Y285.73 I0.046 J0.171
G1 X72.176 Y286.165
X72.504 Y286.583
X72.577 Y286.646
X72.671 Y286.667
G3 X74.765 Y286.381 I1.884 J5.977
X75.918 Y287.258 I-0.142 J1.383
X74.879 Y289.498 I-1.401 J0.712
X73.582 Y289.643 I-1.166 J-4.547
G1 X73.02
G2 X72.465 Y289.914 I-0.06 J0.582
G1 X72.438 Y290.001
X72.42 Y290.091
X72.389 Y290.788
X72.371 Y291.485
X72.359 Y293.182
X72.34 Y293.356
X72.322 Y293.561
X72.333 Y293.728
X72.382 Y293.888
X72.489 Y294.108
X72.766 Y294.647
X72.873 Y294.82
X72.997 Y294.981
G2 X73.308 Y294.965 I0.149 J-0.138
G1 X73.442 Y294.73
X73.59 Y294.503
X73.636 Y294.461
X73.692 Y294.435
X73.84 Y294.419
X76.953
X77.046 Y294.412
X77.132 Y294.378
X77.173 Y294.333
Z1.
X69.869 Y286.485
Z-0.075 F250.
X69.86 Y286.424 F750.
G2 X69.178 Y285.384 I-5.713 J3.004
G1 X69.129 Y285.344
X69.074 Y285.315
X69.013 Y285.298
X68.95 Y285.293
X64.486
X64.398 Y285.299
X64.324 Y285.323
X64.298 Y285.347
X64.278 Y285.379
X64.25 Y285.46
X64.281 Y285.589
G2 X64.896 Y286.823 I5.801 J-2.121
X66.828 Y289.543 I54.336 J-36.548
G1 X67.158 Y290.023
X67.406 Y290.43
X67.614 Y290.858
G3 X67.773 Y291.987 I-1.739 J0.821
X66.507 Y293.283 I-1.669 J-0.364
X64.709 Y293.5 I-1.89 J-8.089
G1 X64.626 Y293.527
X64.581 Y293.562
X64.562 Y293.615
X64.584 Y293.675
G2 X65.438 Y294.802 I7.474 J-4.769
G1 X65.507 Y294.845
X65.596 Y294.884
G2 X66.561 Y294.821 I0.254 J-3.533
X67.954 Y294.407 I-0.772 J-5.146
X69.217 Y292.91 I-1.208 J-2.302
X68.958 Y291.12 I-2.364 J-0.571
X68.024 Y289.795 I-7.883 J4.564
G3 X66.195 Y286.92 I14.239 J-11.079
G1 X66.141 Y286.72
X66.148 Y286.67
X66.171 Y286.625
X66.2 Y286.596
X66.24 Y286.583
X69.725
X69.778 Y286.58
X69.823 Y286.566
X69.852 Y286.533
X69.869 Y286.485
Z1.
X61.498 Y287.05
Z-0.075 F250.
G2 X59.921 Y285.287 I-3.862 J1.867 F750.
X57.367 Y285.807 I-0.952 J1.856
G1 X57.155 Y286.055
X56.968 Y286.325
G2 X56.48 Y287.851 I4.168 J2.175
X56.644 Y292.532 I10.349 J1.981
X57.798 Y294.254 I4.248 J-1.601
X59.601 Y294.867 I1.465 J-1.349
X60.873 Y294.242 I-0.415 J-2.451
X61.972 Y292.34 I-2.055 J-2.457
X62.067 Y288.784 I-11.186 J-2.078
X61.495 Y287.051 I-7.071 J1.37
G0 X61.498 Y287.05 Z1.
X57.509 Y289.88
Z-0.075 F250.
G3 X57.877 Y287.494 I9.92 J0.311 F750.
X60.18 Y286.54 I1.615 J0.64
X60.598 Y287.234 I-0.814 J0.964
X60.688 Y292.12 I-10.03 J2.629
G1 X60.576 Y292.434
G3 X58.44 Y293.583 I-1.739 J-0.673
X57.947 Y293.116 I0.368 J-0.883
G1 X57.88 Y292.97
G3 X57.503 Y290.258 I7.943 J-2.487
G1 X57.509 Y289.88
Z1.
X54.349 Y286.485
Z-0.075 F250.
X54.34 Y286.424 F750.
G2 X53.658 Y285.384 I-5.706 J2.999
G1 X53.609 Y285.344
X53.554 Y285.314
X53.493 Y285.297
X53.43 Y285.293
X48.965
X48.878 Y285.299
X48.804 Y285.323
X48.778 Y285.347
X48.758 Y285.379
X48.73 Y285.46
G2 X49.199 Y286.525 I4.306 J-1.259
X50.547 Y288.495 I18.692 J-11.344
G3 X51.89 Y290.427 I-24.423 J18.412
G1 X52.094 Y290.858
G3 X52.253 Y291.987 I-1.739 J0.821
X50.987 Y293.283 I-1.67 J-0.364
X49.189 Y293.5 I-1.89 J-8.089
G1 X49.106 Y293.527
X49.061 Y293.562
X49.041 Y293.615
X49.064 Y293.675
G2 X49.917 Y294.802 I7.488 J-4.781
G1 X49.987 Y294.845
X50.076 Y294.884
G2 X51.041 Y294.821 I0.254 J-3.533
X52.433 Y294.407 I-0.773 J-5.146
X53.697 Y292.91 I-1.208 J-2.302
X53.438 Y291.12 I-2.364 J-0.571
X52.504 Y289.795 I-7.896 J4.573
G3 X50.675 Y286.92 I14.235 J-11.077
G1 X50.621 Y286.72
X50.628 Y286.67
X50.651 Y286.625
X50.68 Y286.596
X50.719 Y286.583
X54.205
X54.258 Y286.58
X54.303 Y286.566
X54.331 Y286.533
X54.349 Y286.485
Z1.
X40.401 Y287.981
Z-0.075 F250.
G2 X39.154 Y285.912 I-4.147 J1.089 F750.
X37.966 Y285.193 I-2.458 J2.72
X36.005 Y285.227 I-0.929 J3.027
X34.31 Y286.801 I1.068 J2.85
X34.386 Y290.551 I3.902 J1.797
G1 X34.641 Y290.969
G2 X36.257 Y292.344 I3.2 J-2.123
X38.435 Y292.388 I1.148 J-2.874
X40.128 Y290.812 I-1.06 J-2.835
X40.399 Y287.981 I-3.951 J-1.806
G0 X40.401 Z1.
X37.287 Y285.885
Z-0.075 F250.
G3 X38.163 Y286.057 I-0.04 J2.518 F750.
X38.834 Y286.639 I-1.094 J1.94
G1 X39.073 Y287.132
G3 X39.321 Y288.181 I-2.738 J1.2
X39.264 Y289.485 I-4.334 J0.465
X38.181 Y291.316 I-3.336 J-0.737
X37.569 Y291.659 I-1.194 J-1.414
G1 X37.433 Y291.691
X37.151 Y291.731
G3 X36.253 Y291.563 I0.029 J-2.644
X35.575 Y290.961 I1.176 J-2.005
G1 X35.352 Y290.463
G3 X35.117 Y289.416 I2.933 J-1.209
X35.179 Y288.121 I4.107 J-0.452
X36.636 Y286.066 I3.311 J0.803
X37.287 Y285.885 I0.768 J1.499
G1 Z1.
X33.233 Y292.339
Z-0.075 F250.
G2 X32.8 Y291.58 I-1.89 J0.575 F750.
G1 X32.206 Y291.495
X31.608 Y291.45
G2 X31.35 Y288.513 I-1.877 J-1.315
X29.392 Y287.546 I-2.272 J2.135
G1 X29.019 Y287.517
X28.988
X28.736 Y287.293
X28.51 Y287.043
X28.414 Y286.913
X28.35 Y286.766
G3 X28.768 Y286.404 I0.498 J0.152
X30.294 Y286.113 I2.095 J6.843
G1 X30.862 Y286.04
G2 X31.943 Y285.725 I-0.496 J-3.712
G1 X32.451 Y285.467
X32.702 Y285.243
G2 X33.025 Y284.695 I-0.71 J-0.787
G1 X33.088 Y284.366
X33.04 Y283.965
G2 X32.753 Y283.235 I-1.72 J0.254
X31.467 Y282.064 I-2.894 J1.888
X28.114 Y281.613 I-2.254 J4.059
X26.901 Y282.06 I0.568 J3.41
G1 X26.751 Y282.162
G2 X26.078 Y282.905 I1.018 J1.598
X25.964 Y283.694 I1.68 J0.645
X26.379 Y284.489 I1.349 J-0.199
X27.978 Y285.596 I4.556 J-4.871
G1 X27.665 Y285.719
G2 X27.159 Y286.282 I0.311 J0.789
G1 X27.105 Y286.439
G2 X27.34 Y286.898 I0.851 J-0.147
X28.198 Y287.624 I3.198 J-2.909
G1 X27.841 Y287.754
G2 X26.544 Y289.277 I0.838 J2.027
X26.648 Y290.72 I2.477 J0.547
X29.835 Y292.539 I2.801 J-1.205
X30.986 Y292.074 I-0.463 J-2.798
G3 X33.081 Y292.568 I-0.595 J7.214
G1 X33.233 Y292.339
Z1.
X29.176 Y288.346
Z-0.075 F250.
X29.325 Y288.33 F750.
G3 X30.102 Y288.418 I0.233 J1.415
X30.957 Y289.833 I-0.616 J1.339
X30.016 Y291.549 I-1.89 J0.079
X28.576 Y291.762 I-1.028 J-1.974
X27.563 Y290.022 I0.545 J-1.483
X28.467 Y288.575 I1.79 J0.112
X29.176 Y288.346 I1.05 J2.041
G1 Z1.
X24.895 Y290.365
Z-0.075 F250.
G2 X24.926 Y287.746 I-4.069 J-1.358 F750.
X23.925 Y286.078 I-4.189 J1.38
G1 X23.744 Y285.915
G2 X22.56 Y285.193 I-2.416 J2.631
X20.599 Y285.227 I-0.929 J3.027
X18.903 Y286.801 I1.068 J2.85
X18.98 Y290.551 I3.901 J1.797
G1 X19.235 Y290.969
G2 X20.85 Y292.344 I3.2 J-2.123
X23.029 Y292.388 I1.148 J-2.874
X24.722 Y290.812 I-1.059 J-2.835
G1 X24.895 Y290.365
Z1.
X21.881 Y285.885
Z-0.075 F250.
G3 X22.757 Y286.057 I-0.04 J2.518 F750.
X23.428 Y286.639 I-1.094 J1.939
G1 X23.667 Y287.132
G3 X23.915 Y288.181 I-2.738 J1.2
X23.858 Y289.485 I-4.329 J0.465
X22.775 Y291.316 I-3.336 J-0.737
X22.163 Y291.659 I-1.195 J-1.414
G1 X22.027 Y291.691
X21.744 Y291.731
G3 X20.847 Y291.563 I0.029 J-2.644
X20.169 Y290.961 I1.177 J-2.007
G1 X19.946 Y290.463
G3 X19.711 Y289.416 I2.933 J-1.209
X19.773 Y288.121 I4.104 J-0.452
X21.23 Y286.066 I3.311 J0.803
X21.881 Y285.885 I0.768 J1.498
G1 Z1.
X15.04 Y292.536
Z-0.075 F250.
X14.994 Y292.935 F750.
G3 X14.676 Y293.629 I-1.294 J-0.172
G1 X14.402 Y293.922
X13.949 Y294.166
G3 X12.975 Y294.413 I-1.082 J-2.22
G1 X12.458 Y294.435
X12.166 Y294.429
X11.874 Y294.412
Y290.524
G3 X13.521 Y290.576 I0.688 J4.364
G1 X13.748 Y290.654
X13.968 Y290.757
X14.394 Y291.003
X14.68 Y291.332
G3 X14.999 Y292.1 I-1.148 J0.927
G1 X15.04 Y292.536
Z1.
X12.42 Y275.462
Z-0.075 F250.
X6.5 F750.
G3 X5.5 Y274.462 I0.001 J-1.001
G1 Y262.462
G3 X6.5 Y261.462 I0.999 J-0.001
G1 X80.5
G3 X81.5 Y262.462 I0.001 J0.999
G1 Y274.462
G3 X80.5 Y275.462 I-1.001 J-0.001
G1 X12.42
Z1.
X77.173 Y272.795
Z-0.075 F250.
X77.189 Y272.737 F750.
X77.162 Y272.657
G2 X76.506 Y271.638 I-9.15 J5.168
G1 X76.429 Y271.605
X76.332 Y271.586
X76.232 Y271.582
X73.643
X73.546 Y271.575
X73.457 Y271.537
X73.41 Y271.46
X73.4 Y271.37
X73.419 Y270.641
X73.438 Y269.806
G3 X73.771 Y269.399 I0.391 J-0.02
G1 X74.607 Y269.403
G2 X76.812 Y268.37 I-0.044 J-2.964
G1 X77.003 Y268.058
G2 X77.221 Y267.383 I-1.39 J-0.822
X77.101 Y266.195 I-2.355 J-0.362
G1 X76.895 Y265.733
G2 X76.472 Y265.009 I-9.95 J5.325
G1 Y265.011
X76.478 Y265.023
X76.489 Y265.044
X76.523 Y265.106
X76.566 Y265.182
G2 X74.639 Y263.632 I-3.298 J2.127
X73.344 Y263.547 I-0.882 J3.538
X72.161 Y263.802 I0.484 J5.108
G1 X71.942 Y263.891
G2 X71.869 Y264.191 I0.045 J0.17
G1 X72.176 Y264.626
X72.504 Y265.045
X72.577 Y265.108
X72.671 Y265.128
G3 X74.765 Y264.842 I1.882 J5.976
X75.986 Y265.896 I-0.16 J1.42
X75.251 Y267.81 I-1.428 J0.549
X74.409 Y268.055 I-0.987 J-1.819
X72.902 Y268.108 I-1.238 J-13.798
G2 X72.42 Y268.553 I0.009 J0.493
G1 X72.389 Y269.249
X72.371 Y269.946
X72.359 Y271.643
X72.34 Y271.818
X72.322 Y272.023
X72.333 Y272.19
X72.382 Y272.349
X72.489 Y272.57
X72.766 Y273.109
X72.873 Y273.281
X72.997 Y273.443
G2 X73.308 Y273.427 I0.149 J-0.138
G1 X73.442 Y273.192
X73.59 Y272.964
X73.636 Y272.922
X73.692 Y272.896
X73.84 Y272.881
X76.953
X77.046 Y272.874
X77.132 Y272.839
X77.173 Y272.795
Z1.
X69.869 Y264.946
Z-0.075 F250.
X69.86 Y264.886 F750.
G2 X69.178 Y263.845 I-5.779 J3.044
G1 X69.129 Y263.805
X69.074 Y263.776
X69.013 Y263.759
X68.95 Y263.754
X64.486
X64.398 Y263.76
X64.324 Y263.784
G2 X64.281 Y264.05 I0.137 J0.159
X64.896 Y265.284 I5.801 J-2.121
X66.828 Y268.004 I53.805 J-36.173
G1 X67.158 Y268.485
X67.406 Y268.892
X67.614 Y269.32
G3 X67.773 Y270.449 I-1.735 J0.82
X66.507 Y271.744 I-1.671 J-0.366
X64.709 Y271.961 I-1.893 J-8.144
G1 X64.626 Y271.989
X64.581 Y272.023
X64.562 Y272.076
X64.584 Y272.137
G2 X65.438 Y273.264 I7.637 J-4.895
G1 X65.507 Y273.306
X65.596 Y273.346
G2 X66.932 Y273.21 I0.218 J-4.49
G1 X67.298 Y273.116
G2 X69.218 Y271.371 I-0.583 J-2.571
X68.958 Y269.582 I-2.371 J-0.569
X68.024 Y268.257 I-7.784 J4.496
G3 X66.194 Y265.381 I14.291 J-11.112
G1 X66.141 Y265.182
X66.148 Y265.132
X66.171 Y265.087
X66.2 Y265.057
X66.24 Y265.045
X69.725
X69.778 Y265.042
X69.823 Y265.028
X69.852 Y264.994
X69.869 Y264.946
Z1.
X61.498 Y265.512
Z-0.075 F250.
G2 X59.921 Y263.748 I-3.864 J1.867 F750.
X57.478 Y264.15 I-0.951 J1.842
X56.798 Y265.152 I1.991 J2.084
X56.404 Y266.823 I5.624 J2.208
X56.646 Y270.993 I10.052 J1.508
X57.461 Y272.355 I3.984 J-1.457
G1 X57.796 Y272.718
G2 X58.833 Y273.32 I1.617 J-1.591
X60.589 Y272.924 I0.407 J-2.288
X61.973 Y270.802 I-1.827 J-2.704
X62.067 Y267.246 I-11.243 J-2.077
X61.495 Y265.513 I-7.059 J1.367
G0 X61.498 Y265.512 Z1.
X57.509 Y268.342
Z-0.075 F250.
G3 X57.877 Y265.955 I9.93 J0.311 F750.
X60.18 Y265.001 I1.615 J0.642
X60.602 Y265.694 I-0.859 J0.998
X60.799 Y270.052 I-10.371 J2.653
G1 X60.681 Y270.58
G3 X60.343 Y271.322 I-1.989 J-0.46
X58.44 Y272.044 I-1.505 J-1.096
X57.947 Y271.578 I0.363 J-0.878
G1 X57.88 Y271.432
G3 X57.503 Y268.72 I7.955 J-2.489
G1 X57.509 Y268.342
Z1.
X54.349 Y264.946
Z-0.075 F250.
X54.34 Y264.886 F750.
G2 X53.658 Y263.845 I-5.772 J3.038
G1 X53.609 Y263.805
X53.554 Y263.775
X53.493 Y263.758
X53.43 Y263.754
X48.965
X48.878 Y263.76
X48.804 Y263.784
G2 X48.76 Y264.05 I0.137 J0.159
X49.375 Y265.284 I5.801 J-2.121
X51.308 Y268.004 I53.799 J-36.169
G1 X51.638 Y268.485
X51.885 Y268.892
X52.094 Y269.32
G3 X52.253 Y270.449 I-1.735 J0.82
X50.987 Y271.744 I-1.671 J-0.366
X49.189 Y271.961 I-1.893 J-8.144
G1 X49.106 Y271.989
X49.061 Y272.023
X49.041 Y272.076
X49.064 Y272.137
G2 X49.918 Y273.264 I7.652 J-4.907
G1 X49.987 Y273.306
X50.076 Y273.346
G2 X51.412 Y273.21 I0.218 J-4.49
G1 X51.778 Y273.116
G2 X53.698 Y271.371 I-0.583 J-2.571
X53.438 Y269.582 I-2.371 J-0.569
X52.504 Y268.257 I-7.796 J4.504
G3 X50.674 Y265.381 I14.287 J-11.109
G1 X50.621 Y265.182
X50.628 Y265.132
X50.651 Y265.087
X50.68 Y265.057
X50.719 Y265.045
X54.205
X54.258 Y265.042
X54.303 Y265.028
X54.331 Y264.994
X54.349 Y264.946
Z1.
X40.401 Y266.443
Z-0.075 F250.
G2 X39.154 Y264.374 I-4.136 J1.082 F750.
X37.966 Y263.655 I-2.458 J2.721
X36.005 Y263.688 I-0.93 J3.014
X34.31 Y265.262 I1.066 J2.849
X34.386 Y269.013 I3.901 J1.797
G1 X34.641 Y269.431
G2 X36.051 Y270.707 I3.111 J-2.021
X38.022 Y270.964 I1.364 J-2.769
X39.916 Y269.649 I-0.625 J-2.92
X40.518 Y267.422 I-3.446 J-2.127
G1 X40.484 Y266.927
X40.451 Y266.683
X40.401 Y266.443
Z1.
X37.287 Y264.346
Z-0.075 F250.
G3 X38.163 Y264.519 I-0.049 J2.549 F750.
X38.834 Y265.1 I-1.098 J1.947
G1 X39.073 Y265.594
G3 X39.321 Y266.643 I-2.737 J1.2
X39.264 Y267.947 I-4.333 J0.465
X38.181 Y269.777 I-3.329 J-0.734
X36.684 Y270.143 I-1.101 J-1.26
X35.734 Y269.597 I0.171 J-1.397
G1 X35.575 Y269.422
X35.352 Y268.924
G3 X35.117 Y267.877 I2.915 J-1.205
X35.179 Y266.583 I4.1 J-0.452
X36.636 Y264.528 I3.311 J0.803
X37.287 Y264.346 I0.765 J1.484
G1 Z1.
X33.233 Y270.8
Z-0.075 F250.
G2 X32.8 Y270.041 I-1.89 J0.575 F750.
G1 X32.206 Y269.957
X31.608 Y269.912
G2 X31.35 Y266.974 I-1.878 J-1.316
X29.392 Y266.007 I-2.277 J2.145
G1 X29.019 Y265.979
X28.988
X28.736 Y265.754
X28.51 Y265.504
X28.414 Y265.374
X28.35 Y265.227
G3 X28.768 Y264.866 I0.496 J0.152
X30.294 Y264.575 I2.115 J6.951
G1 X30.862 Y264.501
G2 X31.943 Y264.187 I-0.48 J-3.67
G1 X32.451 Y263.929
X32.702 Y263.705
G2 X33.025 Y263.156 I-0.718 J-0.791
G1 X33.088 Y262.828
X33.04 Y262.426
G2 X32.754 Y261.696 I-1.709 J0.249
X31.467 Y260.525 I-2.953 J1.952
X28.114 Y260.074 I-2.253 J4.065
X26.751 Y260.624 I0.527 J3.273
X26.078 Y261.367 I1.018 J1.598
X25.964 Y262.156 I1.68 J0.645
X26.379 Y262.951 I1.352 J-0.2
X27.98 Y264.054 I4.35 J-4.601
G1 X27.665 Y264.181
G2 X27.159 Y264.743 I0.311 J0.789
G1 X27.105 Y264.901
G2 X27.34 Y265.36 I0.86 J-0.151
X28.198 Y266.085 I3.221 J-2.941
G1 X27.841 Y266.216
G2 X26.545 Y267.739 I0.833 J2.023
X27.132 Y269.954 I2.41 J0.546
X29.835 Y270.999 I2.307 J-1.949
X30.985 Y270.535 I-0.438 J-2.749
G3 X33.081 Y271.028 I-0.564 J7.101
G1 X33.233 Y270.8
Z1.
X29.176 Y266.807
Z-0.075 F250.
X29.325 Y266.791 F750.
G3 X30.102 Y266.88 I0.231 J1.416
X30.957 Y268.295 I-0.614 J1.338
X30.015 Y270.011 I-1.889 J0.079
X28.576 Y270.225 I-1.029 J-1.977
X27.563 Y268.484 I0.546 J-1.483
X28.467 Y267.036 I1.791 J0.112
X29.176 Y266.807 I1.072 J2.106
G1 Z1.
X24.895 Y268.827
Z-0.075 F250.
G2 X24.926 Y266.208 I-4.072 J-1.358 F750.
X23.925 Y264.54 I-4.177 J1.374
G1 X23.744 Y264.377
G2 X22.56 Y263.655 I-2.416 J2.631
X20.599 Y263.688 I-0.93 J3.013
X18.904 Y265.262 I1.066 J2.849
X18.98 Y269.013 I3.901 J1.797
G1 X19.235 Y269.431
G2 X20.644 Y270.707 I3.11 J-2.02
X21.505 Y270.983 I1.145 J-2.088
X23.616 Y270.56 I0.504 J-2.962
X24.895 Y268.827 I-1.759 J-2.637
G1 Z1.
X21.881 Y264.346
Z-0.075 F250.
G3 X22.757 Y264.519 I-0.049 J2.549 F750.
X23.428 Y265.1 I-1.096 J1.945
G1 X23.667 Y265.594
G3 X23.915 Y266.643 I-2.738 J1.2
X23.858 Y267.947 I-4.328 J0.465
X22.775 Y269.777 I-3.329 J-0.734
X21.278 Y270.143 I-1.101 J-1.26
X20.328 Y269.597 I0.171 J-1.397
G1 X20.169 Y269.422
X19.946 Y268.924
G3 X19.711 Y267.877 I2.915 J-1.205
X19.773 Y266.583 I4.097 J-0.452
X21.23 Y264.528 I3.311 J0.803
X21.881 Y264.346 I0.765 J1.483
G1 Z1.
X16.178 Y270.76
Z-0.075 F250.
G2 X15.892 Y269.884 I-2.13 J0.211 F750.
G1 X15.64 Y269.483
X15.302 Y269.151
G2 X14.519 Y268.654 I-1.676 J1.775
G1 X14.075 Y268.485
X16.376 Y264.794
G3 X17.37 Y264.329 I0.89 J0.608
G1 X17.557 Y264.33
X17.743 Y264.346
X17.826 Y264.02
G2 X16.126 Y263.633 I-2.223 J5.837
X15.382 Y264.05 I0.032 J0.929
G1 X13.081 Y268.31
G2 X11.874 Y268.378 I-0.362 J4.319
G1 Y264.529
G3 X12.166 Y264.298 I0.394 J0.2
G1 X12.363 Y264.223
X12.564 Y264.158
X12.974 Y264.065
Y263.739
X9.558
Y264.065
X9.964 Y264.159
X10.359 Y264.293
G3 X10.659 Y264.529 I-0.089 J0.421
G1 Y272.767
X9.968 Y272.668
X9.558 Y272.608
X9.489 Y273.078
G2 X11.922 Y273.51 I3.816 J-14.418
X13.714 Y273.472 I0.707 J-8.886
G1 X13.953 Y273.429
X14.19 Y273.372
G2 X15.304 Y272.913 I-0.712 J-3.312
G1 X15.446 Y272.805
G2 X16.122 Y271.86 I-1.327 J-1.662
X16.178 Y270.76 I-2.406 J-0.676
G1 Z1.
X11.874 Y268.986
Z-0.075 F250.
G3 X13.521 Y269.037 I0.69 J4.327 F750.
G1 X13.748 Y269.116
X13.968 Y269.218
X14.394 Y269.464
X14.68 Y269.793
G3 X14.999 Y270.562 I-1.147 J0.926
X14.887 Y271.768 I-2.198 J0.403
G1 X14.793 Y271.935
X14.676 Y272.09
X14.402 Y272.384
X13.949 Y272.627
G3 X12.975 Y272.875 I-1.088 J-2.235
G1 X12.458 Y272.896
X12.166 Y272.89
X11.874 Y272.873
Y268.986
Z1.
X12.42 Y253.923
Z-0.075 F250.
X6.5 F750.
G3 X5.5 Y252.923 I0. J-1.
G1 Y240.923
G3 X6.5 Y239.923 I1. J0.
G1 X80.5
G3 X81.5 Y240.923 I0. J1.
G1 Y252.923
G3 X80.5 Y253.923 I-1. J0.001
G1 X12.42
Z1.
X77.173 Y251.256
Z-0.075 F250.
X77.189 Y251.198 F750.
X77.162 Y251.118
G2 X76.506 Y250.1 I-9.293 J5.267
G1 X76.429 Y250.067
X76.332 Y250.048
X76.232 Y250.044
X73.643
X73.546 Y250.036
X73.457 Y249.998
X73.41 Y249.922
X73.4 Y249.831
X73.419 Y249.103
X73.438 Y248.267
G3 X73.771 Y247.861 I0.39 J-0.02
G1 X74.607 Y247.865
G2 X76.813 Y246.831 I-0.046 J-2.968
G1 X77.003 Y246.519
G2 X77.22 Y245.845 I-1.404 J-0.826
X77.101 Y244.657 I-2.346 J-0.364
G1 X76.895 Y244.194
G2 X76.472 Y243.471 I-9.792 J5.239
G1 Y243.473
X76.478 Y243.485
X76.489 Y243.506
X76.566 Y243.643
G2 X74.639 Y242.094 I-3.3 J2.132
X73.344 Y242.008 I-0.882 J3.502
X72.162 Y242.265 I0.463 J4.978
G1 X71.942 Y242.352
G2 X71.869 Y242.653 I0.046 J0.171
G1 X72.176 Y243.088
X72.504 Y243.506
X72.577 Y243.569
X72.671 Y243.59
G3 X74.765 Y243.303 I1.889 J6.006
X75.918 Y244.18 I-0.144 J1.385
X74.879 Y246.421 I-1.401 J0.711
X73.582 Y246.565 I-1.139 J-4.343
G1 X73.02 Y246.566
G2 X72.465 Y246.837 I-0.059 J0.583
G1 X72.438 Y246.924
X72.42 Y247.014
X72.389 Y247.711
X72.371 Y248.408
X72.359 Y250.105
X72.34 Y250.279
X72.322 Y250.484
X72.333 Y250.651
X72.382 Y250.811
X72.489 Y251.031
X72.766 Y251.57
X72.873 Y251.743
X72.997 Y251.904
G2 X73.308 Y251.888 I0.149 J-0.138
G1 X73.442 Y251.653
X73.59 Y251.426
X73.636 Y251.384
X73.692 Y251.358
X73.84 Y251.342
X76.953
X77.046 Y251.335
X77.132 Y251.301
X77.173 Y251.256
Z1.
X69.869 Y243.408
Z-0.075 F250.
X69.86 Y243.347 F750.
G2 X69.178 Y242.307 I-5.713 J3.004
G1 X69.129 Y242.267
X69.074 Y242.238
X69.013 Y242.221
X68.95 Y242.216
X64.486
X64.398 Y242.222
X64.324 Y242.246
G2 X64.281 Y242.512 I0.136 J0.159
X64.896 Y243.746 I5.801 J-2.121
X66.828 Y246.466 I54.332 J-36.545
G1 X67.158 Y246.946
X67.406 Y247.353
X67.614 Y247.781
G3 X67.773 Y248.91 I-1.739 J0.821
X66.507 Y250.206 I-1.669 J-0.364
X64.709 Y250.423 I-1.891 J-8.092
G1 X64.626 Y250.45
X64.581 Y250.485
X64.562 Y250.538
X64.584 Y250.598
G2 X65.438 Y251.725 I7.476 J-4.771
G1 X65.507 Y251.768
X65.596 Y251.807
G2 X66.561 Y251.744 I0.254 J-3.532
X67.954 Y251.33 I-0.772 J-5.144
X69.217 Y249.833 I-1.207 J-2.301
X68.958 Y248.043 I-2.364 J-0.571
X68.023 Y246.718 I-8.152 J4.758
G3 X66.195 Y243.843 I14.321 J-11.128
G1 X66.141 Y243.643
X66.148 Y243.593
X66.171 Y243.548
X66.2 Y243.519
X66.24 Y243.506
X69.725
X69.778 Y243.503
X69.823 Y243.489
X69.852 Y243.456
X69.869 Y243.408
Z1.
X61.498 Y243.973
Z-0.075 F250.
G2 X59.921 Y242.21 I-3.859 J1.865 F750.
X57.367 Y242.73 I-0.953 J1.854
G1 X57.155 Y242.978
G2 X56.658 Y243.989 I2.757 J1.985
X56.643 Y249.455 I10.273 J2.761
X57.798 Y251.177 I4.276 J-1.621
X59.601 Y251.79 I1.465 J-1.35
X60.872 Y251.165 I-0.414 J-2.447
X61.972 Y249.263 I-2.053 J-2.455
X62.067 Y245.707 I-11.179 J-2.078
X61.495 Y243.974 I-7.081 J1.374
G0 X61.498 Y243.973 Z1.
X57.509 Y246.803
Z-0.075 F250.
G3 X57.877 Y244.417 I9.92 J0.311 F750.
X60.18 Y243.463 I1.615 J0.64
X60.598 Y244.157 I-0.814 J0.964
X60.688 Y249.044 I-10.031 J2.629
G1 X60.576 Y249.357
G3 X58.44 Y250.506 I-1.739 J-0.672
X57.947 Y250.04 I0.37 J-0.886
G1 X57.88 Y249.893
G3 X57.503 Y247.181 I7.943 J-2.487
G1 X57.509 Y246.803
Z1.
X54.349 Y243.408
Z-0.075 F250.
X54.34 Y243.347 F750.
G2 X53.658 Y242.307 I-5.706 J2.999
G1 X53.609 Y242.267
X53.554 Y242.237
X53.493 Y242.22
X53.43 Y242.216
X48.965
X48.878 Y242.222
X48.804 Y242.246
G2 X48.76 Y242.512 I0.136 J0.159
X49.375 Y243.746 I5.801 J-2.121
X51.308 Y246.466 I54.326 J-36.542
G1 X51.638 Y246.946
X51.885 Y247.353
X52.094 Y247.781
G3 X52.253 Y248.91 I-1.74 J0.821
X50.987 Y250.206 I-1.67 J-0.365
X49.189 Y250.423 I-1.891 J-8.092
G1 X49.106 Y250.45
X49.061 Y250.485
X49.041 Y250.538
X49.064 Y250.598
G2 X49.917 Y251.725 I7.49 J-4.782
G1 X49.987 Y251.768
X50.076 Y251.807
G2 X51.041 Y251.744 I0.254 J-3.533
X52.433 Y251.33 I-0.772 J-5.144
X53.697 Y249.833 I-1.207 J-2.301
X53.438 Y248.043 I-2.364 J-0.571
X52.503 Y246.718 I-8.156 J4.761
G3 X50.675 Y243.843 I14.316 J-11.125
G1 X50.621 Y243.643
X50.628 Y243.593
X50.651 Y243.548
X50.68 Y243.519
X50.719 Y243.506
X54.205
X54.258 Y243.503
X54.303 Y243.489
X54.331 Y243.456
X54.349 Y243.408
Z1.
X40.401 Y244.904
Z-0.075 F250.
G2 X39.154 Y242.835 I-4.147 J1.088 F750.
X37.966 Y242.116 I-2.458 J2.72
X36.005 Y242.15 I-0.929 J3.028
X34.31 Y243.724 I1.069 J2.851
X34.386 Y247.474 I3.902 J1.797
G1 X34.641 Y247.893
G2 X36.257 Y249.267 I3.205 J-2.13
X38.435 Y249.311 I1.147 J-2.868
X40.128 Y247.735 I-1.059 J-2.835
X40.399 Y244.904 I-3.95 J-1.806
G0 X40.401 Z1.
X37.287 Y242.808
Z-0.075 F250.
G3 X38.163 Y242.98 I-0.04 J2.519 F750.
X38.834 Y243.562 I-1.094 J1.94
G1 X39.073 Y244.055
G3 X39.321 Y245.105 I-2.736 J1.2
X39.264 Y246.408 I-4.329 J0.464
X38.181 Y248.239 I-3.332 J-0.735
X36.684 Y248.604 I-1.101 J-1.261
X35.734 Y248.058 I0.168 J-1.389
G1 X35.575 Y247.884
X35.352 Y247.386
G3 X35.117 Y246.339 I2.933 J-1.209
X35.179 Y245.044 I4.107 J-0.452
X36.636 Y242.989 I3.311 J0.804
X37.287 Y242.808 I0.768 J1.499
G1 Z1.
X33.233 Y249.262
Z-0.075 F250.
G2 X32.8 Y248.503 I-1.89 J0.575 F750.
G1 X32.206 Y248.418
X31.608 Y248.374
G2 X31.35 Y245.436 I-1.879 J-1.316
X29.392 Y244.469 I-2.273 J2.137
G1 X29.019 Y244.44
X28.988
X28.736 Y244.216
X28.51 Y243.966
X28.414 Y243.836
X28.35 Y243.689
G3 X28.768 Y243.327 I0.498 J0.152
X30.294 Y243.036 I2.095 J6.842
G1 X30.862 Y242.963
G2 X31.943 Y242.649 I-0.51 J-3.768
G1 X32.451 Y242.39
X32.702 Y242.166
G2 X33.025 Y241.618 I-0.71 J-0.787
G1 X33.088 Y241.289
X33.04 Y240.888
G2 X32.753 Y240.158 I-1.731 J0.258
X31.467 Y238.987 I-2.893 J1.886
X28.114 Y238.536 I-2.254 J4.062
X26.901 Y238.983 I0.568 J3.409
G1 X26.751 Y239.085
G2 X26.078 Y239.828 I1.018 J1.598
X25.964 Y240.617 I1.68 J0.645
X26.379 Y241.412 I1.349 J-0.199
X27.978 Y242.519 I4.555 J-4.87
G1 X27.665 Y242.643
G2 X27.159 Y243.205 I0.306 J0.785
G1 X27.105 Y243.362
G2 X27.34 Y243.822 I0.859 J-0.149
X28.198 Y244.547 I3.221 J-2.942
G1 X27.841 Y244.677
G2 X26.544 Y246.2 I0.838 J2.028
X26.648 Y247.643 I2.477 J0.547
X29.835 Y249.462 I2.801 J-1.205
X30.986 Y248.997 I-0.454 J-2.776
G3 X33.081 Y249.491 I-0.597 J7.222
G1 X33.233 Y249.262
Z1.
X29.176 Y245.269
Z-0.075 F250.
X29.325 Y245.253 F750.
G3 X30.101 Y245.342 I0.231 J1.429
X30.957 Y246.756 I-0.615 J1.339
X30.016 Y248.472 I-1.89 J0.079
X28.576 Y248.685 I-1.028 J-1.973
X27.563 Y246.945 I0.545 J-1.482
X28.467 Y245.498 I1.79 J0.112
X29.176 Y245.269 I1.074 J2.112
G1 Z1.
X24.895 Y247.288
Z-0.075 F250.
G2 X24.926 Y244.669 I-4.068 J-1.358 F750.
X23.925 Y243.001 I-4.188 J1.38
G1 X23.744 Y242.838
G2 X22.56 Y242.116 I-2.416 J2.631
X20.599 Y242.15 I-0.929 J3.027
X18.903 Y243.724 I1.069 J2.851
X18.98 Y247.474 I3.901 J1.797
G1 X19.235 Y247.893
G2 X20.85 Y249.267 I3.204 J-2.13
X23.029 Y249.311 I1.147 J-2.868
X24.722 Y247.735 I-1.058 J-2.834
G1 X24.895 Y247.288
Z1.
X21.881 Y242.808
Z-0.075 F250.
G3 X22.757 Y242.98 I-0.04 J2.519 F750.
X23.428 Y243.562 I-1.094 J1.939
G1 X23.667 Y244.055
G3 X23.915 Y245.105 I-2.737 J1.2
X23.858 Y246.408 I-4.324 J0.465
X22.775 Y248.239 I-3.332 J-0.735
X21.277 Y248.604 I-1.101 J-1.261
X20.328 Y248.058 I0.168 J-1.389
G1 X20.169 Y247.884
X19.946 Y247.386
G3 X19.711 Y246.339 I2.933 J-1.209
X19.773 Y245.044 I4.104 J-0.452
X21.23 Y242.989 I3.311 J0.804
X21.881 Y242.808 I0.768 J1.498
G1 Z1.
X16.178 Y249.221
Z-0.075 F250.
G2 X15.892 Y248.346 I-2.127 J0.211 F750.
G1 X15.64 Y247.945
X15.302 Y247.613
G2 X14.518 Y247.115 I-1.707 J1.821
G1 X14.075 Y246.946
X16.376 Y243.256
G3 X17.37 Y242.791 I0.89 J0.606
G1 X17.557
X17.743 Y242.808
X17.826 Y242.481
G2 X16.126 Y242.094 I-2.247 J5.945
X15.381 Y242.512 I0.034 J0.933
G1 X13.081 Y246.771
G2 X11.874 Y246.84 I-0.361 J4.28
G1 Y242.99
G3 X12.166 Y242.76 I0.396 J0.203
G1 X12.363 Y242.684
X12.564 Y242.62
X12.974 Y242.527
Y242.2
X9.558
Y242.527
G3 X10.539 Y242.839 I-0.482 J3.213
G1 X10.607 Y242.906
X10.659 Y242.99
Y251.229
X9.968 Y251.13
X9.558 Y251.069
X9.489 Y251.54
G2 X11.922 Y251.971 I3.782 J-14.256
X13.714 Y251.936 I0.698 J-9.949
G1 X13.953 Y251.89
X14.19 Y251.834
G2 X15.304 Y251.375 I-0.712 J-3.312
G1 X15.446 Y251.267
G2 X16.122 Y250.321 I-1.333 J-1.666
G1 X16.161 Y250.17
X16.187 Y250.014
X16.217 Y249.695
X16.178 Y249.221
Z1.
X11.874 Y247.447
Z-0.075 F250.
G3 X13.521 Y247.499 I0.688 J4.362 F750.
G1 X13.748 Y247.578
X13.968 Y247.68
X14.394 Y247.926
X14.68 Y248.255
G3 X14.999 Y249.023 I-1.148 J0.927
X14.887 Y250.229 I-2.192 J0.404
G1 X14.793 Y250.396
X14.676 Y250.552
X14.402 Y250.845
X13.949 Y251.089
G3 X12.975 Y251.336 I-1.082 J-2.22
G1 X12.458 Y251.358
X12.166 Y251.352
X11.874 Y251.335
Y247.447
Z1.
X12.42 Y232.385
Z-0.075 F250.
X6.5 F750.
G3 X5.5 Y231.385 I0.001 J-1.001
G1 Y219.385
G3 X6.5 Y218.385 I1. J0.
G1 X80.5
G3 X81.5 Y219.385 I0. J1.
G1 Y231.385
G3 X80.5 Y232.385 I-1.001 J-0.001
G1 X12.42
Z1.
X76.646 Y222.215
Z-0.075 F250.
X76.502 Y221.979 F750.
X76.477 Y221.94
X76.472 Y221.932
Y221.934
X76.478 Y221.946
X76.489 Y221.967
X76.523 Y222.029
X76.566 Y222.105
G2 X74.639 Y220.555 I-3.298 J2.128
X73.344 Y220.47 I-0.882 J3.536
X72.161 Y220.725 I0.483 J5.106
G1 X71.942 Y220.814
G2 X71.829 Y221.041 I0.025 J0.154
G1 X71.866 Y221.118
X72.176 Y221.549
X72.504 Y221.968
X72.577 Y222.031
X72.671 Y222.052
G3 X74.765 Y221.765 I1.878 J5.927
X75.986 Y222.819 I-0.16 J1.419
X75.25 Y224.733 I-1.429 J0.549
X74.409 Y224.978 I-0.988 J-1.828
X72.902 Y225.029 I-1.135 J-11.261
G2 X72.516 Y225.225 I0.053 J0.581
G1 X72.468 Y225.301
X72.438 Y225.385
X72.42 Y225.476
X72.389 Y226.172
X72.371 Y226.869
X72.359 Y228.566
X72.34 Y228.741
X72.322 Y228.946
X72.333 Y229.113
X72.382 Y229.272
X72.489 Y229.493
X72.766 Y230.032
X72.873 Y230.204
X72.997 Y230.366
G2 X73.308 Y230.35 I0.149 J-0.138
G1 X73.442 Y230.115
X73.59 Y229.888
X73.636 Y229.845
X73.692 Y229.819
X73.84 Y229.804
X76.953
X77.046 Y229.797
X77.132 Y229.762
X77.173 Y229.718
X77.189 Y229.66
X77.162 Y229.58
G2 X76.506 Y228.561 I-9.15 J5.169
G1 X76.429 Y228.528
X76.332 Y228.51
X76.232 Y228.506
X73.643
X73.546 Y228.498
X73.457 Y228.46
X73.41 Y228.384
X73.4 Y228.293
X73.419 Y227.564
X73.438 Y226.729
G3 X73.771 Y226.322 I0.391 J-0.019
G1 X74.607 Y226.326
G2 X76.812 Y225.293 I-0.044 J-2.964
G1 X77.003 Y224.981
G2 X77.22 Y224.306 I-1.409 J-0.828
X77.101 Y223.118 I-2.349 J-0.363
G1 X76.895 Y222.656
X76.646 Y222.215
Z1.
X69.869 Y221.869
Z-0.075 F250.
X69.86 Y221.809 F750.
G2 X69.178 Y220.768 I-5.778 J3.043
G1 X69.13 Y220.728
X69.074 Y220.698
X69.013 Y220.681
X68.95 Y220.677
X64.486
X64.398 Y220.683
X64.324 Y220.707
G2 X64.281 Y220.973 I0.137 J0.159
X64.896 Y222.207 I5.801 J-2.121
X66.828 Y224.927 I53.809 J-36.176
G1 X67.158 Y225.408
X67.406 Y225.815
X67.614 Y226.243
G3 X67.773 Y227.372 I-1.735 J0.82
X66.507 Y228.668 I-1.671 J-0.366
X64.709 Y228.884 I-1.871 J-7.973
G1 X64.626 Y228.912
X64.581 Y228.946
X64.562 Y228.999
X64.584 Y229.06
G2 X65.438 Y230.187 I7.637 J-4.895
G1 X65.507 Y230.229
X65.596 Y230.269
G2 X66.932 Y230.133 I0.225 J-4.412
G1 X67.298 Y230.039
G2 X69.218 Y228.294 I-0.583 J-2.571
X68.958 Y226.505 I-2.372 J-0.568
X68.024 Y225.18 I-8.153 J4.759
G3 X66.194 Y222.304 I14.349 J-11.146
G1 X66.141 Y222.105
X66.148 Y222.055
X66.171 Y222.01
X66.2 Y221.98
X66.24 Y221.968
X69.725
X69.778 Y221.965
X69.823 Y221.951
X69.852 Y221.917
X69.869 Y221.869
Z1.
X61.498 Y222.435
Z-0.075 F250.
G2 X59.921 Y220.671 I-3.864 J1.867 F750.
X57.478 Y221.073 I-0.951 J1.843
X56.798 Y222.075 I1.991 J2.084
X56.404 Y223.746 I5.625 J2.208
X56.646 Y227.917 I10.054 J1.508
X57.461 Y229.278 I3.99 J-1.463
G1 X57.796 Y229.641
G2 X58.833 Y230.243 I1.617 J-1.592
X60.589 Y229.848 I0.407 J-2.293
X61.973 Y227.726 I-1.834 J-2.708
X62.067 Y224.169 I-11.257 J-2.078
X61.495 Y222.436 I-7.062 J1.369
G0 X61.498 Y222.435 Z1.
X57.509 Y225.265
Z-0.075 F250.
G3 X57.877 Y222.878 I9.93 J0.311 F750.
X60.18 Y221.924 I1.615 J0.642
X60.602 Y222.617 I-0.859 J0.998
X60.799 Y226.975 I-10.372 J2.653
G1 X60.681 Y227.503
G3 X60.343 Y228.245 I-1.989 J-0.46
X58.44 Y228.967 I-1.505 J-1.096
X57.947 Y228.501 I0.363 J-0.878
G1 X57.88 Y228.355
G3 X57.503 Y225.643 I7.954 J-2.489
G1 X57.509 Y225.265
Z1.
X54.349 Y221.869
Z-0.075 F250.
X54.34 Y221.809 F750.
G2 X53.658 Y220.768 I-5.771 J3.038
G1 X53.609 Y220.728
X53.553 Y220.699
X53.493 Y220.682
X53.43 Y220.677
X48.965
X48.878 Y220.683
X48.804 Y220.707
G2 X48.76 Y220.973 I0.137 J0.159
X49.376 Y222.207 I6.01 J-2.227
X51.308 Y224.927 I53.198 J-35.734
G1 X51.638 Y225.408
X51.885 Y225.815
X52.094 Y226.243
G3 X52.253 Y227.372 I-1.735 J0.82
X50.987 Y228.668 I-1.671 J-0.366
X49.189 Y228.884 I-1.871 J-7.973
G1 X49.106 Y228.912
X49.061 Y228.946
X49.041 Y228.999
X49.064 Y229.06
G2 X49.918 Y230.187 I7.652 J-4.906
G1 X49.987 Y230.229
X50.076 Y230.269
G2 X51.412 Y230.133 I0.225 J-4.412
G1 X51.778 Y230.039
G2 X53.698 Y228.294 I-0.583 J-2.571
X53.438 Y226.505 I-2.372 J-0.568
X52.503 Y225.18 I-8.156 J4.761
G3 X50.674 Y222.304 I14.344 J-11.143
G1 X50.621 Y222.105
X50.628 Y222.055
X50.651 Y222.01
X50.68 Y221.98
X50.719 Y221.968
X54.205
X54.258 Y221.965
X54.303 Y221.951
X54.331 Y221.917
X54.349 Y221.869
Z1.
X40.401 Y223.366
Z-0.075 F250.
G2 X39.154 Y221.297 I-4.138 J1.083 F750.
X37.966 Y220.578 I-2.458 J2.72
X36.005 Y220.611 I-0.93 J3.022
X34.31 Y222.185 I1.068 J2.85
X34.386 Y225.936 I3.902 J1.797
G1 X34.641 Y226.354
G2 X36.051 Y227.63 I3.111 J-2.021
X38.022 Y227.887 I1.364 J-2.769
X40.126 Y226.195 I-0.61 J-2.914
X40.398 Y223.367 I-3.92 J-1.804
G0 X40.401 Y223.366 Z1.
X37.287 Y221.269
Z-0.075 F250.
G3 X38.163 Y221.442 I-0.049 J2.55 F750.
X38.834 Y222.023 I-1.098 J1.947
G1 X39.073 Y222.517
G3 X39.321 Y223.566 I-2.737 J1.2
X39.264 Y224.87 I-4.333 J0.465
X38.182 Y226.7 I-3.33 J-0.735
X36.684 Y227.066 I-1.101 J-1.262
X35.734 Y226.52 I0.168 J-1.392
G1 X35.575 Y226.345
X35.352 Y225.848
G3 X35.117 Y224.8 I2.932 J-1.209
X35.179 Y223.506 I4.102 J-0.451
X36.636 Y221.451 I3.311 J0.803
X37.287 Y221.269 I0.765 J1.484
G1 Z1.
X33.233 Y227.723
Z-0.075 F250.
G2 X32.8 Y226.964 I-1.89 J0.575 F750.
G1 X32.206 Y226.88
X31.608 Y226.835
G2 X31.35 Y223.897 I-1.878 J-1.316
X29.392 Y222.93 I-2.277 J2.145
G1 X29.019 Y222.902
X28.988
X28.736 Y222.677
X28.51 Y222.427
X28.414 Y222.297
X28.35 Y222.15
G3 X28.768 Y221.789 I0.496 J0.152
X30.294 Y221.498 I2.116 J6.956
G1 X30.862 Y221.424
G2 X31.943 Y221.11 I-0.48 J-3.67
G1 X32.451 Y220.852
X32.702 Y220.628
G2 X33.025 Y220.079 I-0.718 J-0.791
G1 X33.088 Y219.751
X33.04 Y219.349
G2 X32.754 Y218.619 I-1.709 J0.249
X31.467 Y217.448 I-2.953 J1.952
X28.114 Y216.997 I-2.253 J4.065
X26.751 Y217.547 I0.527 J3.273
X26.078 Y218.29 I1.018 J1.598
X25.964 Y219.079 I1.68 J0.645
X26.379 Y219.874 I1.352 J-0.201
X27.98 Y220.977 I4.342 J-4.59
G1 X27.665 Y221.104
G2 X27.159 Y221.666 I0.311 J0.789
G1 X27.105 Y221.824
G2 X27.34 Y222.283 I0.86 J-0.151
X28.198 Y223.008 I3.221 J-2.942
G1 X27.841 Y223.139
G2 X26.512 Y224.849 I0.824 J2.012
X27.133 Y226.876 I2.423 J0.367
X29.835 Y227.922 I2.307 J-1.947
X30.986 Y227.458 I-0.446 J-2.765
G3 X33.081 Y227.951 I-0.563 J7.099
G1 X33.233 Y227.723
Z1.
X29.176 Y223.73
Z-0.075 F250.
X29.325 Y223.714 F750.
G3 X30.102 Y223.803 I0.231 J1.415
X30.957 Y225.218 I-0.614 J1.338
X30.015 Y226.934 I-1.89 J0.079
X28.576 Y227.148 I-1.03 J-1.981
X27.563 Y225.407 I0.546 J-1.483
X28.467 Y223.959 I1.791 J0.112
X29.176 Y223.73 I1.073 J2.106
G1 Z1.
X24.895 Y225.75
Z-0.075 F250.
G2 X24.926 Y223.131 I-4.073 J-1.358 F750.
X23.925 Y221.463 I-4.181 J1.376
G1 X23.744 Y221.3
G2 X22.56 Y220.578 I-2.416 J2.631
X20.599 Y220.611 I-0.93 J3.021
X18.903 Y222.185 I1.068 J2.85
X18.98 Y225.936 I3.901 J1.797
G1 X19.235 Y226.354
G2 X20.644 Y227.63 I3.111 J-2.02
X21.505 Y227.906 I1.145 J-2.087
X23.616 Y227.483 I0.504 J-2.962
X24.895 Y225.75 I-1.756 J-2.634
G1 Z1.
X21.881 Y221.269
Z-0.075 F250.
G3 X22.757 Y221.442 I-0.049 J2.55 F750.
X23.428 Y222.023 I-1.096 J1.945
G1 X23.667 Y222.517
G3 X23.915 Y223.566 I-2.738 J1.2
X23.858 Y224.87 I-4.329 J0.465
X22.775 Y226.7 I-3.33 J-0.735
X21.277 Y227.066 I-1.101 J-1.261
X20.328 Y226.52 I0.168 J-1.392
G1 X20.169 Y226.345
X19.946 Y225.848
G3 X19.711 Y224.8 I2.932 J-1.209
X19.773 Y223.506 I4.099 J-0.451
X21.23 Y221.451 I3.311 J0.803
X21.881 Y221.269 I0.765 J1.483
G1 Z1.
X16.178 Y227.683
Z-0.075 F250.
G2 X15.892 Y226.807 I-2.131 J0.211 F750.
G1 X15.64 Y226.406
X15.302 Y226.074
G2 X14.518 Y225.577 I-1.72 J1.847
G1 X14.075 Y225.408
X16.376 Y221.717
G3 X17.37 Y221.252 I0.891 J0.609
G1 X17.557 Y221.253
X17.743 Y221.269
X17.826 Y220.943
G2 X16.126 Y220.556 I-2.223 J5.838
X15.381 Y220.973 I0.032 J0.931
G1 X13.081 Y225.233
G2 X11.874 Y225.301 I-0.362 J4.317
G1 Y221.452
G3 X12.166 Y221.221 I0.394 J0.2
G1 X12.363 Y221.146
X12.564 Y221.081
X12.974 Y220.988
Y220.662
X9.558
Y220.988
X9.964 Y221.082
X10.359 Y221.216
G3 X10.659 Y221.452 I-0.089 J0.421
G1 Y229.69
X9.968 Y229.591
X9.558 Y229.531
X9.489 Y230.001
G2 X11.922 Y230.433 I3.815 J-14.416
X13.714 Y230.397 I0.698 J-9.901
G1 X13.953 Y230.352
X14.19 Y230.295
G2 X15.304 Y229.836 I-0.712 J-3.312
G1 X15.446 Y229.728
G2 X16.122 Y228.783 I-1.327 J-1.662
X16.178 Y227.683 I-2.407 J-0.676
G1 Z1.
X11.874 Y225.909
Z-0.075 F250.
G3 X13.521 Y225.96 I0.69 J4.326 F750.
G1 X13.748 Y226.039
X13.968 Y226.141
X14.394 Y226.387
X14.68 Y226.716
G3 X15. Y227.485 I-1.13 J0.92
X14.887 Y228.691 I-2.203 J0.402
G1 X14.793 Y228.858
X14.676 Y229.013
X14.402 Y229.307
X13.949 Y229.55
G3 X12.975 Y229.798 I-1.088 J-2.234
G1 X12.458 Y229.819
X12.166 Y229.813
X11.874 Y229.796
Y225.909
Z1.
X12.42 Y210.846
Z-0.075 F250.
X6.5 F750.
G3 X5.5 Y209.846 I0. J-1.
G1 Y197.846
G3 X6.5 Y196.846 I1. J0.
G1 X80.5
G3 X81.5 Y197.846 I0. J1.
G1 Y209.846
G3 X80.5 Y210.846 I-0.999 J0.001
G1 X12.42
Z1.
X76.646 Y200.676
Z-0.075 F250.
X76.542 Y200.505 F750.
X76.477 Y200.401
X76.472 Y200.394
Y200.396
X76.478 Y200.408
X76.489 Y200.429
X76.566 Y200.566
G2 X74.639 Y199.017 I-3.3 J2.132
X73.344 Y198.931 I-0.882 J3.501
X72.162 Y199.188 I0.463 J4.978
G1 X71.942 Y199.275
G2 X71.869 Y199.576 I0.046 J0.171
G1 X72.176 Y200.011
X72.504 Y200.43
X72.577 Y200.493
X72.671 Y200.513
G3 X74.765 Y200.226 I1.889 J6.006
X75.986 Y201.28 I-0.162 J1.422
X75.251 Y203.194 I-1.429 J0.549
X74.409 Y203.44 I-0.986 J-1.815
X72.902 Y203.491 I-1.143 J-11.491
G2 X72.516 Y203.686 I0.051 J0.579
G1 X72.468 Y203.762
X72.438 Y203.847
X72.42 Y203.937
X72.389 Y204.634
X72.371 Y205.331
X72.359 Y207.028
X72.34 Y207.202
X72.322 Y207.408
X72.333 Y207.574
X72.382 Y207.734
X72.489 Y207.954
X72.766 Y208.493
X72.873 Y208.666
X72.997 Y208.827
G2 X73.308 Y208.811 I0.149 J-0.138
G1 X73.442 Y208.576
X73.59 Y208.349
X73.636 Y208.307
X73.692 Y208.281
X73.84 Y208.266
X76.953
X77.046 Y208.258
X77.132 Y208.224
X77.173 Y208.18
X77.189 Y208.121
X77.162 Y208.042
G2 X76.506 Y207.023 I-9.097 J5.135
G1 X76.429 Y206.99
X76.332 Y206.971
X76.232 Y206.967
X73.643
X73.546 Y206.959
X73.457 Y206.922
X73.41 Y206.845
X73.4 Y206.755
X73.419 Y206.026
X73.438 Y205.19
G3 X73.771 Y204.784 I0.39 J-0.02
G1 X74.607 Y204.788
G2 X76.813 Y203.754 I-0.046 J-2.968
G1 X77.003 Y203.442
G2 X77.22 Y202.768 I-1.403 J-0.826
X77.101 Y201.58 I-2.347 J-0.364
G1 X76.895 Y201.117
X76.646 Y200.676
Z1.
X69.869 Y200.331
Z-0.075 F250.
X69.86 Y200.27 F750.
G2 X69.178 Y199.23 I-5.714 J3.005
G1 X69.13 Y199.19
X69.074 Y199.16
X69.013 Y199.143
X68.95 Y199.139
X64.486
X64.398 Y199.145
X64.324 Y199.169
G2 X64.281 Y199.435 I0.136 J0.159
X64.896 Y200.669 I5.801 J-2.121
X66.828 Y203.389 I54.34 J-36.551
G1 X67.158 Y203.869
X67.406 Y204.276
X67.614 Y204.704
G3 X67.773 Y205.833 I-1.74 J0.821
X66.507 Y207.129 I-1.672 J-0.366
X64.709 Y207.346 I-1.892 J-8.126
G1 X64.626 Y207.373
X64.581 Y207.408
X64.562 Y207.461
X64.584 Y207.521
G2 X65.438 Y208.648 I7.474 J-4.769
G1 X65.507 Y208.691
X65.596 Y208.73
G2 X66.561 Y208.667 I0.254 J-3.531
X67.954 Y208.253 I-0.772 J-5.144
X69.217 Y206.756 I-1.207 J-2.301
X68.958 Y204.966 I-2.364 J-0.571
X68.023 Y203.641 I-8.15 J4.757
G3 X66.195 Y200.766 I14.337 J-11.139
G1 X66.141 Y200.566
X66.148 Y200.516
X66.171 Y200.471
X66.2 Y200.442
X66.24 Y200.43
X69.725
X69.778 Y200.426
X69.823 Y200.413
X69.852 Y200.379
X69.869 Y200.331
Z1.
X61.498 Y200.896
Z-0.075 F250.
G2 X59.921 Y199.133 I-3.859 J1.865 F750.
X57.367 Y199.653 I-0.953 J1.854
G1 X57.155 Y199.901
G2 X56.658 Y200.912 I2.757 J1.985
X56.643 Y206.378 I10.274 J2.761
X57.798 Y208.1 I4.276 J-1.621
X59.601 Y208.714 I1.466 J-1.35
X60.872 Y208.088 I-0.415 J-2.449
X61.972 Y206.186 I-2.053 J-2.455
X62.067 Y202.63 I-11.179 J-2.078
X61.495 Y200.897 I-7.081 J1.374
G0 X61.498 Y200.896 Z1.
X57.509 Y203.726
Z-0.075 F250.
G3 X57.877 Y201.34 I9.92 J0.311 F750.
X60.18 Y200.386 I1.615 J0.641
X60.598 Y201.08 I-0.815 J0.965
X60.688 Y205.966 I-10.031 J2.629
G1 X60.576 Y206.28
G3 X58.44 Y207.429 I-1.738 J-0.671
X57.947 Y206.963 I0.37 J-0.885
G1 X57.88 Y206.816
G3 X57.503 Y204.105 I7.942 J-2.487
G1 X57.509 Y203.726
Z1.
X54.349 Y200.331
Z-0.075 F250.
X54.34 Y200.27 F750.
G2 X53.658 Y199.23 I-5.707 J3.
G1 X53.609 Y199.19
X53.554 Y199.16
X53.493 Y199.143
X53.43 Y199.139
X48.965
X48.878 Y199.145
X48.804 Y199.169
G2 X48.76 Y199.435 I0.136 J0.159
X49.375 Y200.669 I5.801 J-2.121
X51.308 Y203.389 I54.335 J-36.547
G1 X51.638 Y203.869
X51.885 Y204.276
X52.094 Y204.704
G3 X52.253 Y205.833 I-1.74 J0.821
X50.987 Y207.129 I-1.672 J-0.366
X49.189 Y207.346 I-1.892 J-8.127
G1 X49.106 Y207.373
X49.061 Y207.408
X49.041 Y207.461
X49.064 Y207.521
G2 X49.917 Y208.648 I7.488 J-4.781
G1 X49.987 Y208.691
X50.076 Y208.73
G2 X51.041 Y208.667 I0.254 J-3.531
X52.433 Y208.253 I-0.772 J-5.144
X53.697 Y206.756 I-1.207 J-2.301
X53.438 Y204.966 I-2.364 J-0.571
X52.503 Y203.641 I-8.153 J4.759
G3 X50.674 Y200.766 I14.332 J-11.136
G1 X50.621 Y200.566
X50.628 Y200.516
X50.651 Y200.471
X50.68 Y200.442
X50.719 Y200.43
X54.205
X54.258 Y200.426
X54.303 Y200.413
X54.331 Y200.379
X54.349 Y200.331
Z1.
X40.401 Y201.827
Z-0.075 F250.
G2 X39.154 Y199.758 I-4.147 J1.088 F750.
X37.966 Y199.039 I-2.458 J2.72
X36.005 Y199.073 I-0.929 J3.025
X34.31 Y200.647 I1.068 J2.85
X34.386 Y204.397 I3.902 J1.797
G1 X34.641 Y204.816
G2 X36.051 Y206.092 I3.111 J-2.021
X38.022 Y206.349 I1.364 J-2.769
X39.917 Y205.035 I-0.589 J-2.872
X40.518 Y202.806 I-3.474 J-2.132
G1 X40.484 Y202.311
X40.451 Y202.067
X40.401 Y201.827
Z1.
X37.287 Y199.731
Z-0.075 F250.
G3 X38.164 Y199.901 I-0.061 J2.667 F750.
X38.835 Y200.484 I-1.155 J2.003
G1 X39.073 Y200.978
G3 X39.321 Y202.028 I-2.743 J1.202
X39.264 Y203.331 I-4.33 J0.464
X38.181 Y205.162 I-3.332 J-0.735
X36.684 Y205.527 I-1.1 J-1.259
X35.734 Y204.982 I0.168 J-1.392
G1 X35.575 Y204.807
X35.352 Y204.309
G3 X35.117 Y203.262 I2.924 J-1.207
X35.179 Y201.968 I4.095 J-0.452
X36.636 Y199.912 I3.312 J0.803
X37.287 Y199.731 I0.768 J1.498
G1 Z1.
X33.233 Y206.185
Z-0.075 F250.
G2 X32.8 Y205.426 I-1.89 J0.575 F750.
G1 X32.206 Y205.342
X31.608 Y205.297
G2 X31.35 Y202.359 I-1.878 J-1.316
X29.392 Y201.392 I-2.275 J2.14
G1 X29.019 Y201.363
X28.988
X28.736 Y201.139
X28.51 Y200.889
X28.414 Y200.759
X28.35 Y200.612
G3 X28.768 Y200.25 I0.499 J0.153
X30.294 Y199.959 I2.096 J6.849
G1 X30.862 Y199.886
G2 X31.943 Y199.572 I-0.51 J-3.768
G1 X32.451 Y199.313
X32.702 Y199.089
G2 X33.025 Y198.541 I-0.71 J-0.787
G1 X33.088 Y198.212
X33.04 Y197.811
G2 X32.754 Y197.081 I-1.709 J0.249
X31.467 Y195.91 I-2.897 J1.891
X28.114 Y195.459 I-2.254 J4.062
X26.901 Y195.906 I0.568 J3.409
G1 X26.751 Y196.008
G2 X26.078 Y196.751 I1.017 J1.598
X25.964 Y197.54 I1.688 J0.646
X26.379 Y198.335 I1.349 J-0.199
X27.649 Y199.26 I4.124 J-4.322
G1 X27.978 Y199.442
X27.665 Y199.566
G2 X27.159 Y200.128 I0.31 J0.789
G1 X27.105 Y200.285
G2 X27.34 Y200.745 I0.859 J-0.149
X28.198 Y201.47 I3.222 J-2.943
G1 X27.841 Y201.6
G2 X26.544 Y203.123 I0.838 J2.027
X26.649 Y204.567 I2.48 J0.547
X29.835 Y206.386 I2.801 J-1.207
X30.986 Y205.92 I-0.455 J-2.78
G3 X33.081 Y206.414 I-0.593 J7.208
G1 X33.233 Y206.185
Z1.
X29.176 Y202.192
Z-0.075 F250.
X29.325 Y202.176 F750.
G3 X30.101 Y202.265 I0.23 J1.429
X30.957 Y203.679 I-0.616 J1.339
X30.015 Y205.395 I-1.891 J0.079
X28.576 Y205.609 I-1.028 J-1.979
X27.563 Y203.868 I0.545 J-1.482
X28.467 Y202.421 I1.789 J0.111
X29.176 Y202.192 I1.072 J2.103
G1 Z1.
X24.895 Y204.211
Z-0.075 F250.
G2 X24.926 Y201.592 I-4.068 J-1.358 F750.
X23.925 Y199.924 I-4.188 J1.38
G1 X23.744 Y199.761
G2 X22.56 Y199.039 I-2.416 J2.631
X20.599 Y199.073 I-0.928 J3.025
X18.903 Y200.647 I1.068 J2.85
X18.98 Y204.398 I3.902 J1.797
G1 X19.235 Y204.816
G2 X20.644 Y206.092 I3.11 J-2.02
X21.505 Y206.368 I1.145 J-2.087
X24.72 Y204.657 I0.505 J-2.927
G1 X24.895 Y204.211
Z1.
X21.881 Y199.731
Z-0.075 F250.
G3 X22.758 Y199.901 I-0.061 J2.667 F750.
X23.428 Y200.484 I-1.155 J2.003
G1 X23.667 Y200.978
G3 X23.915 Y202.028 I-2.744 J1.201
X23.858 Y203.331 I-4.325 J0.465
X22.775 Y205.162 I-3.332 J-0.735
X21.277 Y205.527 I-1.1 J-1.259
X20.328 Y204.982 I0.168 J-1.392
G1 X20.169 Y204.807
X19.946 Y204.309
G3 X19.711 Y203.262 I2.924 J-1.207
X19.773 Y201.968 I4.093 J-0.452
X21.23 Y199.912 I3.312 J0.803
X21.881 Y199.731 I0.768 J1.497
G1 Z1.
X16.178 Y206.145
Z-0.075 F250.
G2 X15.892 Y205.269 I-2.124 J0.209 F750.
G1 X15.64 Y204.868
X15.302 Y204.536
G2 X14.518 Y204.038 I-1.707 J1.822
G1 X14.075 Y203.869
X16.376 Y200.179
G3 X17.37 Y199.714 I0.89 J0.606
G1 X17.557
X17.743 Y199.731
X17.826 Y199.404
G2 X16.126 Y199.017 I-2.247 J5.943
X15.381 Y199.435 I0.034 J0.933
G1 X13.081 Y203.695
G2 X11.874 Y203.763 I-0.369 J4.205
G1 Y199.913
G3 X12.166 Y199.683 I0.396 J0.203
G1 X12.363 Y199.607
X12.564 Y199.543
X12.974 Y199.45
Y199.124
X9.558
Y199.45
X9.964 Y199.544
X10.359 Y199.678
G3 X10.659 Y199.913 I-0.09 J0.423
G1 Y208.152
X9.968 Y208.053
X9.558 Y207.992
X9.489 Y208.463
G2 X11.922 Y208.894 I3.783 J-14.261
X13.714 Y208.859 I0.7 J-9.821
G1 X13.953 Y208.813
X14.19 Y208.757
G2 X15.304 Y208.298 I-0.712 J-3.312
G1 X15.446 Y208.19
G2 X16.122 Y207.244 I-1.333 J-1.666
G1 X16.161 Y207.093
X16.187 Y206.937
X16.217 Y206.618
X16.178 Y206.145
Z1.
X11.874 Y204.37
Z-0.075 F250.
G3 X13.521 Y204.422 I0.688 J4.363 F750.
G1 X13.748 Y204.501
X13.968 Y204.603
X14.394 Y204.849
X14.68 Y205.178
G3 X14.999 Y205.946 I-1.149 J0.927
X14.887 Y207.152 I-2.191 J0.404
G1 X14.793 Y207.319
X14.676 Y207.475
X14.402 Y207.768
X13.949 Y208.012
G3 X12.975 Y208.259 I-1.082 J-2.219
G1 X12.458 Y208.281
X12.166 Y208.275
X11.874 Y208.258
Y204.37
Z1.
X12.42 Y189.308
Z-0.075 F250.
X6.5 F750.
G3 X5.5 Y188.308 I0.001 J-1.001
G1 Y176.308
G3 X6.5 Y175.308 I1. J0.
G1 X80.5
G3 X81.5 Y176.308 I0. J0.999
G1 Y188.308
G3 X80.5 Y189.308 I-1.001 J-0.001
G1 X12.42
Z1.
X76.646 Y179.138
Z-0.075 F250.
X76.502 Y178.902 F750.
X76.477 Y178.863
X76.472 Y178.855
Y178.857
X76.478 Y178.869
X76.489 Y178.89
X76.523 Y178.952
X76.566 Y179.028
G2 X74.639 Y177.478 I-3.296 J2.127
X73.344 Y177.393 I-0.882 J3.514
X72.161 Y177.648 I0.483 J5.106
G1 X71.942 Y177.737
G2 X71.829 Y177.964 I0.025 J0.154
G1 X71.866 Y178.041
X72.176 Y178.472
X72.504 Y178.891
X72.577 Y178.954
X72.671 Y178.975
G3 X74.765 Y178.688 I1.878 J5.926
X75.986 Y179.742 I-0.16 J1.42
X75.25 Y181.656 I-1.429 J0.549
X74.409 Y181.901 I-0.989 J-1.831
X72.902 Y181.952 I-1.146 J-11.445
G2 X72.516 Y182.148 I0.05 J0.576
G1 X72.468 Y182.224
X72.438 Y182.308
X72.42 Y182.399
X72.389 Y183.095
X72.371 Y183.792
X72.359 Y185.489
X72.34 Y185.664
X72.322 Y185.869
X72.333 Y186.036
X72.382 Y186.196
X72.489 Y186.416
X72.766 Y186.955
X72.873 Y187.127
X72.997 Y187.289
G2 X73.308 Y187.273 I0.149 J-0.138
G1 X73.442 Y187.038
X73.59 Y186.811
X73.636 Y186.768
X73.692 Y186.742
X73.84 Y186.727
X76.953
X77.046 Y186.72
X77.132 Y186.685
X77.173 Y186.641
X77.189 Y186.583
X77.162 Y186.503
G2 X76.506 Y185.484 I-9.244 J5.231
G1 X76.429 Y185.451
X76.332 Y185.433
X76.232 Y185.429
X73.643
X73.546 Y185.421
X73.457 Y185.383
X73.41 Y185.307
X73.4 Y185.216
X73.419 Y184.487
X73.438 Y183.652
G3 X73.771 Y183.245 I0.391 J-0.02
G1 X74.607 Y183.249
G2 X76.812 Y182.216 I-0.044 J-2.964
G1 X77.003 Y181.904
G2 X77.22 Y181.229 I-1.409 J-0.828
X77.101 Y180.041 I-2.349 J-0.363
G1 X76.895 Y179.579
X76.646 Y179.138
Z1.
X69.869 Y178.792
Z-0.075 F250.
X69.86 Y178.732 F750.
G2 X69.178 Y177.691 I-5.78 J3.044
G1 X69.13 Y177.651
X69.074 Y177.621
X69.013 Y177.604
X68.95 Y177.6
X64.486
X64.398 Y177.606
X64.324 Y177.63
G2 X64.281 Y177.896 I0.136 J0.159
X64.896 Y179.13 I5.737 J-2.089
X66.828 Y181.85 I53.365 J-35.856
G1 X67.158 Y182.331
X67.406 Y182.738
X67.614 Y183.166
G3 X67.773 Y184.295 I-1.735 J0.82
X66.507 Y185.591 I-1.671 J-0.365
X64.709 Y185.808 I-1.891 J-8.097
G1 X64.626 Y185.835
X64.581 Y185.869
X64.562 Y185.922
X64.584 Y185.983
G2 X65.438 Y187.11 I7.662 J-4.912
G1 X65.507 Y187.152
X65.596 Y187.192
G2 X66.932 Y187.056 I0.225 J-4.412
G1 X67.298 Y186.962
G2 X69.218 Y185.217 I-0.583 J-2.571
X68.958 Y183.428 I-2.372 J-0.568
X68.024 Y182.103 I-8.151 J4.758
G3 X66.194 Y179.227 I14.349 J-11.146
G1 X66.141 Y179.028
X66.148 Y178.978
X66.171 Y178.933
X66.2 Y178.903
X66.24 Y178.891
X69.725
X69.778 Y178.888
X69.823 Y178.874
X69.852 Y178.84
X69.869 Y178.792
Z1.
X61.498 Y179.358
Z-0.075 F250.
G2 X59.921 Y177.594 I-3.865 J1.869 F750.
X57.478 Y177.996 I-0.951 J1.842
X56.798 Y178.998 I1.99 J2.083
X56.404 Y180.669 I5.624 J2.208
X56.646 Y184.84 I10.053 J1.509
X57.461 Y186.201 I3.99 J-1.463
G1 X57.796 Y186.564
G2 X58.833 Y187.166 I1.617 J-1.591
X60.589 Y186.771 I0.407 J-2.292
X61.973 Y184.649 I-1.834 J-2.708
X62.067 Y181.092 I-11.262 J-2.077
X61.495 Y179.359 I-7.063 J1.369
G0 X61.498 Y179.358 Z1.
X57.509 Y182.188
Z-0.075 F250.
G3 X57.877 Y179.801 I9.932 J0.312 F750.
X60.18 Y178.847 I1.615 J0.642
X60.602 Y179.54 I-0.86 J0.998
X60.799 Y183.898 I-10.372 J2.653
G1 X60.681 Y184.426
G3 X60.343 Y185.168 I-1.989 J-0.46
X58.44 Y185.89 I-1.505 J-1.096
X57.947 Y185.424 I0.363 J-0.878
G1 X57.88 Y185.278
G3 X57.503 Y182.566 I7.952 J-2.488
G1 X57.509 Y182.188
Z1.
X54.349 Y178.792
Z-0.075 F250.
X54.34 Y178.732 F750.
G2 X53.659 Y177.69 I-5.476 J2.836
G1 X53.61 Y177.65
X53.554 Y177.621
X53.493 Y177.604
X53.43 Y177.6
X48.965
X48.878 Y177.606
X48.804 Y177.63
G2 X48.76 Y177.896 I0.136 J0.159
X49.376 Y179.13 I5.96 J-2.202
X51.308 Y181.85 I52.908 J-35.525
G3 X52.173 Y183.365 I-4.993 J3.858
X50.987 Y185.589 I-1.571 J0.591
X49.189 Y185.806 I-1.87 J-7.935
G1 X49.106 Y185.835
X49.061 Y185.869
X49.041 Y185.922
X49.064 Y185.983
G2 X49.917 Y187.11 I7.677 J-4.924
G1 X49.987 Y187.152
X50.076 Y187.192
G2 X51.412 Y187.056 I0.225 J-4.412
G1 X51.778 Y186.962
G2 X53.698 Y185.217 I-0.583 J-2.57
X53.438 Y183.428 I-2.372 J-0.568
X52.503 Y182.103 I-8.155 J4.76
G3 X50.674 Y179.227 I14.344 J-11.143
G1 X50.621 Y179.028
X50.628 Y178.978
X50.651 Y178.933
X50.68 Y178.903
X50.719 Y178.891
X54.205
X54.258 Y178.888
X54.303 Y178.874
X54.331 Y178.84
X54.349 Y178.792
Z1.
X40.401 Y180.289
Z-0.075 F250.
G2 X39.153 Y178.22 I-4.138 J1.084 F750.
X37.966 Y177.501 I-2.457 J2.718
X36.005 Y177.534 I-0.93 J3.021
X34.31 Y179.108 I1.069 J2.851
X34.386 Y182.859 I3.903 J1.797
G1 X34.641 Y183.277
G2 X36.051 Y184.552 I3.109 J-2.018
X36.911 Y184.829 I1.13 J-2.038
X39.022 Y184.406 I0.504 J-2.962
X40.301 Y182.673 I-1.756 J-2.634
X40.399 Y180.29 I-4.088 J-1.361
G0 X40.401 Y180.289 Z1.
X37.287 Y178.193
Z-0.075 F250.
G3 X38.163 Y178.365 I-0.04 J2.519 F750.
X38.834 Y178.946 I-1.103 J1.952
G1 X39.073 Y179.44
G3 X39.321 Y180.489 I-2.737 J1.2
X39.264 Y181.793 I-4.334 J0.465
X38.181 Y183.624 I-3.337 J-0.738
X37.569 Y183.966 I-1.175 J-1.385
G1 X37.433 Y183.998
X37.151 Y184.039
G3 X36.254 Y183.868 I0.018 J-2.532
X35.575 Y183.268 I1.102 J-1.93
G1 X35.352 Y182.771
G3 X35.117 Y181.723 I2.932 J-1.208
X35.179 Y180.429 I4.103 J-0.451
X36.636 Y178.374 I3.31 J0.803
X37.287 Y178.193 I0.757 J1.466
G1 Z1.
X33.233 Y184.647
Z-0.075 F250.
G2 X32.8 Y183.887 I-1.887 J0.571 F750.
G1 X32.206 Y183.803
X31.608 Y183.758
G2 X31.35 Y180.821 I-1.877 J-1.315
X29.392 Y179.853 I-2.276 J2.141
G1 X29.019 Y179.825
X28.988
X28.736 Y179.6
X28.51 Y179.35
X28.414 Y179.22
X28.35 Y179.073
G3 X28.768 Y178.712 I0.497 J0.153
X30.294 Y178.421 I2.116 J6.956
G1 X30.862 Y178.347
G2 X31.943 Y178.033 I-0.48 J-3.67
G1 X32.451 Y177.775
X32.702 Y177.551
G2 X33.025 Y177.003 I-0.72 J-0.793
G1 X33.088 Y176.674
X33.04 Y176.273
G2 X32.753 Y175.542 I-1.731 J0.257
X31.467 Y174.371 I-2.951 J1.949
X28.114 Y173.92 I-2.254 J4.069
X26.751 Y174.47 I0.527 J3.273
X26.078 Y175.213 I1.018 J1.598
X25.964 Y176.002 I1.68 J0.645
X26.379 Y176.797 I1.352 J-0.2
X27.98 Y177.9 I4.342 J-4.59
G1 X27.665 Y178.027
G2 X27.159 Y178.589 I0.311 J0.789
G1 X27.105 Y178.747
G2 X27.34 Y179.206 I0.86 J-0.151
X28.198 Y179.931 I3.222 J-2.943
G1 X27.841 Y180.062
G2 X26.512 Y181.772 I0.825 J2.013
X27.133 Y183.799 I2.424 J0.367
X29.835 Y184.846 I2.308 J-1.947
X30.986 Y184.381 I-0.447 J-2.769
G3 X33.081 Y184.874 I-0.563 J7.099
G1 X33.233 Y184.647
Z1.
X29.176 Y180.653
Z-0.075 F250.
X29.325 Y180.637 F750.
G3 X30.102 Y180.726 I0.231 J1.415
X30.957 Y182.141 I-0.614 J1.338
X30.015 Y183.857 I-1.89 J0.079
X28.576 Y184.071 I-1.03 J-1.981
X27.563 Y182.33 I0.546 J-1.483
X28.467 Y180.882 I1.791 J0.112
X29.176 Y180.653 I1.071 J2.1
G1 Z1.
X24.895 Y182.673
Z-0.075 F250.
G2 X24.926 Y180.054 I-4.072 J-1.358 F750.
X23.925 Y178.386 I-4.178 J1.375
G1 X23.744 Y178.223
G2 X22.56 Y177.501 I-2.416 J2.631
X20.599 Y177.534 I-0.93 J3.021
X18.903 Y179.108 I1.069 J2.851
X18.979 Y182.859 I3.903 J1.797
G1 X19.235 Y183.277
G2 X20.644 Y184.552 I3.108 J-2.017
X21.505 Y184.829 I1.129 J-2.037
X23.616 Y184.406 I0.504 J-2.962
X24.895 Y182.673 I-1.756 J-2.634
G1 Z1.
X21.881 Y178.193
Z-0.075 F250.
G3 X22.757 Y178.365 I-0.04 J2.519 F750.
X23.428 Y178.946 I-1.103 J1.952
G1 X23.667 Y179.44
G3 X23.915 Y180.489 I-2.738 J1.2
X23.858 Y181.793 I-4.329 J0.465
X22.775 Y183.624 I-3.337 J-0.738
X22.163 Y183.966 I-1.176 J-1.385
G1 X22.027 Y183.998
X21.744 Y184.039
G3 X20.848 Y183.868 I0.018 J-2.532
X20.169 Y183.268 I1.103 J-1.932
G1 X19.946 Y182.771
G3 X19.711 Y181.723 I2.932 J-1.208
X19.773 Y180.429 I4.1 J-0.451
X21.23 Y178.374 I3.31 J0.803
X21.881 Y178.193 I0.757 J1.465
G1 Z1.
X16.178 Y184.606
Z-0.075 F250.
G2 X15.892 Y183.73 I-2.131 J0.211 F750.
G1 X15.64 Y183.329
X15.302 Y182.997
G2 X14.518 Y182.5 I-1.72 J1.847
G1 X14.075 Y182.331
X16.376 Y178.64
G3 X17.37 Y178.175 I0.891 J0.611
G1 X17.557 Y178.176
X17.743 Y178.193
X17.826 Y177.866
G2 X16.126 Y177.479 I-2.223 J5.837
X15.381 Y177.896 I0.032 J0.931
G1 X13.081 Y182.156
G2 X11.874 Y182.224 I-0.362 J4.317
G1 Y178.375
G3 X12.166 Y178.144 I0.394 J0.2
G1 X12.363 Y178.069
X12.564 Y178.004
X12.974 Y177.912
Y177.585
X9.558
Y177.912
X9.964 Y178.005
X10.359 Y178.139
G3 X10.659 Y178.375 I-0.089 J0.421
G1 Y186.613
X9.968 Y186.514
X9.558 Y186.454
X9.489 Y186.924
G2 X11.922 Y187.356 I3.816 J-14.419
X13.714 Y187.321 I0.7 J-9.913
G1 X13.953 Y187.275
X14.19 Y187.218
G2 X15.304 Y186.759 I-0.712 J-3.312
G1 X15.446 Y186.651
G2 X16.122 Y185.706 I-1.327 J-1.662
G1 X16.161 Y185.554
X16.187 Y185.399
X16.217 Y185.079
X16.178 Y184.606
Z1.
X11.874 Y182.832
Z-0.075 F250.
G3 X13.521 Y182.883 I0.69 J4.326 F750.
G1 X13.748 Y182.962
X13.968 Y183.064
X14.394 Y183.31
X14.68 Y183.639
G3 X15. Y184.408 I-1.13 J0.92
X14.887 Y185.614 I-2.203 J0.402
G1 X14.793 Y185.781
X14.676 Y185.937
X14.402 Y186.23
X13.949 Y186.473
G3 X12.975 Y186.721 I-1.088 J-2.234
G1 X12.458 Y186.742
X12.166 Y186.736
X11.874 Y186.719
Y182.832
Z1.
X12.42 Y167.769
Z-0.075 F250.
X6.5 F750.
G3 X5.5 Y166.769 I0. J-1.
G1 Y154.769
G3 X6.5 Y153.769 I1. J0.
G1 X80.5
G3 X81.5 Y154.769 I0. J1.
G1 Y166.769
G3 X80.5 Y167.769 I-1. J0.001
G1 X12.42
Z1.
X76.646 Y157.599
Z-0.075 F250.
X76.542 Y157.428 F750.
X76.502 Y157.364
X76.477 Y157.325
X76.472 Y157.317
Y157.319
X76.478 Y157.331
X76.489 Y157.352
X76.566 Y157.489
G2 X74.639 Y155.94 I-3.3 J2.132
X73.344 Y155.855 I-0.882 J3.553
X72.161 Y156.11 I0.496 J5.181
G1 X71.942 Y156.198
G2 X71.869 Y156.499 I0.046 J0.171
G1 X72.176 Y156.934
X72.504 Y157.353
X72.577 Y157.416
X72.671 Y157.436
G3 X74.765 Y157.149 I1.889 J6.006
X75.986 Y158.203 I-0.162 J1.422
X75.251 Y160.118 I-1.429 J0.549
X74.409 Y160.363 I-0.986 J-1.815
X72.902 Y160.414 I-1.143 J-11.495
G2 X72.516 Y160.609 I0.051 J0.579
G1 X72.468 Y160.685
X72.438 Y160.77
X72.42 Y160.861
X72.389 Y161.557
X72.371 Y162.254
X72.359 Y163.951
X72.34 Y164.126
X72.322 Y164.331
X72.333 Y164.498
X72.382 Y164.657
X72.489 Y164.877
X72.766 Y165.416
X72.873 Y165.589
X72.997 Y165.75
G2 X73.308 Y165.735 I0.149 J-0.138
G1 X73.442 Y165.499
X73.59 Y165.272
X73.636 Y165.23
X73.692 Y165.204
X73.84 Y165.189
X76.953
X77.046 Y165.181
X77.132 Y165.147
X77.173 Y165.103
X77.189 Y165.044
X77.162 Y164.965
G2 X76.506 Y163.946 I-9.098 J5.135
G1 X76.429 Y163.913
X76.332 Y163.894
X76.232 Y163.89
X73.643
X73.546 Y163.882
X73.457 Y163.845
X73.41 Y163.768
X73.4 Y163.678
X73.419 Y162.949
X73.438 Y162.113
G3 X73.771 Y161.707 I0.39 J-0.019
G1 X74.607 Y161.711
G2 X76.813 Y160.678 I-0.047 J-2.971
G1 X77.003 Y160.366
G2 X77.221 Y159.691 I-1.39 J-0.822
X77.101 Y158.503 I-2.353 J-0.363
G1 X76.895 Y158.041
X76.646 Y157.599
Z1.
X69.869 Y157.254
Z-0.075 F250.
X69.86 Y157.193 F750.
G2 X69.178 Y156.153 I-5.715 J3.005
G1 X69.13 Y156.113
X69.074 Y156.083
X69.013 Y156.066
X68.95 Y156.062
X64.486
X64.398 Y156.068
X64.324 Y156.092
G2 X64.281 Y156.358 I0.137 J0.159
X64.896 Y157.592 I5.8 J-2.121
X66.828 Y160.312 I53.785 J-36.159
G3 X67.693 Y161.827 I-4.955 J3.836
X66.507 Y164.051 I-1.57 J0.591
X64.709 Y164.265 I-1.785 J-7.307
G1 X64.626 Y164.296
X64.581 Y164.331
X64.562 Y164.384
X64.584 Y164.444
G2 X65.438 Y165.571 I7.477 J-4.772
G1 X65.507 Y165.614
X65.596 Y165.653
G2 X66.561 Y165.59 I0.254 J-3.532
X68.097 Y165.104 I-0.654 J-4.735
X69.22 Y163.68 I-1.446 J-2.295
X68.958 Y161.889 I-2.39 J-0.565
X68.024 Y160.564 I-8.254 J4.832
G3 X66.195 Y157.689 I14.32 J-11.129
G1 X66.141 Y157.489
X66.148 Y157.439
X66.171 Y157.394
X66.2 Y157.365
X66.24 Y157.353
X69.725
X69.778 Y157.349
X69.823 Y157.336
X69.852 Y157.302
X69.869 Y157.254
Z1.
X61.498 Y157.82
Z-0.075 F250.
G2 X59.921 Y156.056 I-3.853 J1.858 F750.
X57.367 Y156.576 I-0.953 J1.855
X56.661 Y157.836 I2.155 J2.034
X56.644 Y163.301 I10.19 J2.766
X57.798 Y165.023 I4.255 J-1.606
X59.601 Y165.636 I1.464 J-1.346
X60.872 Y165.011 I-0.413 J-2.446
X61.972 Y163.109 I-2.051 J-2.454
X62.067 Y159.554 I-11.169 J-2.078
X61.495 Y157.821 I-7.043 J1.361
G0 X61.498 Y157.82 Z1.
X57.509 Y160.649
Z-0.075 F250.
G3 X57.877 Y158.263 I9.92 J0.311 F750.
X60.18 Y157.309 I1.615 J0.641
X60.598 Y158.003 I-0.815 J0.965
X60.688 Y162.889 I-10.031 J2.629
G1 X60.576 Y163.203
G3 X58.44 Y164.353 I-1.738 J-0.671
X57.947 Y163.886 I0.371 J-0.886
G1 X57.88 Y163.74
G3 X57.503 Y161.028 I7.956 J-2.489
G1 X57.509 Y160.649
Z1.
X54.349 Y157.254
Z-0.075 F250.
X54.34 Y157.193 F750.
G2 X53.659 Y156.152 I-5.422 J2.803
G1 X53.61 Y156.112
X53.554 Y156.083
X53.493 Y156.066
X53.43 Y156.062
X48.965
X48.878 Y156.068
X48.804 Y156.092
G2 X48.76 Y156.358 I0.137 J0.159
X49.376 Y157.592 I6.037 J-2.241
X51.308 Y160.312 I53.274 J-35.789
G3 X52.173 Y161.827 I-4.957 J3.837
X50.987 Y164.05 I-1.57 J0.591
X49.189 Y164.265 I-1.785 J-7.306
G1 X49.106 Y164.296
X49.061 Y164.331
X49.041 Y164.384
X49.064 Y164.444
G2 X49.917 Y165.571 I7.491 J-4.783
G1 X49.987 Y165.614
X50.076 Y165.653
G2 X51.041 Y165.59 I0.254 J-3.533
X52.576 Y165.104 I-0.654 J-4.735
X53.7 Y163.68 I-1.446 J-2.295
X53.438 Y161.889 I-2.389 J-0.565
X52.503 Y160.564 I-8.257 J4.834
G3 X50.674 Y157.689 I14.315 J-11.126
G1 X50.621 Y157.489
X50.628 Y157.439
X50.651 Y157.394
X50.68 Y157.365
X50.719 Y157.353
X54.205
X54.258 Y157.349
X54.303 Y157.336
X54.331 Y157.302
X54.349 Y157.254
Z1.
X40.401 Y158.75
Z-0.075 F250.
G2 X39.154 Y156.681 I-4.147 J1.088 F750.
X37.966 Y155.962 I-2.458 J2.72
X36.005 Y155.996 I-0.929 J3.025
X34.31 Y157.57 I1.069 J2.851
X34.386 Y161.321 I3.902 J1.797
G1 X34.641 Y161.739
G2 X36.051 Y163.015 I3.111 J-2.021
X38.022 Y163.272 I1.364 J-2.769
X39.917 Y161.958 I-0.589 J-2.872
X40.518 Y159.729 I-3.474 J-2.132
G1 X40.484 Y159.234
X40.451 Y158.99
X40.401 Y158.75
Z1.
X37.287 Y156.654
Z-0.075 F250.
G3 X38.164 Y156.824 I-0.061 J2.666 F750.
X38.835 Y157.407 I-1.167 J2.018
G1 X39.073 Y157.901
G3 X39.321 Y158.951 I-2.744 J1.202
X39.264 Y160.254 I-4.328 J0.465
X38.181 Y162.085 I-3.332 J-0.735
X36.684 Y162.45 I-1.1 J-1.259
X35.734 Y161.905 I0.168 J-1.392
G1 X35.575 Y161.73
X35.352 Y161.232
G3 X35.117 Y160.185 I2.916 J-1.205
X35.179 Y158.891 I4.098 J-0.452
X36.636 Y156.835 I3.313 J0.804
X37.287 Y156.654 I0.768 J1.498
G1 Z1.
X33.233 Y163.108
Z-0.075 F250.
G2 X32.8 Y162.349 I-1.89 J0.575 F750.
G1 X32.206 Y162.265
X31.608 Y162.22
G2 X31.35 Y159.282 I-1.879 J-1.316
X29.392 Y158.315 I-2.273 J2.137
G1 X29.019 Y158.287
X28.988
X28.736 Y158.062
X28.51 Y157.812
X28.414 Y157.682
X28.35 Y157.535
G3 X28.768 Y157.173 I0.499 J0.153
X30.294 Y156.883 I2.117 J6.988
G1 X30.862 Y156.809
G2 X31.943 Y156.495 I-0.51 J-3.768
G1 X32.451 Y156.236
X32.702 Y156.013
G2 X33.025 Y155.464 I-0.718 J-0.791
G1 X33.088 Y155.135
X33.04 Y154.734
G2 X32.754 Y154.004 I-1.709 J0.249
X31.467 Y152.833 I-2.953 J1.952
X28.114 Y152.382 I-2.254 J4.066
X26.901 Y152.829 I0.569 J3.411
G1 X26.751 Y152.931
G2 X26.078 Y153.674 I1.032 J1.611
X25.964 Y154.463 I1.688 J0.646
X26.379 Y155.258 I1.349 J-0.199
X27.981 Y156.361 I4.339 J-4.581
G1 X27.665 Y156.489
G2 X27.159 Y157.051 I0.31 J0.789
G1 X27.105 Y157.208
G2 X27.34 Y157.668 I0.859 J-0.149
X28.198 Y158.393 I3.222 J-2.943
G1 X27.841 Y158.523
G2 X26.544 Y160.046 I0.838 J2.027
X26.649 Y161.49 I2.48 J0.547
X29.835 Y163.309 I2.801 J-1.206
X30.986 Y162.843 I-0.455 J-2.78
G3 X33.081 Y163.337 I-0.593 J7.208
G1 X33.233 Y163.108
Z1.
X29.176 Y159.115
Z-0.075 F250.
X29.325 Y159.099 F750.
G3 X30.102 Y159.188 I0.231 J1.415
X30.957 Y160.602 I-0.612 J1.336
X30.015 Y162.318 I-1.889 J0.08
X28.576 Y162.532 I-1.03 J-1.984
X27.563 Y160.791 I0.547 J-1.484
X28.467 Y159.344 I1.79 J0.112
X29.176 Y159.115 I1.072 J2.105
G1 Z1.
X24.895 Y161.134
Z-0.075 F250.
G2 X24.926 Y158.516 I-4.068 J-1.358 F750.
X23.925 Y156.847 I-4.188 J1.38
G1 X23.744 Y156.684
G2 X22.56 Y155.962 I-2.416 J2.631
X20.599 Y155.996 I-0.928 J3.025
X18.903 Y157.57 I1.069 J2.851
X18.98 Y161.321 I3.902 J1.797
G1 X19.235 Y161.739
G2 X20.644 Y163.015 I3.111 J-2.02
X21.505 Y163.291 I1.145 J-2.087
X24.72 Y161.58 I0.505 J-2.927
G1 X24.895 Y161.134
Z1.
X21.881 Y156.654
Z-0.075 F250.
G3 X22.758 Y156.824 I-0.061 J2.666 F750.
X23.428 Y157.407 I-1.167 J2.017
G1 X23.667 Y157.901
G3 X23.915 Y158.951 I-2.745 J1.202
X23.858 Y160.254 I-4.323 J0.465
X22.775 Y162.085 I-3.332 J-0.735
X21.277 Y162.45 I-1.1 J-1.259
X20.328 Y161.905 I0.168 J-1.392
G1 X20.169 Y161.73
X19.946 Y161.232
G3 X19.711 Y160.185 I2.917 J-1.205
X19.773 Y158.891 I4.095 J-0.452
X21.23 Y156.835 I3.313 J0.804
X21.881 Y156.654 I0.768 J1.497
G1 Z1.
X16.178 Y163.068
Z-0.075 F250.
G2 X15.892 Y162.192 I-2.124 J0.209 F750.
G1 X15.64 Y161.791
X15.302 Y161.459
G2 X14.518 Y160.961 I-1.708 J1.822
G1 X14.075 Y160.792
X16.376 Y157.102
G3 X17.37 Y156.637 I0.891 J0.608
G1 X17.557 Y156.638
X17.743 Y156.654
X17.826 Y156.328
G2 X16.014 Y155.942 I-2.124 J5.523
X15.38 Y156.357 I0.203 J1.002
G1 X13.081 Y160.618
G2 X11.874 Y160.686 I-0.369 J4.206
G1 Y156.836
G3 X12.166 Y156.606 I0.396 J0.204
G1 X12.363 Y156.53
X12.564 Y156.466
X12.974 Y156.373
Y156.047
X9.558
Y156.373
X9.964 Y156.467
X10.359 Y156.601
G3 X10.659 Y156.836 I-0.09 J0.423
G1 Y165.075
X9.968 Y164.976
X9.558 Y164.915
X9.489 Y165.386
G2 X11.922 Y165.817 I3.783 J-14.261
X13.954 Y165.741 I0.696 J-8.593
G1 X14.19 Y165.68
G2 X15.304 Y165.221 I-0.712 J-3.312
G1 X15.446 Y165.113
G2 X16.122 Y164.167 I-1.334 J-1.666
G1 X16.161 Y164.016
X16.187 Y163.86
X16.217 Y163.541
X16.178 Y163.068
Z1.
X11.874 Y161.293
Z-0.075 F250.
G3 X13.521 Y161.345 I0.688 J4.363 F750.
G1 X13.748 Y161.424
X13.968 Y161.526
X14.394 Y161.772
X14.68 Y162.101
G3 X14.999 Y162.869 I-1.148 J0.927
X14.887 Y164.075 I-2.191 J0.404
G1 X14.793 Y164.242
X14.676 Y164.398
X14.402 Y164.691
X13.949 Y164.935
G3 X12.975 Y165.183 I-1.09 J-2.244
G1 X12.458 Y165.204
X12.166 Y165.198
X11.874 Y165.181
Y161.293
Z1.
X12.42 Y146.231
Z-0.075 F250.
X6.5 F750.
G3 X5.5 Y145.231 I0. J-1.
G1 Y133.231
G3 X6.5 Y132.231 I1. J0.
G1 X80.5
G3 X81.5 Y133.231 I0. J0.999
G1 Y145.231
G3 X80.5 Y146.231 I-1. J0.
G1 X12.42
Z1.
X76.646 Y136.061
Z-0.075 F250.
X76.502 Y135.825 F750.
X76.477 Y135.786
X76.472 Y135.779
Y135.78
X76.478 Y135.792
X76.489 Y135.813
X76.523 Y135.875
X76.566 Y135.951
G2 X74.824 Y134.471 I-3.351 J2.179
X73.344 Y134.316 I-1.062 J3.001
X72.161 Y134.571 I0.483 J5.106
G1 X71.942 Y134.66
G2 X71.829 Y134.887 I0.025 J0.154
G1 X71.866 Y134.964
X72.176 Y135.395
X72.504 Y135.814
X72.577 Y135.877
X72.671 Y135.898
G3 X74.765 Y135.612 I1.88 J5.948
X75.918 Y136.488 I-0.142 J1.383
X74.879 Y138.728 I-1.401 J0.711
X73.582 Y138.874 I-1.164 J-4.514
G1 X73.02
G2 X72.465 Y139.145 I-0.06 J0.58
G1 X72.438 Y139.231
X72.42 Y139.322
X72.389 Y140.019
X72.371 Y140.715
X72.359 Y142.412
X72.34 Y142.587
X72.322 Y142.792
X72.333 Y142.959
X72.382 Y143.119
X72.489 Y143.339
X72.766 Y143.878
X72.873 Y144.051
X72.997 Y144.212
G2 X73.308 Y144.196 I0.149 J-0.138
G1 X73.442 Y143.961
X73.59 Y143.734
X73.636 Y143.692
X73.692 Y143.665
X73.84 Y143.65
X76.953
X77.046 Y143.643
X77.132 Y143.608
X77.173 Y143.564
X77.189 Y143.506
X77.162 Y143.426
G2 X76.506 Y142.408 I-9.141 J5.169
G1 X76.429 Y142.375
X76.332 Y142.356
X76.232 Y142.352
X73.643
X73.546 Y142.344
X73.457 Y142.306
X73.41 Y142.23
X73.4 Y142.139
X73.419 Y141.41
X73.438 Y140.575
G3 X73.771 Y140.169 I0.389 J-0.02
G1 X74.607 Y140.173
G2 X76.813 Y139.139 I-0.047 J-2.971
G1 X77.003 Y138.827
G2 X77.22 Y138.153 I-1.411 J-0.828
X77.101 Y136.964 I-2.352 J-0.364
G1 X76.895 Y136.502
X76.646 Y136.061
Z1.
X69.869 Y135.715
Z-0.075 F250.
X69.86 Y135.655 F750.
G2 X69.179 Y134.613 I-5.498 J2.85
G1 X69.13 Y134.573
X69.074 Y134.544
X69.013 Y134.527
X68.95 Y134.523
X64.486
X64.398 Y134.529
X64.324 Y134.553
G2 X64.281 Y134.819 I0.137 J0.159
X64.896 Y136.053 I5.959 J-2.202
X66.828 Y138.774 I53.607 J-36.01
G3 X67.693 Y140.289 I-4.951 J3.834
X66.507 Y142.512 I-1.57 J0.59
X64.709 Y142.729 I-1.87 J-7.931
G1 X64.626 Y142.758
X64.581 Y142.793
X64.562 Y142.845
X64.584 Y142.906
G2 X65.438 Y144.033 I7.51 J-4.797
G1 X65.507 Y144.075
X65.596 Y144.115
G2 X66.932 Y143.979 I0.225 J-4.412
G1 X67.298 Y143.885
G2 X69.218 Y142.14 I-0.583 J-2.57
X68.958 Y140.351 I-2.372 J-0.568
X68.024 Y139.026 I-8.151 J4.757
G3 X66.194 Y136.15 I14.349 J-11.146
G1 X66.141 Y135.951
X66.148 Y135.901
X66.171 Y135.856
X66.2 Y135.826
X66.24 Y135.814
X69.725
X69.778 Y135.811
X69.823 Y135.797
X69.852 Y135.763
X69.869 Y135.715
Z1.
X61.498 Y136.281
Z-0.075 F250.
G2 X59.921 Y134.517 I-3.865 J1.868 F750.
X57.478 Y134.919 I-0.951 J1.842
X56.798 Y135.921 I1.99 J2.083
X56.404 Y137.592 I5.624 J2.208
X56.646 Y141.763 I10.053 J1.509
X57.461 Y143.124 I3.99 J-1.463
G1 X57.796 Y143.487
G2 X58.833 Y144.089 I1.612 J-1.584
X60.589 Y143.694 I0.408 J-2.292
X61.973 Y141.572 I-1.835 J-2.708
X62.067 Y138.015 I-11.261 J-2.077
X61.495 Y136.282 I-7.089 J1.377
G0 X61.498 Y136.281 Z1.
X57.509 Y139.111
Z-0.075 F250.
G3 X57.877 Y136.724 I9.932 J0.312 F750.
X60.18 Y135.77 I1.615 J0.642
X60.602 Y136.463 I-0.858 J0.997
X60.799 Y140.821 I-10.372 J2.653
G1 X60.681 Y141.349
G3 X60.343 Y142.091 I-1.989 J-0.46
X58.44 Y142.814 I-1.505 J-1.096
X57.947 Y142.347 I0.364 J-0.878
G1 X57.88 Y142.201
G3 X57.503 Y139.489 I7.948 J-2.488
G1 X57.509 Y139.111
Z1.
X54.349 Y135.715
Z-0.075 F250.
X54.34 Y135.655 F750.
G2 X53.659 Y134.613 I-5.49 J2.844
G1 X53.61 Y134.573
X53.554 Y134.544
X53.493 Y134.527
X53.43 Y134.523
X48.965
X48.878 Y134.529
X48.804 Y134.553
G2 X48.76 Y134.819 I0.137 J0.159
X49.376 Y136.053 I5.96 J-2.202
X51.308 Y138.774 I53.602 J-36.006
G3 X52.173 Y140.289 I-4.951 J3.834
X50.987 Y142.512 I-1.57 J0.59
X49.189 Y142.729 I-1.87 J-7.931
G1 X49.106 Y142.758
X49.061 Y142.793
X49.041 Y142.845
X49.064 Y142.906
G2 X49.917 Y144.033 I7.525 J-4.809
G1 X49.987 Y144.075
X50.076 Y144.115
G2 X51.412 Y143.979 I0.225 J-4.412
G1 X51.778 Y143.885
G2 X53.698 Y142.14 I-0.583 J-2.57
X53.438 Y140.351 I-2.371 J-0.568
X52.503 Y139.026 I-8.154 J4.76
G3 X50.674 Y136.15 I14.344 J-11.143
G1 X50.621 Y135.951
X50.628 Y135.901
X50.651 Y135.856
X50.68 Y135.826
X50.719 Y135.814
X54.205
X54.258 Y135.811
X54.303 Y135.797
X54.331 Y135.763
X54.349 Y135.715
Z1.
X40.401 Y137.212
Z-0.075 F250.
G2 X39.153 Y135.143 I-4.142 J1.086 F750.
X37.966 Y134.424 I-2.457 J2.719
X36.005 Y134.458 I-0.929 J3.013
X34.31 Y136.032 I1.064 J2.845
X34.386 Y139.782 I3.9 J1.796
X35.093 Y140.767 I3.931 J-2.074
G1 X35.273 Y140.931
G2 X36.468 Y141.656 I2.412 J-2.628
X38.436 Y141.62 I0.929 J-3.068
X40.129 Y140.042 I-1.076 J-2.851
X40.399 Y137.212 I-3.955 J-1.805
G0 X40.401 Z1.
X37.287 Y135.116
Z-0.075 F250.
G3 X38.164 Y135.286 I-0.044 J2.57 F750.
X38.834 Y135.869 I-1.147 J1.998
G1 X39.073 Y136.363
G3 X39.321 Y137.412 I-2.737 J1.2
X39.264 Y138.716 I-4.334 J0.465
X38.181 Y140.547 I-3.337 J-0.738
X37.569 Y140.89 I-1.193 J-1.412
G1 X37.433 Y140.921
X37.151 Y140.962
G3 X36.254 Y140.791 I0.018 J-2.533
X35.575 Y140.192 I1.11 J-1.941
G1 X35.352 Y139.694
G3 X35.117 Y138.646 I2.932 J-1.208
X35.179 Y137.352 I4.103 J-0.451
X36.636 Y135.297 I3.308 J0.802
X37.287 Y135.116 I0.768 J1.499
G1 Z1.
X33.233 Y141.57
Z-0.075 F250.
G2 X32.802 Y140.809 I-2.089 J0.68 F750.
G1 X32.206 Y140.726
X31.608 Y140.681
G2 X31.35 Y137.744 I-1.877 J-1.315
X29.392 Y136.777 I-2.273 J2.136
G1 X29.019 Y136.748
X28.988
X28.736 Y136.524
X28.51 Y136.274
X28.414 Y136.143
X28.35 Y135.996
G3 X28.768 Y135.635 I0.497 J0.153
X30.294 Y135.344 I2.116 J6.956
G1 X30.862 Y135.27
G2 X31.943 Y134.956 I-0.48 J-3.67
G1 X32.451 Y134.698
X32.702 Y134.474
G2 X33.025 Y133.926 I-0.71 J-0.787
G1 X33.088 Y133.597
X33.04 Y133.196
G2 X32.753 Y132.465 I-1.731 J0.257
X31.467 Y131.295 I-2.937 J1.936
X28.114 Y130.844 I-2.253 J4.059
X26.751 Y131.393 I0.526 J3.271
X26.078 Y132.136 I1.018 J1.598
X25.964 Y132.925 I1.68 J0.645
X26.379 Y133.72 I1.352 J-0.2
X27.98 Y134.823 I4.342 J-4.59
G1 X27.665 Y134.95
G2 X27.159 Y135.513 I0.31 J0.788
G1 X27.105 Y135.67
G2 X27.34 Y136.129 I0.86 J-0.151
X28.198 Y136.854 I3.222 J-2.943
G1 X27.841 Y136.985
G2 X26.593 Y138.326 I0.892 J2.083
X27.132 Y140.723 I2.368 J0.726
X29.835 Y141.769 I2.31 J-1.955
X30.986 Y141.305 I-0.451 J-2.777
G3 X33.081 Y141.797 I-0.601 J7.253
G1 X33.233 Y141.57
Z1.
X29.176 Y137.576
Z-0.075 F250.
X29.325 Y137.561 F750.
G3 X30.943 Y138.85 I0.229 J1.373
X30.231 Y140.639 I-1.93 J0.268
X28.576 Y140.993 I-1.243 J-1.768
X27.563 Y139.253 I0.544 J-1.482
X28.467 Y137.805 I1.79 J0.111
X29.176 Y137.576 I1.071 J2.099
G1 Z1.
X24.895 Y139.596
Z-0.075 F250.
G2 X24.926 Y136.977 I-4.072 J-1.358 F750.
X23.925 Y135.309 I-4.185 J1.379
G1 X23.744 Y135.146
G2 X22.56 Y134.424 I-2.416 J2.631
X20.599 Y134.458 I-0.929 J3.013
X18.903 Y136.032 I1.064 J2.845
X18.98 Y139.782 I3.899 J1.796
X19.687 Y140.767 I3.928 J-2.072
G1 X19.867 Y140.931
G2 X21.061 Y141.656 I2.413 J-2.629
X23.03 Y141.62 I0.929 J-3.068
X24.722 Y140.042 I-1.076 J-2.85
G1 X24.895 Y139.596
Z1.
X21.881 Y135.116
Z-0.075 F250.
G3 X22.758 Y135.286 I-0.044 J2.57 F750.
X23.428 Y135.869 I-1.147 J1.998
G1 X23.667 Y136.363
G3 X23.915 Y137.412 I-2.738 J1.2
X23.858 Y138.716 I-4.329 J0.465
X22.775 Y140.547 I-3.337 J-0.738
X22.163 Y140.89 I-1.194 J-1.413
G1 X22.027 Y140.921
X21.744 Y140.962
G3 X20.848 Y140.791 I0.018 J-2.533
X20.169 Y140.192 I1.111 J-1.943
G1 X19.946 Y139.694
G3 X19.711 Y138.646 I2.932 J-1.208
X19.773 Y137.352 I4.1 J-0.451
X21.23 Y135.297 I3.308 J0.802
X21.881 Y135.116 I0.768 J1.498
G1 Z1.
X16.178 Y141.529
Z-0.075 F250.
G2 X15.892 Y140.653 I-2.131 J0.211 F750.
G1 X15.64 Y140.252
X15.302 Y139.921
G2 X14.518 Y139.423 I-1.707 J1.822
G1 X14.075 Y139.254
X16.376 Y135.564
G3 X17.37 Y135.098 I0.89 J0.607
G1 X17.557 Y135.099
X17.743 Y135.116
X17.826 Y134.789
G2 X16.014 Y134.404 I-2.119 J5.517
X15.38 Y134.818 I0.198 J0.997
G1 X13.081 Y139.079
G2 X11.874 Y139.147 I-0.362 J4.317
G1 Y135.298
G3 X12.166 Y135.067 I0.394 J0.2
G1 X12.363 Y134.992
X12.564 Y134.928
X12.974 Y134.835
Y134.508
X9.558
Y134.835
X9.964 Y134.928
X10.359 Y135.062
G3 X10.659 Y135.298 I-0.089 J0.421
G1 Y143.536
X9.968 Y143.438
X9.558 Y143.377
X9.489 Y143.848
G2 X11.922 Y144.279 I3.805 J-14.386
X13.714 Y144.244 I0.698 J-9.946
X15.154 Y143.779 I-0.667 J-4.532
X15.83 Y143.191 I-1.347 J-2.229
X16.161 Y142.477 I-1.581 J-1.169
G1 X16.187 Y142.322
X16.217 Y142.002
X16.178 Y141.529
Z1.
X11.874 Y139.755
Z-0.075 F250.
G3 X13.521 Y139.806 I0.69 J4.326 F750.
G1 X13.748 Y139.885
X13.968 Y139.987
X14.394 Y140.233
X14.68 Y140.562
G3 X15. Y141.331 I-1.13 J0.92
G1 X15.04 Y141.767
X14.994 Y142.166
G3 X14.676 Y142.86 I-1.317 J-0.183
G1 X14.402 Y143.153
X13.949 Y143.396
G3 X12.975 Y143.644 I-1.082 J-2.211
G1 X12.458 Y143.665
X12.166 Y143.66
X11.874 Y143.643
Y139.755
Z1.
X12.42 Y124.692
Z-0.075 F250.
X6.5 F750.
G3 X5.5 Y123.692 I0. J-1.
G1 Y111.692
G3 X6.5 Y110.692 I1.001 J0.001
G1 X80.5
G3 X81.5 Y111.692 I-0.001 J1.001
G1 Y123.692
G3 X80.5 Y124.692 I-1. J0.
G1 X12.42
Z1.
X76.646 Y114.522
Z-0.075 F250.
X76.542 Y114.351 F750.
X76.502 Y114.287
X76.477 Y114.248
X76.472 Y114.24
Y114.242
X76.478 Y114.254
X76.489 Y114.275
X76.523 Y114.337
X76.566 Y114.412
G2 X74.639 Y112.863 I-3.3 J2.132
X73.344 Y112.778 I-0.882 J3.553
X72.161 Y113.033 I0.496 J5.181
G1 X71.942 Y113.122
G2 X71.829 Y113.349 I0.024 J0.154
G1 X71.866 Y113.425
X72.176 Y113.857
X72.504 Y114.276
X72.577 Y114.339
X72.671 Y114.359
G3 X74.765 Y114.072 I1.889 J6.006
X75.986 Y115.126 I-0.162 J1.422
X75.251 Y117.041 I-1.429 J0.549
X74.409 Y117.286 I-0.987 J-1.821
X72.902 Y117.337 I-1.143 J-11.494
G2 X72.516 Y117.533 I0.049 J0.574
G1 X72.468 Y117.608
X72.438 Y117.693
X72.42 Y117.784
X72.389 Y118.48
X72.371 Y119.177
X72.359 Y120.874
X72.34 Y121.049
X72.322 Y121.254
X72.333 Y121.421
X72.382 Y121.58
X72.489 Y121.8
X72.766 Y122.339
X72.873 Y122.512
X72.997 Y122.674
G2 X73.308 Y122.658 I0.148 J-0.141
G1 X73.442 Y122.422
X73.59 Y122.195
X73.636 Y122.153
X73.692 Y122.127
X73.84 Y122.112
X76.953
X77.046 Y122.104
X77.132 Y122.07
X77.173 Y122.026
X77.189 Y121.967
X77.162 Y121.888
G2 X76.506 Y120.869 I-9.098 J5.135
G1 X76.429 Y120.836
X76.332 Y120.817
X76.232 Y120.813
X73.643
X73.546 Y120.806
X73.457 Y120.768
X73.41 Y120.691
X73.4 Y120.601
X73.419 Y119.872
X73.438 Y119.037
G3 X73.771 Y118.63 I0.391 J-0.02
G1 X74.607 Y118.634
G2 X76.812 Y117.601 I-0.046 J-2.969
G1 X77.003 Y117.289
G2 X77.221 Y116.614 I-1.39 J-0.822
X77.101 Y115.426 I-2.353 J-0.363
G1 X76.895 Y114.964
X76.646 Y114.522
Z1.
X69.869 Y114.177
Z-0.075 F250.
X69.86 Y114.117 F750.
G2 X69.179 Y113.075 I-5.457 J2.823
G1 X69.13 Y113.035
X69.074 Y113.006
X69.013 Y112.989
X68.95 Y112.985
X64.486
X64.398 Y112.991
X64.324 Y113.015
G2 X64.281 Y113.281 I0.137 J0.159
X64.896 Y114.515 I6.037 J-2.241
X66.828 Y117.235 I53.29 J-35.801
G3 X67.693 Y118.75 I-4.955 J3.835
X66.507 Y120.973 I-1.57 J0.591
X64.709 Y121.188 I-1.785 J-7.307
G1 X64.626 Y121.219
X64.581 Y121.254
X64.562 Y121.307
X64.584 Y121.368
G2 X65.438 Y122.494 I7.571 J-4.849
G1 X65.507 Y122.537
X65.596 Y122.576
G2 X66.561 Y122.513 I0.254 J-3.532
X68.232 Y121.945 I-0.577 J-4.44
X69.149 Y120.814 I-1.89 J-2.469
X68.957 Y118.813 I-2.256 J-0.793
X68.023 Y117.488 I-7.972 J4.626
G3 X66.194 Y114.612 I14.374 J-11.161
G1 X66.141 Y114.412
X66.148 Y114.362
X66.171 Y114.317
X66.2 Y114.288
X66.24 Y114.276
X69.725
X69.778 Y114.273
X69.823 Y114.259
X69.852 Y114.225
X69.869 Y114.177
Z1.
X61.498 Y114.743
Z-0.075 F250.
G2 X59.921 Y112.979 I-3.858 J1.862 F750.
X57.367 Y113.499 I-0.953 J1.855
X56.661 Y114.759 I2.165 J2.039
X56.644 Y120.224 I10.192 J2.765
X57.798 Y121.946 I4.25 J-1.602
X59.239 Y122.594 I1.493 J-1.393
X60.872 Y121.934 I-0.052 J-2.481
X61.972 Y120.032 I-2.052 J-2.454
X62.067 Y116.477 I-11.17 J-2.078
X61.495 Y114.744 I-7.042 J1.361
G0 X61.498 Y114.743 Z1.
X57.509 Y117.573
Z-0.075 F250.
G3 X57.877 Y115.186 I9.922 J0.31 F750.
X60.18 Y114.232 I1.615 J0.641
X60.598 Y114.926 I-0.815 J0.965
X60.688 Y119.813 I-10.031 J2.629
G1 X60.576 Y120.126
G3 X58.44 Y121.276 I-1.739 J-0.671
X57.947 Y120.809 I0.372 J-0.887
G1 X57.88 Y120.663
G3 X57.503 Y117.951 I7.955 J-2.489
G1 X57.509 Y117.573
Z1.
X54.349 Y114.177
Z-0.075 F250.
X54.34 Y114.117 F750.
G2 X53.659 Y113.075 I-5.449 J2.817
G1 X53.61 Y113.035
X53.554 Y113.006
X53.493 Y112.989
X53.43 Y112.985
X48.965
X48.878 Y112.991
X48.804 Y113.015
G2 X48.76 Y113.281 I0.137 J0.159
X49.376 Y114.515 I6.037 J-2.241
X51.308 Y117.235 I53.285 J-35.797
G3 X52.173 Y118.75 I-4.956 J3.836
X50.987 Y120.973 I-1.57 J0.591
X49.189 Y121.188 I-1.785 J-7.306
G1 X49.106 Y121.219
X49.061 Y121.254
X49.041 Y121.307
X49.064 Y121.368
G2 X49.917 Y122.494 I7.586 J-4.86
G1 X49.987 Y122.537
X50.076 Y122.576
G2 X51.041 Y122.513 I0.254 J-3.532
X52.712 Y121.945 I-0.577 J-4.44
X53.629 Y120.814 I-1.89 J-2.469
X53.437 Y118.813 I-2.255 J-0.793
X52.503 Y117.488 I-7.973 J4.627
G3 X50.674 Y114.612 I14.369 J-11.158
G1 X50.621 Y114.412
X50.628 Y114.362
X50.651 Y114.317
X50.68 Y114.288
X50.719 Y114.276
X54.205
X54.258 Y114.273
X54.303 Y114.259
X54.331 Y114.225
X54.349 Y114.177
Z1.
X40.401 Y115.674
Z-0.075 F250.
G2 X39.154 Y113.604 I-4.136 J1.082 F750.
X37.966 Y112.886 I-2.431 J2.678
X36.005 Y112.919 I-0.93 J3.008
X34.31 Y114.493 I1.067 J2.849
X34.386 Y118.243 I3.902 J1.797
X35.093 Y119.229 I3.95 J-2.088
G1 X35.273 Y119.393
G2 X36.468 Y120.117 I2.391 J-2.597
X38.436 Y120.082 I0.93 J-3.049
X40.129 Y118.504 I-1.073 J-2.848
X40.399 Y115.674 I-3.956 J-1.806
G0 X40.401 Z1.
X37.287 Y113.577
Z-0.075 F250.
G3 X38.164 Y113.747 I-0.057 J2.632 F750.
X38.835 Y114.33 I-1.149 J1.998
G1 X39.073 Y114.824
G3 X39.321 Y115.874 I-2.744 J1.202
X39.264 Y117.177 I-4.327 J0.465
X38.181 Y119.008 I-3.332 J-0.735
X36.684 Y119.373 I-1.1 J-1.257
X35.734 Y118.828 I0.168 J-1.392
G1 X35.575 Y118.653
X35.352 Y118.155
G3 X35.117 Y117.108 I2.915 J-1.205
X35.179 Y115.814 I4.1 J-0.451
X36.636 Y113.758 I3.313 J0.804
X37.287 Y113.577 I0.767 J1.494
G1 Z1.
X33.233 Y120.031
Z-0.075 F250.
G2 X32.802 Y119.27 I-2.089 J0.681 F750.
G1 X32.206 Y119.188
X31.608 Y119.143
G2 X31.35 Y116.205 I-1.879 J-1.316
X28.988 Y115.213 I-2.315 J2.205
G1 X28.736 Y114.985
X28.51 Y114.735
X28.414 Y114.605
X28.35 Y114.458
G3 X28.768 Y114.096 I0.499 J0.154
X30.294 Y113.806 I2.113 J6.96
G1 X30.862 Y113.732
G2 X31.943 Y113.418 I-0.51 J-3.768
G1 X32.451 Y113.16
X32.702 Y112.936
G2 X33.025 Y112.387 I-0.718 J-0.791
G1 X33.088 Y112.059
X33.04 Y111.657
G2 X32.753 Y110.927 I-1.735 J0.259
X31.467 Y109.756 I-2.899 J1.893
X28.114 Y109.305 I-2.255 J4.065
X26.901 Y109.752 I0.569 J3.411
G1 X26.751 Y109.855
G2 X26.078 Y110.598 I1.018 J1.598
X25.964 Y111.387 I1.68 J0.645
X26.379 Y112.181 I1.35 J-0.2
X27.98 Y113.285 I4.339 J-4.58
G1 X27.665 Y113.412
G2 X27.159 Y113.974 I0.31 J0.789
G1 X27.105 Y114.131
G2 X27.34 Y114.591 I0.859 J-0.149
X28.198 Y115.316 I3.222 J-2.942
G1 X27.841 Y115.446
G2 X26.544 Y116.969 I0.838 J2.027
X26.649 Y118.413 I2.48 J0.547
X29.835 Y120.232 I2.801 J-1.206
X30.986 Y119.766 I-0.456 J-2.781
G3 X33.081 Y120.26 I-0.593 J7.207
G1 X33.233 Y120.031
Z1.
X29.176 Y116.038
Z-0.075 F250.
X29.325 Y116.022 F750.
G3 X30.102 Y116.111 I0.231 J1.415
X30.957 Y117.525 I-0.613 J1.337
X30.015 Y119.241 I-1.889 J0.08
X28.576 Y119.456 I-1.031 J-1.987
X27.563 Y117.714 I0.547 J-1.484
X28.467 Y116.267 I1.79 J0.112
X29.176 Y116.038 I1.072 J2.105
G1 Z1.
X24.895 Y118.057
Z-0.075 F250.
G2 X24.926 Y115.439 I-4.067 J-1.358 F750.
X23.925 Y113.77 I-4.186 J1.378
G1 X23.744 Y113.608
G2 X22.56 Y112.886 I-2.389 J2.586
X20.599 Y112.919 I-0.93 J3.007
X18.904 Y114.493 I1.067 J2.849
X18.98 Y118.244 I3.901 J1.797
X19.687 Y119.229 I3.948 J-2.086
G1 X19.867 Y119.393
G2 X21.061 Y120.117 I2.391 J-2.598
X23.03 Y120.082 I0.93 J-3.049
X24.722 Y118.504 I-1.073 J-2.847
G1 X24.895 Y118.057
Z1.
X21.881 Y113.577
Z-0.075 F250.
G3 X22.758 Y113.747 I-0.057 J2.632 F750.
X23.428 Y114.33 I-1.149 J1.998
G1 X23.667 Y114.824
G3 X23.915 Y115.874 I-2.745 J1.202
X23.858 Y117.177 I-4.322 J0.465
X22.775 Y119.008 I-3.332 J-0.735
X21.277 Y119.373 I-1.1 J-1.257
X20.328 Y118.828 I0.168 J-1.392
G1 X20.169 Y118.653
X19.946 Y118.155
G3 X19.711 Y117.108 I2.915 J-1.205
X19.773 Y115.814 I4.097 J-0.452
X21.23 Y113.758 I3.313 J0.804
X21.881 Y113.577 I0.767 J1.493
G1 Z1.
X16.178 Y119.991
Z-0.075 F250.
G2 X15.892 Y119.115 I-2.124 J0.209 F750.
G1 X15.64 Y118.714
X15.302 Y118.382
G2 X14.519 Y117.884 I-1.692 J1.796
G1 X14.075 Y117.715
X16.376 Y114.025
G3 X17.37 Y113.56 I0.891 J0.608
G1 X17.557 Y113.561
X17.743 Y113.577
X17.826 Y113.251
G2 X16.014 Y112.865 I-2.124 J5.524
X15.38 Y113.28 I0.203 J1.002
G1 X13.081 Y117.541
G2 X11.874 Y117.609 I-0.369 J4.205
G1 Y113.759
G3 X12.166 Y113.529 I0.396 J0.203
G1 X12.363 Y113.454
X12.564 Y113.389
X12.974 Y113.296
Y112.97
X9.558
Y113.296
G3 X10.54 Y113.606 I-0.614 J3.662
G1 X10.607 Y113.675
X10.659 Y113.759
Y121.998
X9.968 Y121.899
X9.558 Y121.838
X9.489 Y122.309
G2 X11.922 Y122.74 I3.783 J-14.258
X13.954 Y122.665 I0.697 J-8.609
G1 X14.19 Y122.603
G2 X15.304 Y122.144 I-0.712 J-3.312
G1 X15.446 Y122.036
G2 X16.122 Y121.09 I-1.333 J-1.666
G1 X16.161 Y120.939
X16.187 Y120.783
X16.217 Y120.464
X16.178 Y119.991
Z1.
X11.874 Y118.216
Z-0.075 F250.
G3 X13.521 Y118.268 I0.688 J4.363 F750.
G1 X13.748 Y118.347
X13.968 Y118.449
X14.394 Y118.695
X14.68 Y119.024
G3 X14.999 Y119.792 I-1.149 J0.927
G1 X15.04 Y120.229
X14.994 Y120.628
G3 X14.676 Y121.321 I-1.314 J-0.183
G1 X14.402 Y121.614
X13.949 Y121.858
G3 X12.975 Y122.106 I-1.088 J-2.234
G1 X12.458 Y122.127
X12.166 Y122.121
X11.874 Y122.104
Y118.216
Z1.
X12.42 Y103.154
Z-0.075 F250.
X6.5 F750.
G3 X5.5 Y102.154 I0. J-1.
G1 Y90.154
G3 X6.5 Y89.154 I1. J0.
G1 X80.5
G3 X81.5 Y90.154 I0. J1.
G1 Y102.154
G3 X80.5 Y103.154 I-1. J0.
G1 X12.42
Z1.
X76.646 Y92.984
Z-0.075 F250.
X76.542 Y92.813 F750.
X76.502 Y92.748
X76.477 Y92.709
X76.472 Y92.702
Y92.703
X76.478 Y92.715
X76.489 Y92.737
X76.523 Y92.798
X76.566 Y92.874
G2 X74.639 Y91.324 I-3.299 J2.13
X73.344 Y91.239 I-0.882 J3.525
X71.886 Y91.609 I0.388 J4.59
X71.869 Y91.884 I0.102 J0.144
G1 X72.176 Y92.318
X72.504 Y92.737
X72.577 Y92.8
X72.671 Y92.821
G3 X74.765 Y92.534 I1.884 J5.977
X75.918 Y93.412 I-0.144 J1.385
X74.879 Y95.652 I-1.401 J0.711
X73.582 Y95.796 I-1.144 J-4.373
G1 X73.02 Y95.797
G2 X72.465 Y96.068 I-0.061 J0.579
G1 X72.438 Y96.155
X72.42 Y96.245
X72.389 Y96.942
X72.371 Y97.638
X72.359 Y99.336
X72.34 Y99.51
X72.322 Y99.715
X72.333 Y99.882
X72.382 Y100.042
X72.489 Y100.262
X72.766 Y100.801
X72.873 Y100.974
X72.997 Y101.135
G2 X73.308 Y101.119 I0.149 J-0.138
G1 X73.442 Y100.884
X73.59 Y100.657
X73.636 Y100.615
X73.692 Y100.588
X73.84 Y100.573
X76.953
X77.046 Y100.566
X77.132 Y100.531
X77.173 Y100.487
X77.189 Y100.429
X77.162 Y100.349
G2 X76.506 Y99.33 I-9.274 J5.252
G1 X76.429 Y99.298
X76.332 Y99.279
X76.232 Y99.275
X73.643
X73.546 Y99.267
X73.457 Y99.229
X73.41 Y99.153
X73.4 Y99.062
X73.419 Y98.333
X73.438 Y97.498
G3 X73.771 Y97.092 I0.39 J-0.02
G1 X74.607 Y97.096
G2 X76.813 Y96.062 I-0.046 J-2.968
G1 X77.003 Y95.75
G2 X77.22 Y95.076 I-1.411 J-0.828
X77.101 Y93.888 I-2.348 J-0.364
G1 X76.895 Y93.425
X76.646 Y92.984
Z1.
X69.869 Y92.638
Z-0.075 F250.
X69.86 Y92.578 F750.
G2 X69.179 Y91.536 I-5.455 J2.823
G1 X69.13 Y91.497
X69.074 Y91.468
X69.013 Y91.451
X68.95 Y91.446
X64.486
X64.398 Y91.452
X64.324 Y91.476
G2 X64.281 Y91.743 I0.136 J0.159
X64.896 Y92.976 I6.012 J-2.228
X66.828 Y95.697 I53.291 J-35.798
G3 X67.693 Y97.211 I-4.968 J3.844
X66.507 Y99.435 I-1.57 J0.591
X64.709 Y99.65 I-1.794 J-7.367
G1 X64.626 Y99.681
X64.581 Y99.716
X64.562 Y99.768
X64.584 Y99.829
G2 X65.438 Y100.956 I7.506 J-4.795
G1 X65.507 Y100.998
X65.596 Y101.038
G2 X66.561 Y100.975 I0.254 J-3.532
X68.097 Y100.489 I-0.664 J-4.768
X69.22 Y99.064 I-1.449 J-2.297
X68.958 Y97.274 I-2.389 J-0.565
X68.024 Y95.949 I-8.189 J4.787
G3 X66.194 Y93.074 I14.337 J-11.139
G1 X66.141 Y92.874
X66.148 Y92.824
X66.171 Y92.779
X66.2 Y92.749
X66.24 Y92.737
X69.725
X69.778 Y92.734
X69.823 Y92.72
X69.852 Y92.687
X69.869 Y92.638
Z1.
X61.498 Y93.204
Z-0.075 F250.
G2 X59.921 Y91.441 I-3.861 J1.865 F750.
X57.478 Y91.843 I-0.952 J1.842
X56.798 Y92.845 I1.997 J2.087
X56.404 Y94.515 I5.61 J2.205
X56.646 Y98.685 I10.053 J1.509
X57.46 Y100.047 I3.892 J-1.402
G1 X57.796 Y100.41
G2 X58.833 Y101.012 I1.612 J-1.584
X60.589 Y100.617 I0.408 J-2.289
X61.973 Y98.494 I-1.833 J-2.707
X62.067 Y94.938 I-11.256 J-2.077
X61.495 Y93.205 I-7.075 J1.373
G0 X61.498 Y93.204 Z1.
X57.509 Y96.034
Z-0.075 F250.
G3 X57.877 Y93.648 I9.927 J0.311 F750.
X60.18 Y92.693 I1.615 J0.641
X60.602 Y93.386 I-0.856 J0.996
X60.799 Y97.744 I-10.369 J2.653
G1 X60.681 Y98.272
G3 X60.343 Y99.014 I-1.984 J-0.458
X58.44 Y99.737 I-1.505 J-1.097
X57.947 Y99.27 I0.366 J-0.881
G1 X57.88 Y99.124
G3 X57.503 Y96.412 I7.949 J-2.488
G1 X57.509 Y96.034
Z1.
X54.349 Y92.638
Z-0.075 F250.
X54.34 Y92.578 F750.
G2 X53.659 Y91.536 I-5.447 J2.818
G1 X53.61 Y91.497
X53.554 Y91.468
X53.493 Y91.451
X53.43 Y91.446
X48.965
X48.878 Y91.452
X48.804 Y91.476
G2 X48.76 Y91.743 I0.136 J0.159
X49.376 Y92.976 I6.012 J-2.228
X51.308 Y95.697 I53.287 J-35.794
G3 X52.173 Y97.211 I-4.969 J3.844
X50.987 Y99.435 I-1.57 J0.591
X49.189 Y99.65 I-1.794 J-7.366
G1 X49.106 Y99.681
X49.061 Y99.716
X49.041 Y99.768
X49.064 Y99.829
G2 X49.917 Y100.956 I7.521 J-4.806
G1 X49.987 Y100.998
X50.076 Y101.038
G2 X51.041 Y100.975 I0.254 J-3.533
X52.577 Y100.489 I-0.664 J-4.768
X53.7 Y99.064 I-1.449 J-2.297
X53.438 Y97.274 I-2.389 J-0.565
X52.503 Y95.949 I-8.187 J4.785
G3 X50.674 Y93.074 I14.333 J-11.137
G1 X50.621 Y92.874
X50.628 Y92.824
X50.651 Y92.779
X50.68 Y92.749
X50.719 Y92.737
X54.205
X54.258 Y92.734
X54.303 Y92.72
X54.331 Y92.687
X54.349 Y92.638
Z1.
X40.401 Y94.135
Z-0.075 F250.
G2 X39.154 Y92.066 I-4.14 J1.085 F750.
X37.966 Y91.347 I-2.449 J2.707
X36.005 Y91.381 I-0.929 J3.018
X34.31 Y92.955 I1.067 J2.849
X34.386 Y96.705 I3.902 J1.797
X35.093 Y97.691 I3.953 J-2.09
G1 X35.273 Y97.854
G2 X36.468 Y98.579 I2.395 J-2.603
X38.436 Y98.543 I0.929 J-3.056
X40.129 Y96.965 I-1.073 J-2.848
X40.399 Y94.136 I-3.955 J-1.806
G0 X40.401 Y94.135 Z1.
X37.287 Y92.039
Z-0.075 F250.
G3 X38.164 Y92.209 I-0.058 J2.645 F750.
X38.835 Y92.792 I-1.159 J2.009
G1 X39.073 Y93.286
G3 X39.321 Y94.335 I-2.739 J1.201
X39.264 Y95.639 I-4.331 J0.465
X38.181 Y97.47 I-3.334 J-0.736
X36.684 Y97.835 I-1.101 J-1.262
X35.734 Y97.289 I0.168 J-1.392
G1 X35.575 Y97.115
X35.352 Y96.617
G3 X35.117 Y95.569 I2.926 J-1.207
X35.179 Y94.275 I4.102 J-0.451
X36.636 Y92.22 I3.311 J0.803
X37.287 Y92.039 I0.766 J1.491
G1 Z1.
X33.233 Y98.493
Z-0.075 F250.
G2 X32.802 Y97.732 I-2.092 J0.683 F750.
G1 X32.206 Y97.649
X31.608 Y97.604
G2 X31.35 Y94.667 I-1.878 J-1.316
X28.988 Y93.675 I-2.316 J2.206
G1 X28.736 Y93.447
X28.51 Y93.197
X28.414 Y93.066
X28.35 Y92.92
G3 X28.768 Y92.558 I0.497 J0.153
X30.294 Y92.268 I2.11 J6.938
G2 X31.683 Y91.991 I-0.423 J-5.755
G1 X31.943 Y91.879
X32.451 Y91.621
X32.702 Y91.397
G2 X33.025 Y90.849 I-0.714 J-0.789
G1 X33.088 Y90.52
X33.04 Y90.119
G2 X32.753 Y89.389 I-1.733 J0.258
X31.467 Y88.218 I-2.898 J1.893
X28.114 Y87.766 I-2.253 J4.06
X26.751 Y88.316 I0.526 J3.271
X26.078 Y89.059 I1.018 J1.598
X25.964 Y89.848 I1.681 J0.645
X26.379 Y90.643 I1.351 J-0.2
X27.98 Y91.746 I4.335 J-4.579
G1 X27.665 Y91.873
G2 X27.159 Y92.436 I0.31 J0.789
G1 X27.105 Y92.593
G2 X27.34 Y93.052 I0.859 J-0.15
X28.199 Y93.777 I3.304 J-3.044
G1 X27.841 Y93.908
G2 X26.544 Y95.431 I0.836 J2.026
X26.649 Y96.874 I2.477 J0.547
X29.835 Y98.693 I2.801 J-1.205
X30.986 Y98.228 I-0.461 J-2.796
G3 X33.081 Y98.721 I-0.59 J7.201
G1 X33.233 Y98.493
Z1.
X29.176 Y94.499
Z-0.075 F250.
X29.325 Y94.484 F750.
G3 X30.102 Y94.573 I0.231 J1.415
X30.957 Y95.987 I-0.615 J1.338
X30.015 Y97.703 I-1.89 J0.079
X28.576 Y97.917 I-1.03 J-1.98
X27.563 Y96.176 I0.546 J-1.483
X28.467 Y94.729 I1.791 J0.112
X29.176 Y94.499 I1.07 J2.099
G1 Z1.
X24.895 Y96.519
Z-0.075 F250.
G2 X24.926 Y93.9 I-4.07 J-1.358 F750.
X23.925 Y92.232 I-4.184 J1.377
G1 X23.744 Y92.069
G2 X22.56 Y91.347 I-2.408 J2.617
X20.599 Y91.381 I-0.929 J3.018
X18.903 Y92.955 I1.067 J2.849
X18.98 Y96.705 I3.901 J1.797
X19.687 Y97.691 I3.951 J-2.088
G1 X19.867 Y97.854
G2 X21.061 Y98.579 I2.396 J-2.604
X23.03 Y98.543 I0.929 J-3.056
X24.722 Y96.965 I-1.073 J-2.848
G1 X24.895 Y96.519
Z1.
X21.881 Y92.039
Z-0.075 F250.
G3 X22.758 Y92.209 I-0.058 J2.644 F750.
X23.428 Y92.792 I-1.159 J2.008
G1 X23.667 Y93.286
G3 X23.915 Y94.335 I-2.74 J1.201
X23.858 Y95.639 I-4.327 J0.465
X22.775 Y97.47 I-3.333 J-0.736
X21.277 Y97.835 I-1.101 J-1.261
X20.328 Y97.289 I0.168 J-1.392
G1 X20.169 Y97.115
X19.946 Y96.617
G3 X19.711 Y95.569 I2.926 J-1.207
X19.773 Y94.275 I4.099 J-0.452
X21.23 Y92.22 I3.311 J0.803
X21.881 Y92.039 I0.766 J1.49
G1 Z1.
X16.178 Y98.452
Z-0.075 F250.
G2 X15.892 Y97.576 I-2.128 J0.211 F750.
G1 X15.64 Y97.175
X15.302 Y96.844
G2 X14.519 Y96.346 I-1.713 J1.831
G1 X14.075 Y96.177
X16.376 Y92.487
G3 X17.37 Y92.021 I0.89 J0.607
G1 X17.557 Y92.022
X17.743 Y92.039
X17.826 Y91.712
G2 X16.014 Y91.327 I-2.123 J5.53
X15.38 Y91.741 I0.201 J1.
G1 X13.081 Y96.002
G2 X11.874 Y96.071 I-0.363 J4.279
G1 Y92.221
G3 X12.166 Y91.991 I0.396 J0.202
G1 X12.363 Y91.915
X12.564 Y91.851
X12.974 Y91.758
Y91.431
X9.558
Y91.758
G3 X10.54 Y92.067 I-0.605 J3.636
G1 X10.607 Y92.137
X10.659 Y92.221
Y100.459
X9.968 Y100.361
X9.558 Y100.3
X9.489 Y100.771
G2 X11.922 Y101.202 I3.783 J-14.26
X13.714 Y101.167 I0.698 J-9.951
X15.307 Y100.61 I-0.585 J-4.236
G1 X15.446 Y100.497
G2 X16.122 Y99.552 I-1.328 J-1.662
G1 X16.161 Y99.4
X16.187 Y99.245
X16.217 Y98.925
X16.178 Y98.452
Z1.
X11.874 Y96.678
Z-0.075 F250.
G3 X13.521 Y96.729 I0.689 J4.338 F750.
G1 X13.748 Y96.808
X13.968 Y96.91
X14.394 Y97.156
X14.68 Y97.486
G3 X14.999 Y98.254 I-1.149 J0.927
G1 X15.04 Y98.69
X14.994 Y99.089
G3 X14.676 Y99.783 I-1.315 J-0.183
G1 X14.402 Y100.076
X13.949 Y100.319
G3 X12.975 Y100.567 I-1.082 J-2.211
G1 X12.458 Y100.588
X12.166 Y100.583
X11.874 Y100.566
Y96.678
Z1.
X12.42 Y81.615
Z-0.075 F250.
X6.5 F750.
G3 X5.5 Y80.615 I0. J-1.
G1 Y68.615
G3 X6.5 Y67.615 I1. J0.
G1 X80.5
G3 X81.5 Y68.615 I0. J1.
G1 Y80.615
G3 X80.5 Y81.615 I-1. J0.
G1 X12.42
Z1.
X77.173 Y78.949
Z-0.075 F250.
X77.189 Y78.891 F750.
X77.162 Y78.811
G2 X76.506 Y77.792 I-9.181 J5.191
G1 X76.429 Y77.759
X76.332 Y77.74
X76.232 Y77.736
X73.643
X73.546 Y77.729
X73.457 Y77.691
X73.41 Y77.614
X73.4 Y77.524
X73.419 Y76.795
X73.438 Y75.96
G3 X73.771 Y75.553 I0.39 J-0.02
G1 X74.607 Y75.557
G2 X76.813 Y74.524 I-0.045 J-2.967
G1 X77.003 Y74.212
G2 X77.22 Y73.537 I-1.411 J-0.828
X77.101 Y72.349 I-2.348 J-0.364
G1 X76.895 Y71.887
X76.646 Y71.446
X76.542 Y71.274
X76.502 Y71.21
X76.477 Y71.171
X76.472 Y71.163
Y71.165
X76.478 Y71.177
X76.489 Y71.198
X76.523 Y71.26
X76.566 Y71.335
G2 X74.639 Y69.786 I-3.299 J2.13
X73.344 Y69.701 I-0.882 J3.525
X71.886 Y70.071 I0.39 J4.596
X71.869 Y70.345 I0.102 J0.144
G1 X72.176 Y70.78
X72.504 Y71.199
X72.577 Y71.262
X72.671 Y71.282
G3 X74.765 Y70.996 I1.884 J5.977
X75.918 Y71.873 I-0.144 J1.385
X74.879 Y74.113 I-1.401 J0.711
X73.582 Y74.258 I-1.143 J-4.365
G1 X73.02 Y74.259
G2 X72.465 Y74.53 I-0.061 J0.579
G1 X72.438 Y74.616
X72.42 Y74.707
X72.389 Y75.403
X72.371 Y76.1
X72.359 Y77.797
X72.34 Y77.972
X72.322 Y78.177
X72.333 Y78.344
X72.382 Y78.503
X72.489 Y78.723
X72.766 Y79.262
X72.873 Y79.435
X72.997 Y79.597
G2 X73.308 Y79.581 I0.149 J-0.139
G1 X73.442 Y79.345
X73.59 Y79.118
X73.636 Y79.076
X73.692 Y79.05
X73.84 Y79.035
X76.953
X77.046 Y79.027
X77.132 Y78.993
X77.173 Y78.949
Z1.
X69.869 Y71.1
Z-0.075 F250.
X69.86 Y71.04 F750.
G2 X69.179 Y69.998 I-5.45 J2.82
G1 X69.13 Y69.958
X69.074 Y69.929
X69.013 Y69.912
X68.95 Y69.908
X64.486
X64.398 Y69.914
X64.324 Y69.938
G2 X64.281 Y70.204 I0.136 J0.159
X64.896 Y71.438 I6.012 J-2.229
X66.828 Y74.158 I53.356 J-35.842
G3 X67.693 Y75.673 I-4.964 J3.841
X66.507 Y77.897 I-1.57 J0.591
X64.709 Y78.114 I-1.869 J-7.93
G1 X64.626 Y78.143
X64.581 Y78.177
X64.562 Y78.23
X64.584 Y78.291
G2 X65.438 Y79.418 I7.548 J-4.828
G1 X65.507 Y79.46
X65.596 Y79.5
G2 X66.932 Y79.363 I0.225 J-4.415
X68.231 Y78.865 I-0.689 J-3.74
X69.22 Y77.526 I-1.635 J-2.243
X68.958 Y75.735 I-2.396 J-0.564
X68.024 Y74.411 I-8.203 J4.797
G3 X66.194 Y71.535 I14.334 J-11.137
G1 X66.141 Y71.335
X66.148 Y71.285
X66.171 Y71.241
X66.2 Y71.211
X66.24 Y71.199
X69.725
X69.778 Y71.196
X69.823 Y71.182
X69.852 Y71.148
X69.869 Y71.1
Z1.
X61.498 Y71.666
Z-0.075 F250.
G2 X59.921 Y69.902 I-3.861 J1.865 F750.
X57.478 Y70.304 I-0.951 J1.842
X56.661 Y71.683 I2.075 J2.161
X56.644 Y77.148 I10.186 J2.766
X57.798 Y78.869 I4.254 J-1.605
X59.239 Y79.513 I1.467 J-1.348
X60.114 Y79.339 I-0.014 J-2.361
X61.972 Y76.956 I-1.326 J-2.949
X62.067 Y73.4 I-11.184 J-2.078
X61.495 Y71.667 I-7.056 J1.366
G0 X61.498 Y71.666 Z1.
X57.509 Y74.496
Z-0.075 F250.
G3 X57.877 Y72.109 I9.928 J0.311 F750.
X60.18 Y71.155 I1.615 J0.641
X60.602 Y71.848 I-0.856 J0.996
X60.799 Y76.205 I-10.368 J2.653
G1 X60.681 Y76.734
G3 X60.343 Y77.476 I-1.982 J-0.457
X58.44 Y78.198 I-1.505 J-1.096
X57.947 Y77.732 I0.367 J-0.881
G1 X57.88 Y77.586
G3 X57.503 Y74.874 I7.95 J-2.488
G1 X57.509 Y74.496
Z1.
X54.349 Y71.1
Z-0.075 F250.
X54.34 Y71.04 F750.
G2 X53.659 Y69.998 I-5.442 J2.814
G1 X53.61 Y69.958
X53.554 Y69.929
X53.493 Y69.912
X53.43 Y69.908
X48.965
X48.878 Y69.914
X48.804 Y69.938
G2 X48.76 Y70.204 I0.136 J0.159
X49.376 Y71.438 I6.012 J-2.229
X51.308 Y74.158 I53.351 J-35.838
G3 X52.173 Y75.673 I-4.965 J3.842
X50.987 Y77.897 I-1.57 J0.591
X49.189 Y78.114 I-1.869 J-7.929
G1 X49.106 Y78.143
X49.061 Y78.177
X49.041 Y78.23
X49.064 Y78.291
G2 X49.917 Y79.418 I7.563 J-4.839
G1 X49.987 Y79.46
X50.076 Y79.5
G2 X51.412 Y79.363 I0.225 J-4.415
X52.711 Y78.865 I-0.689 J-3.74
X53.7 Y77.526 I-1.635 J-2.243
X53.438 Y75.735 I-2.395 J-0.564
X52.503 Y74.411 I-8.206 J4.799
G3 X50.674 Y71.535 I14.329 J-11.134
G1 X50.621 Y71.335
X50.628 Y71.285
X50.651 Y71.241
X50.68 Y71.211
X50.719 Y71.199
X54.205
X54.258 Y71.196
X54.303 Y71.182
X54.331 Y71.148
X54.349 Y71.1
Z1.
X40.401 Y72.597
Z-0.075 F250.
G2 X39.154 Y70.527 I-4.14 J1.085 F750.
X37.966 Y69.809 I-2.452 J2.711
X36.005 Y69.842 I-0.929 J3.018
X34.31 Y71.416 I1.067 J2.849
X34.386 Y75.167 I3.901 J1.797
X35.093 Y76.152 I3.954 J-2.09
G1 X35.273 Y76.316
G2 X36.468 Y77.039 I2.27 J-2.402
X38.436 Y77.005 I0.931 J-3.04
X40.128 Y75.427 I-1.072 J-2.847
X40.399 Y72.597 I-3.955 J-1.806
G0 X40.401 Z1.
X37.287 Y70.5
Z-0.075 F250.
G3 X38.164 Y70.67 I-0.058 J2.644 F750.
X38.835 Y71.253 I-1.16 J2.01
G1 X39.073 Y71.747
G3 X39.321 Y72.797 I-2.74 J1.201
X39.264 Y74.1 I-4.331 J0.465
X38.181 Y75.931 I-3.333 J-0.736
X36.684 Y76.297 I-1.101 J-1.262
X35.734 Y75.751 I0.169 J-1.393
G1 X35.575 Y75.576
X35.352 Y75.078
G3 X35.117 Y74.031 I2.926 J-1.207
X35.179 Y72.737 I4.103 J-0.451
X36.636 Y70.682 I3.311 J0.803
X37.287 Y70.5 I0.766 J1.49
G1 Z1.
X33.233 Y76.954
Z-0.075 F250.
G2 X32.802 Y76.193 I-2.091 J0.682 F750.
G1 X32.206 Y76.111
X31.608 Y76.066
G2 X31.35 Y73.128 I-1.878 J-1.316
X28.988 Y72.136 I-2.316 J2.206
G1 X28.736 Y71.908
X28.51 Y71.658
X28.414 Y71.528
X28.35 Y71.381
G3 X28.768 Y71.019 I0.498 J0.153
X30.294 Y70.729 I2.112 J6.949
G2 X31.683 Y70.453 I-0.423 J-5.754
G1 X31.943 Y70.34
X32.451 Y70.083
X32.702 Y69.859
G2 X33.025 Y69.31 I-0.715 J-0.79
G1 X33.088 Y68.982
X33.04 Y68.58
G2 X32.753 Y67.85 I-1.733 J0.258
X31.467 Y66.679 I-2.899 J1.893
X28.114 Y66.228 I-2.254 J4.061
X26.459 Y66.999 I0.556 J3.357
G1 X26.245 Y67.25
G2 X25.991 Y67.827 I0.898 J0.74
X26.381 Y69.103 I1.27 J0.31
X27.981 Y70.207 I4.269 J-4.475
G1 X27.665 Y70.335
G2 X27.159 Y70.897 I0.31 J0.789
G1 X27.105 Y71.054
G2 X27.34 Y71.514 I0.86 J-0.151
X28.199 Y72.238 I3.305 J-3.045
G1 X27.841 Y72.369
G2 X26.544 Y73.892 I0.837 J2.026
X26.649 Y75.336 I2.477 J0.547
X29.835 Y77.155 I2.801 J-1.205
X30.986 Y76.689 I-0.461 J-2.794
G3 X33.081 Y77.183 I-0.591 J7.202
G1 X33.233 Y76.954
Z1.
X29.176 Y72.961
Z-0.075 F250.
X29.325 Y72.945 F750.
G3 X30.102 Y73.034 I0.231 J1.415
X30.957 Y74.448 I-0.614 J1.338
X30.015 Y76.164 I-1.89 J0.079
X28.576 Y76.378 I-1.03 J-1.98
X27.563 Y74.638 I0.546 J-1.483
X28.467 Y73.19 I1.791 J0.112
X29.176 Y72.961 I1.07 J2.098
G1 Z1.
X24.895 Y74.98
Z-0.075 F250.
G2 X24.926 Y72.361 I-4.07 J-1.358 F750.
X23.925 Y70.694 I-4.184 J1.378
X22.768 Y69.89 I-2.705 J2.657
X20.01 Y70.133 I-1.142 J2.812
X18.731 Y71.862 I1.754 J2.636
X18.981 Y75.166 I4.04 J1.356
X20.245 Y76.627 I3.664 J-1.893
G1 X20.645 Y76.859
G2 X21.505 Y77.137 I1.13 J-2.028
X23.616 Y76.714 I0.504 J-2.962
X24.895 Y74.98 I-1.756 J-2.634
G1 Z1.
X21.881 Y70.5
Z-0.075 F250.
G3 X22.758 Y70.67 I-0.058 J2.644 F750.
X23.428 Y71.253 I-1.16 J2.01
G1 X23.667 Y71.747
G3 X23.915 Y72.797 I-2.741 J1.201
X23.858 Y74.1 I-4.327 J0.465
X22.775 Y75.931 I-3.333 J-0.736
X21.277 Y76.297 I-1.101 J-1.261
X20.328 Y75.751 I0.169 J-1.393
G1 X20.169 Y75.576
X19.946 Y75.078
G3 X19.711 Y74.031 I2.926 J-1.207
X19.773 Y72.737 I4.1 J-0.452
X21.23 Y70.682 I3.311 J0.803
X21.881 Y70.5 I0.766 J1.489
G1 Z1.
X16.178 Y76.914
Z-0.075 F250.
G2 X15.892 Y76.038 I-2.129 J0.211 F750.
G1 X15.64 Y75.637
X15.302 Y75.305
G2 X14.518 Y74.808 I-1.712 J1.829
G1 X14.075 Y74.638
X16.376 Y70.948
G3 X17.37 Y70.483 I0.89 J0.607
G1 X17.557 Y70.484
X17.743 Y70.5
X17.826 Y70.174
G2 X16.014 Y69.788 I-2.122 J5.528
X15.38 Y70.203 I0.201 J0.999
G1 X13.081 Y74.464
G2 X11.874 Y74.532 I-0.363 J4.283
G1 Y70.682
G3 X12.166 Y70.452 I0.397 J0.203
G1 X12.363 Y70.377
X12.564 Y70.312
X12.974 Y70.219
Y69.893
X9.558
Y70.219
G3 X10.54 Y70.529 I-0.604 J3.634
G1 X10.607 Y70.598
X10.659 Y70.682
Y78.921
X9.968 Y78.822
X9.558 Y78.761
X9.489 Y79.232
G2 X11.922 Y79.664 I3.792 J-14.304
X13.954 Y79.588 I0.694 J-8.673
G1 X14.19 Y79.526
G2 X15.304 Y79.067 I-0.712 J-3.312
G1 X15.446 Y78.959
G2 X16.122 Y78.013 I-1.329 J-1.663
G1 X16.161 Y77.862
X16.187 Y77.706
X16.217 Y77.387
X16.178 Y76.914
Z1.
X11.874 Y75.14
Z-0.075 F250.
G3 X13.521 Y75.191 I0.689 J4.343 F750.
G1 X13.748 Y75.27
X13.968 Y75.372
X14.394 Y75.618
X14.68 Y75.947
G3 X14.999 Y76.716 I-1.149 J0.927
G1 X15.04 Y77.152
X14.994 Y77.551
G3 X14.676 Y78.244 I-1.315 J-0.183
G1 X14.402 Y78.537
X13.949 Y78.781
G3 X12.975 Y79.029 I-1.085 J-2.226
G1 X12.458 Y79.05
X12.166 Y79.044
X11.874 Y79.027
Y75.14
Z1.
X12.42 Y60.077
Z-0.075 F250.
X6.5 F750.
G3 X5.5 Y59.077 I0. J-1.
G1 Y47.077
G3 X6.5 Y46.077 I1. J0.
G1 X80.5
G3 X81.5 Y47.077 I0. J1.
G1 Y59.077
G3 X80.5 Y60.077 I-1. J0.
G1 X12.42
Z1.
X76.646 Y49.907
Z-0.075 F250.
X76.542 Y49.736 F750.
X76.502 Y49.672
X76.477 Y49.632
X76.472 Y49.625
Y49.627
X76.478 Y49.639
X76.489 Y49.66
X76.523 Y49.721
X76.566 Y49.797
G2 X74.639 Y48.247 I-3.299 J2.13
X73.344 Y48.162 I-0.882 J3.527
X71.886 Y48.532 I0.388 J4.59
X71.869 Y48.807 I0.102 J0.144
G1 X72.176 Y49.242
X72.504 Y49.66
X72.577 Y49.723
X72.671 Y49.744
G3 X74.765 Y49.457 I1.884 J5.974
X75.918 Y50.335 I-0.143 J1.385
X74.879 Y52.575 I-1.401 J0.711
X73.582 Y52.719 I-1.144 J-4.373
G1 X73.02 Y52.72
G2 X72.465 Y52.991 I-0.061 J0.579
G1 X72.438 Y53.078
X72.42 Y53.168
X72.389 Y53.865
X72.371 Y54.562
X72.359 Y56.259
X72.34 Y56.433
X72.322 Y56.638
X72.333 Y56.805
X72.382 Y56.965
X72.489 Y57.185
X72.766 Y57.724
X72.873 Y57.897
X72.997 Y58.058
G2 X73.308 Y58.042 I0.149 J-0.139
G1 X73.442 Y57.807
X73.59 Y57.58
X73.636 Y57.538
X73.692 Y57.512
X73.84 Y57.496
X76.953
X77.046 Y57.489
X77.132 Y57.454
X77.173 Y57.41
X77.189 Y57.352
X77.162 Y57.272
G2 X76.506 Y56.253 I-9.185 J5.194
G1 X76.429 Y56.221
X76.332 Y56.202
X76.232 Y56.198
X73.643
X73.546 Y56.19
X73.457 Y56.152
X73.41 Y56.076
X73.4 Y55.985
X73.419 Y55.256
X73.438 Y54.421
G3 X73.771 Y54.015 I0.39 J-0.02
G1 X74.607 Y54.019
G2 X76.813 Y52.985 I-0.046 J-2.968
G1 X77.003 Y52.673
G2 X77.22 Y51.999 I-1.412 J-0.829
X77.101 Y50.811 I-2.348 J-0.364
G1 X76.895 Y50.348
X76.646 Y49.907
Z1.
X69.869 Y49.562
Z-0.075 F250.
X69.86 Y49.501 F750.
G2 X69.179 Y48.46 I-5.459 J2.826
G1 X69.13 Y48.42
X69.074 Y48.391
X69.013 Y48.374
X68.95 Y48.369
X64.486
X64.398 Y48.376
X64.324 Y48.4
G2 X64.281 Y48.666 I0.136 J0.159
X64.896 Y49.899 I6.016 J-2.231
X66.828 Y52.62 I53.379 J-35.859
G3 X67.693 Y54.134 I-4.965 J3.842
X66.507 Y56.358 I-1.57 J0.591
X64.709 Y56.575 I-1.871 J-7.942
G1 X64.626 Y56.604
X64.581 Y56.639
X64.562 Y56.691
X64.584 Y56.752
G2 X65.438 Y57.879 I7.552 J-4.83
G1 X65.507 Y57.922
X65.596 Y57.961
G2 X66.932 Y57.825 I0.226 J-4.408
X68.231 Y57.327 I-0.687 J-3.737
X69.22 Y55.988 I-1.635 J-2.243
X68.958 Y54.197 I-2.396 J-0.564
X68.024 Y52.872 I-8.211 J4.803
G3 X66.194 Y49.997 I14.325 J-11.132
G1 X66.141 Y49.797
X66.148 Y49.747
X66.171 Y49.702
X66.2 Y49.673
X66.24 Y49.66
X69.725
X69.778 Y49.657
X69.823 Y49.643
X69.852 Y49.61
X69.869 Y49.562
Z1.
X61.498 Y50.127
Z-0.075 F250.
G2 X59.921 Y48.364 I-3.861 J1.866 F750.
X57.478 Y48.766 I-0.952 J1.842
X56.563 Y50.533 I2.28 J2.301
X56.644 Y55.609 I10.307 J2.375
X57.798 Y57.331 I4.259 J-1.609
X59.239 Y57.975 I1.467 J-1.349
X60.59 Y57.541 I-0.023 J-2.393
X61.973 Y55.417 I-1.842 J-2.713
X62.067 Y51.861 I-11.27 J-2.077
X61.495 Y50.128 I-7.079 J1.374
G0 X61.498 Y50.127 Z1.
X57.509 Y52.957
Z-0.075 F250.
G3 X57.877 Y50.571 I9.927 J0.311 F750.
X60.18 Y49.616 I1.615 J0.641
X60.598 Y50.31 I-0.818 J0.967
X60.688 Y55.197 I-10.037 J2.629
G1 X60.576 Y55.511
G3 X58.44 Y56.66 I-1.739 J-0.672
X57.947 Y56.193 I0.367 J-0.882
G1 X57.88 Y56.047
G3 X57.503 Y53.335 I7.949 J-2.488
G1 X57.509 Y52.957
Z1.
X54.349 Y49.562
Z-0.075 F250.
X54.34 Y49.501 F750.
G2 X53.659 Y48.46 I-5.451 J2.821
G1 X53.61 Y48.42
X53.554 Y48.391
X53.493 Y48.374
X53.43 Y48.369
X48.965
X48.878 Y48.376
X48.804 Y48.4
G2 X48.76 Y48.666 I0.136 J0.159
X49.376 Y49.899 I6.017 J-2.231
X51.308 Y52.62 I53.374 J-35.856
G3 X52.173 Y54.134 I-4.965 J3.842
X50.987 Y56.358 I-1.57 J0.591
X49.189 Y56.575 I-1.871 J-7.942
G1 X49.106 Y56.604
X49.061 Y56.639
X49.041 Y56.691
X49.064 Y56.752
G2 X49.917 Y57.879 I7.567 J-4.842
G1 X49.987 Y57.922
X50.076 Y57.961
G2 X51.412 Y57.825 I0.226 J-4.408
X52.711 Y57.327 I-0.687 J-3.737
X53.7 Y55.988 I-1.635 J-2.243
X53.438 Y54.197 I-2.396 J-0.564
X52.503 Y52.872 I-8.214 J4.805
G3 X50.674 Y49.997 I14.32 J-11.128
G1 X50.621 Y49.797
X50.628 Y49.747
X50.651 Y49.702
X50.68 Y49.673
X50.719 Y49.66
X54.205
X54.258 Y49.657
X54.303 Y49.643
X54.331 Y49.61
X54.349 Y49.562
Z1.
X40.401 Y51.058
Z-0.075 F250.
G2 X39.154 Y48.989 I-4.14 J1.085 F750.
X37.966 Y48.27 I-2.355 J2.552
X36.005 Y48.304 I-0.93 J3.013
X34.31 Y49.878 I1.066 J2.849
X34.386 Y53.628 I3.901 J1.797
X35.093 Y54.614 I3.949 J-2.087
G1 X35.273 Y54.778
G2 X36.468 Y55.501 I2.272 J-2.404
X38.436 Y55.466 I0.93 J-3.041
X40.129 Y53.888 I-1.072 J-2.847
X40.399 Y51.059 I-3.955 J-1.806
G0 X40.401 Y51.058 Z1.
X37.287 Y48.962
Z-0.075 F250.
G3 X38.164 Y49.132 I-0.058 J2.645 F750.
X38.835 Y49.715 I-1.158 J2.008
G1 X39.073 Y50.209
G3 X39.321 Y51.258 I-2.739 J1.201
X39.264 Y52.562 I-4.331 J0.465
X38.181 Y54.393 I-3.333 J-0.736
X37.569 Y54.736 I-1.179 J-1.387
X36.156 Y54.588 I-0.51 J-1.953
X35.575 Y54.038 I1.469 J-2.133
G1 X35.352 Y53.54
G3 X35.117 Y52.493 I2.925 J-1.207
X35.179 Y51.198 I4.102 J-0.451
X36.636 Y49.143 I3.311 J0.803
X37.287 Y48.962 I0.767 J1.493
G1 Z1.
X33.233 Y55.416
Z-0.075 F250.
G2 X32.802 Y54.655 I-2.092 J0.683 F750.
G1 X32.206 Y54.572
X31.608 Y54.527
G2 X31.35 Y51.59 I-1.878 J-1.316
X28.988 Y50.598 I-2.316 J2.207
G1 X28.736 Y50.37
X28.51 Y50.12
X28.414 Y49.99
X28.35 Y49.842
G3 X28.768 Y49.481 I0.497 J0.153
X30.294 Y49.191 I2.112 J6.947
G2 X31.683 Y48.914 I-0.421 J-5.747
G1 X31.943 Y48.802
X32.451 Y48.544
X32.702 Y48.32
G2 X33.025 Y47.772 I-0.714 J-0.789
G1 X33.088 Y47.443
X33.04 Y47.042
G2 X32.753 Y46.312 I-1.733 J0.258
X31.467 Y45.141 I-2.899 J1.893
X28.114 Y44.69 I-2.254 J4.06
X26.459 Y45.461 I0.556 J3.356
G1 X26.245 Y45.711
G2 X25.991 Y46.288 I0.898 J0.74
X26.381 Y47.564 I1.27 J0.31
X27.981 Y48.669 I4.268 J-4.473
G1 X27.665 Y48.796
G2 X27.159 Y49.359 I0.31 J0.789
