(1002)
(T2 D=3.175 CR=0. - ZMIN=-1.2 - FLAT END MILL)
G17
G21
(WHEN USING FUSION FOR PERSONAL USE, THE FEEDRATE OF RAPID)
(MOVES IS REDUCED TO MATCH THE FEEDRATE OF CUTTING MOVES,)
(WHICH CAN INCREASE MACHINING TIME. UNRESTRICTED RAPID MOVES)
(ARE AVAILABLE WITH A FUSION SUBSCRIPTION.)
G91 Z0.
G90

(2D CONTOUR1)
M6 T2
M3 S18500
G94
G54
G0 X88.833 Y301.225
G43 Z7.
G1 Z2.5 F600.
Z2.318 F200.
X88.836 Y301.217 Z2.247 F750.
X88.846 Y301.196 Z2.18
X88.861 Y301.161 Z2.12
X88.881 Y301.115 Z2.069
X88.906 Y301.06 Z2.031
X88.933 Y300.999 Z2.008
X88.962 Y300.934 Z2.
X89.09 Y300.644
G3 X89.509 Y300.483 I0.29 J0.129
G2 X91.5 Y300.905 Z1.893 I1.991 J-4.483 F500.
G1 X150.51 Z-1.2
X165.5 F600.
G2 X170.405 Y296. I0. J-4.905
G1 Y284.
G2 X166.647 Y279.231 I-4.905 J0.
X170.405 Y274.462 I-1.147 J-4.769
G1 Y262.462
G2 X166.645 Y257.693 I-4.905 J0.
X170.405 Y252.923 I-1.145 J-4.77
G1 Y240.923
G2 X166.647 Y236.154 I-4.905 J0.
X170.405 Y231.385 I-1.147 J-4.769
G1 Y219.385
G2 X166.645 Y214.615 I-4.905 J0.
X170.405 Y209.846 I-1.145 J-4.77
G1 Y197.846
G2 X166.647 Y193.077 I-4.905 J0.
X170.405 Y188.308 I-1.147 J-4.769
G1 Y176.308
G2 X166.645 Y171.538 I-4.905 J0.
X170.405 Y166.769 I-1.145 J-4.77
G1 Y154.769
G2 X166.647 Y150. I-4.905 J0.
X170.405 Y145.231 I-1.147 J-4.769
G1 Y133.231
G2 X166.645 Y128.462 I-4.905 J0.
X170.405 Y123.692 I-1.145 J-4.77
G1 Y111.692
G2 X166.647 Y106.923 I-4.905 J0.
X170.405 Y102.154 I-1.147 J-4.769
G1 Y90.154
G2 X166.646 Y85.385 I-4.905 J0.
X170.405 Y80.615 I-1.146 J-4.769
G1 Y68.615
G2 X166.646 Y63.846 I-4.905 J0.
X170.405 Y59.077 I-1.146 J-4.769
G1 Y47.077
G2 X166.646 Y42.308 I-4.905 J0.
X170.405 Y37.539 I-1.146 J-4.769
G1 Y25.538
G2 X166.646 Y20.769 I-4.905 J0.
X170.405 Y16. I-1.146 J-4.769
G1 Y4.
G2 X165.5 Y-0.905 I-4.905 J0.
G1 X91.5
G2 X86.595 Y4. I0. J4.905
G1 Y16.
G2 X90.354 Y20.769 I4.905 J0.
X86.595 Y25.538 I1.146 J4.769
G1 Y37.539
G2 X90.354 Y42.308 I4.905 J0.
X86.595 Y47.077 I1.146 J4.769
G1 Y59.077
G2 X90.354 Y63.846 I4.905 J0.
X86.595 Y68.615 I1.146 J4.769
G1 Y80.615
G2 X90.354 Y85.385 I4.905 J0.
X86.595 Y90.154 I1.146 J4.769
G1 Y102.154
G2 X90.353 Y106.923 I4.905 J0.
X86.595 Y111.692 I1.147 J4.769
G1 Y123.692
G2 X90.355 Y128.462 I4.905 J0.
X86.595 Y133.231 I1.145 J4.77
G1 Y145.231
G2 X90.353 Y150. I4.905 J0.
X86.595 Y154.769 I1.147 J4.769
G1 Y166.769
G2 X90.355 Y171.538 I4.905 J0.
X86.595 Y176.308 I1.145 J4.77
G1 Y188.308
G2 X90.353 Y193.077 I4.905 J0.
X86.595 Y197.846 I1.147 J4.769
G1 Y209.846
G2 X90.355 Y214.615 I4.905 J0.
X86.595 Y219.385 I1.145 J4.77
G1 Y231.385
G2 X90.353 Y236.154 I4.905 J0.
X86.595 Y240.923 I1.147 J4.769
G1 Y252.923
G2 X90.355 Y257.693 I4.905 J0.
X86.595 Y262.462 I1.145 J4.77
G1 Y274.462
G2 X90.353 Y279.231 I4.905 J0.
X86.595 Y284. I1.147 J4.769
G1 Y296.
G2 X91.5 Y300.905 I4.905 J0.
G1 X150.51
G2 X150.748 Y300.746 I0. J-0.258
G3 X150.986 Y300.587 I0.238 J0.099
G1 X165.5
G2 X170.087 Y296. I0. J-4.587
G1 Y284.
G2 X165.5 Y279.413 I-4.587 J0.
G1 X91.5
G2 X86.912 Y284. I0. J4.587
G1 Y296.
G2 X91.5 Y300.587 I4.588 J0.
G1 X150.986
G3 X151.304 Y300.905 I0. J0.318
G1 Y301.223
G3 Y301.54 Z-0.883 J0. K0.318
G1 Z3.
X237.817 Y-1.857
Z2.5
Z2.318 F200.
G3 Y-1.54 Z2. J0.317 K0. F750.
G0 Y-1.222
G3 X237.5 Y-0.905 I-0.317 J0.
G1 X176.5 Z-1.197 F500.
X176.44 Z-1.2
G2 X171.595 Y4. I0.06 J4.905 F600.
G1 Y16.
G2 X175.354 Y20.769 I4.905 J0.
X171.595 Y25.538 I1.146 J4.769
G1 Y37.539
G2 X175.354 Y42.308 I4.905 J0.
X171.595 Y47.077 I1.146 J4.769
G1 Y59.077
G2 X175.354 Y63.846 I4.905 J0.
X171.595 Y68.615 I1.146 J4.769
G1 Y80.615
G2 X175.354 Y85.385 I4.905 J0.
X171.595 Y90.154 I1.146 J4.769
G1 Y102.154
G2 X175.353 Y106.923 I4.905 J0.
X171.595 Y111.692 I1.147 J4.769
G1 Y123.692
G2 X175.355 Y128.462 I4.905 J0.
X171.595 Y133.231 I1.145 J4.77
G1 Y145.231
G2 X175.353 Y150. I4.905 J0.
X171.595 Y154.769 I1.147 J4.769
G1 Y166.769
G2 X175.355 Y171.538 I4.905 J0.
X171.595 Y176.308 I1.145 J4.77
G1 Y188.308
G2 X175.353 Y193.077 I4.905 J0.
X171.595 Y197.846 I1.147 J4.769
G1 Y209.846
G2 X175.355 Y214.615 I4.905 J0.
X171.595 Y219.385 I1.145 J4.77
G1 Y231.385
G2 X175.353 Y236.154 I4.905 J0.
X171.595 Y240.923 I1.147 J4.769
G1 Y252.923
G2 X175.355 Y257.693 I4.905 J0.
X171.595 Y262.462 I1.145 J4.77
G1 Y274.462
G2 X175.353 Y279.231 I4.905 J0.
X171.595 Y284. I1.147 J4.769
G1 Y296.
G2 X176.5 Y300.905 I4.905 J0.
G1 X250.5
G2 X255.405 Y296. I0. J-4.905
G1 Y284.
G2 X251.647 Y279.231 I-4.905 J0.
X255.405 Y274.462 I-1.147 J-4.769
G1 Y262.462
G2 X251.645 Y257.693 I-4.905 J0.
X255.405 Y252.923 I-1.145 J-4.77
G1 Y240.923
G2 X251.647 Y236.154 I-4.905 J0.
X255.405 Y231.385 I-1.147 J-4.769
G1 Y219.385
G2 X251.645 Y214.615 I-4.905 J0.
X255.405 Y209.846 I-1.145 J-4.77
G1 Y197.846
G2 X251.647 Y193.077 I-4.905 J0.
X255.405 Y188.308 I-1.147 J-4.769
G1 Y176.308
G2 X251.645 Y171.538 I-4.905 J0.
X255.405 Y166.769 I-1.145 J-4.77
G1 Y154.769
G2 X251.647 Y150. I-4.905 J0.
X255.405 Y145.231 I-1.147 J-4.769
G1 Y133.231
G2 X251.645 Y128.462 I-4.905 J0.
X255.405 Y123.692 I-1.145 J-4.77
G1 Y111.692
G2 X251.647 Y106.923 I-4.905 J0.
X255.405 Y102.154 I-1.147 J-4.769
G1 Y90.154
G2 X251.646 Y85.385 I-4.905 J0.
X255.405 Y80.615 I-1.146 J-4.769
G1 Y68.615
G2 X251.646 Y63.846 I-4.905 J0.
X255.405 Y59.077 I-1.146 J-4.769
G1 Y47.077
G2 X251.646 Y42.308 I-4.905 J0.
X255.405 Y37.539 I-1.146 J-4.769
G1 Y25.538
G2 X251.646 Y20.769 I-4.905 J0.
X255.405 Y16. I-1.146 J-4.769
G1 Y4.
G2 X250.5 Y-0.905 I-4.905 J0.
G1 X176.5
X176.44
G2 X176.2 Y-0.737 I0.003 J0.26
G3 X175.969 Y-0.557 I-0.264 J-0.1
G2 X171.913 Y4. I0.531 J4.557
G1 Y16.
G2 X176.5 Y20.587 I4.587 J0.
G1 X250.5
G2 X255.087 Y16. I0. J-4.587
G1 Y4.
G2 X250.5 Y-0.587 I-4.587 J0.
G1 X176.5
G2 X175.969 Y-0.557 I0. J4.587
G3 X175.617 Y-0.835 I-0.037 J-0.315
G1 X175.58 Y-1.151
X175.572 Y-1.221 Z-1.192
X175.564 Y-1.287 Z-1.169
X175.557 Y-1.347 Z-1.131
X175.551 Y-1.397 Z-1.08
X175.547 Y-1.435 Z-1.02
X175.544 Y-1.458 Z-0.953
X175.543 Y-1.466 Z-0.883
Z3.
X145.542 Y20.587
Z2.5
Z2.317 F200.
G2 X145.842 Z2. I0.318 K0. F500.
G1 X165.5 Z0.97
G2 X170.087 Y16. Z0.592 I0. J-4.587
G1 Y4. Z-0.037
G2 X165.5 Y-0.587 Z-0.414 I-4.587 J0.
G1 X150.51 Z-1.2
X91.5 F600.
G2 X86.912 Y4. I0. J4.587
G1 Y16.
G2 X91.5 Y20.587 I4.588 J0.
G1 X165.5
G2 X170.087 Y16. I0. J-4.587
G1 Y4.
G2 X165.5 Y-0.587 I-4.587 J0.
G1 X150.51
G3 X150.193 Y-0.905 I0. J-0.317
G1 Y-1.222
G2 Y-1.54 Z-0.883 J0. K0.318
G1 Z3.
X126.623 Y42.126
Z2.5
Z2.317 F200.
G2 X126.924 Z2. I0.317 K0. F500.
G1 X165.5 Z-0.022
G2 X170.087 Y37.539 Z-0.399 I0. J-4.587
G1 Y25.538 Z-1.028
G2 X168.966 Y22.533 Z-1.2 I-4.587 J0.
X165.5 Y20.951 I-3.466 J3.005 F600.
G1 X91.5
G2 X86.912 Y25.538 I0. J4.587
G1 Y37.539
G2 X91.5 Y42.126 I4.588 J0.
G1 X165.5
G2 X170.087 Y37.539 I0. J-4.587
G1 Y25.538
G2 X168.966 Y22.533 I-4.587 J0.
G3 X168.998 Y22.085 I0.24 J-0.208
G1 X169.238 Y21.877
X169.291 Y21.831 Z-1.192
X169.342 Y21.787 Z-1.169
X169.387 Y21.748 Z-1.131
X169.425 Y21.715 Z-1.08
X169.454 Y21.69 Z-1.02
X169.472 Y21.674 Z-0.953
X169.478 Y21.669 Z-0.883
Z3.
X209.053 Y42.126
Z2.5
Z2.317 F200.
G2 X209.354 Z2. I0.318 K0. F500.
G1 X250.5 Z-0.156
G2 X255.087 Y37.539 Z-0.534 I0. J-4.587
G1 Y25.538 Z-1.163
G2 X255.033 Y24.834 Z-1.2 I-4.587 J0.
X250.5 Y20.951 I-4.533 J0.705 F600.
G1 X176.5
G2 X171.913 Y25.538 I0. J4.587
G1 Y37.539
G2 X176.5 Y42.126 I4.587 J0.
G1 X250.5
G2 X255.087 Y37.539 I0. J-4.587
G1 Y25.538
G2 X255.033 Y24.834 I-4.587 J0.
G3 X255.298 Y24.471 I0.314 J-0.049
G1 X255.612 Y24.423
X255.682 Y24.412 Z-1.192
X255.748 Y24.401 Z-1.169
X255.807 Y24.392 Z-1.131
X255.857 Y24.384 Z-1.08
X255.894 Y24.379 Z-1.02
X255.918 Y24.375 Z-0.953
X255.925 Y24.374 Z-0.883
Z3.
X210.724 Y63.664
Z2.5
Z2.317 F200.
G2 X211.025 Z2. I0.318 K0. F500.
G1 X250.5 Z-0.069
G2 X255.087 Y59.077 Z-0.446 I0. J-4.587
G1 Y47.077 Z-1.075
G2 X254.485 Y44.804 Z-1.2 I-4.587 J0.
X250.5 Y42.489 I-3.985 J2.273 F600.
G1 X176.5
G2 X171.913 Y47.077 I0. J4.588
G1 Y59.077
G2 X176.5 Y63.664 I4.587 J0.
G1 X250.5
G2 X255.087 Y59.077 I0. J-4.587
G1 Y47.077
G2 X254.485 Y44.804 I-4.587 J0.
G3 X254.603 Y44.37 I0.276 J-0.157
G1 X254.879 Y44.213
X254.94 Y44.178 Z-1.192
X254.998 Y44.145 Z-1.169
X255.051 Y44.115 Z-1.131
X255.094 Y44.09 Z-1.08
X255.127 Y44.071 Z-1.02
X255.148 Y44.06 Z-0.953
X255.155 Y44.056 Z-0.883
Z3.
X277.425 Y106.356
Z2.5
Z2.317 F200.
G2 Y106.055 Z2. J-0.317 K0. F500.
G1 Y51.787 Z-0.844
G2 X273.428 Y46.967 Z-1.2 I-4.905 J0.
X272.52 Y46.882 I-0.908 J4.82 F600.
G1 X260.52
G2 X255.615 Y51.787 I0. J4.905
G1 Y125.788
G2 X260.52 Y130.693 I4.905 J0.
G1 X272.52
G2 X277.425 Y125.788 I0. J-4.905
G1 Y51.787
G2 X273.428 Y46.967 I-4.905 J0.
X273.159 Y47.084 I-0.048 J0.256
G3 X272.897 Y47.216 I-0.239 J-0.15
G2 X272.52 Y47.2 I-0.377 J4.572
G1 X260.52
G2 X255.932 Y51.787 I0. J4.587
G1 Y125.788
G2 X260.52 Y130.376 I4.587 J0.
G1 X272.52
G2 X277.108 Y125.788 I0. J-4.588
G1 Y51.787
G2 X272.897 Y47.216 I-4.588 J0.
G3 X272.607 Y46.873 I0.026 J-0.316
G1 X272.633 Y46.557
X272.639 Y46.486 Z-1.192
X272.644 Y46.419 Z-1.169
X272.649 Y46.359 Z-1.131
X272.653 Y46.309 Z-1.08
X272.656 Y46.271 Z-1.02
X272.658 Y46.248 Z-0.953
X272.659 Y46.24 Z-0.883
Z3.
X277.615 Y91.779
Z2.5
Z2.317 F200.
G3 Y92.08 Z2. J0.318 K0. F500.
G1 Y125.788 Z0.233
G2 X282.52 Y130.693 Z-0.17 I4.905 J0.
G1 X294.52 Z-0.799
G2 X299.425 Y125.846 Z-1.2 I0. J-4.905
G1 Y125.788 F600.
Y51.787
G2 X294.52 Y46.882 I-4.905 J0.
G1 X282.52
G2 X277.615 Y51.787 I0. J4.905
G1 Y125.788
G2 X282.52 Y130.693 I4.905 J0.
G1 X294.52
G2 X299.425 Y125.846 I0. J-4.905
X299.267 Y125.606 I-0.257 J-0.003
G3 X299.108 Y125.366 I0.1 J-0.24
G1 Y51.787
G2 X294.52 Y47.2 I-4.588 J0.
G1 X282.52
G2 X277.932 Y51.787 I0. J4.587
G1 Y125.788
G2 X282.52 Y130.376 I4.587 J0.
G1 X294.52
G2 X299.108 Y125.788 I0. J-4.588
G1 Y125.366
G3 X299.425 Y125.049 I0.317 J0.
G1 X299.742
G2 X300.06 Z-0.883 I0. K0.318
G1 Z3.
X300.351 Y211.429
Z2.5
Z2.318 F200.
X300.343 Z2.247 F750.
X300.32 Y211.427 Z2.18
X300.282 Y211.425 Z2.12
X300.232 Y211.423 Z2.069
X300.171 Y211.419 Z2.031
X300.104 Y211.416 Z2.008
X300.034 Y211.412 Z2.
X299.717 Y211.394
G3 X299.417 Y211.059 I0.018 J-0.317
G2 X299.425 Y210.788 Z1.986 I-4.897 J-0.271 F500.
G1 Y150. Z-1.2
Y136.788 F600.
G2 X294.52 Y131.883 I-4.905 J0.
G1 X282.52
G2 X277.615 Y136.788 I0. J4.905
G1 Y210.788
G2 X282.52 Y215.693 I4.905 J0.
G1 X294.52
G2 X299.425 Y210.788 I0. J-4.905
G1 Y150.
G2 X299.266 Y149.762 I-0.258 J0.
G3 X299.108 Y149.524 I0.099 J-0.238
G1 Y136.788
G2 X294.52 Y132.201 I-4.588 J0.
G1 X282.52
G2 X277.932 Y136.788 I0. J4.587
G1 Y210.788
G2 X282.52 Y215.376 I4.587 J0.
G1 X294.52
G2 X299.108 Y210.788 I0. J-4.588
G1 Y149.524
G3 X299.425 Y149.206 I0.317 J0.
G1 X299.742
G2 X300.06 Z-0.883 I0. K0.318
G1 Z3.
X277.425 Y194.063
Z2.5
Z2.317 F200.
G2 Y193.762 Z2. J-0.317 K0. F500.
G1 Y136.788 Z-0.986
G2 X275.819 Y133.159 Z-1.2 I-4.905 J0.
X272.52 Y131.883 I-3.299 J3.629 F600.
G1 X260.52
G2 X255.615 Y136.788 I0. J4.905
G1 Y210.788
G2 X260.52 Y215.693 I4.905 J0.
G1 X272.52
G2 X277.425 Y210.788 I0. J-4.905
G1 Y136.788
G2 X275.819 Y133.159 I-4.905 J0.
X275.529 Y133.118 I-0.175 J0.193
G3 X275.238 Y133.092 I-0.125 J-0.253
G2 X272.52 Y132.201 I-2.718 J3.696
G1 X260.52
G2 X255.932 Y136.788 I0. J4.587
G1 Y210.788
G2 X260.52 Y215.376 I4.587 J0.
G1 X272.52
G2 X277.108 Y210.788 I0. J-4.588
G1 Y136.788
G2 X275.238 Y133.092 I-4.588 J0.
G3 X275.17 Y132.648 I0.188 J-0.256
G1 X275.358 Y132.392
X275.4 Y132.335 Z-1.192
X275.439 Y132.281 Z-1.169
X275.475 Y132.233 Z-1.131
X275.505 Y132.192 Z-1.08
X275.527 Y132.162 Z-1.02
X275.541 Y132.143 Z-0.953
X275.546 Y132.137 Z-0.883
Z3.
X233.932 Y128.643
Z2.5
Z2.317 F200.
G3 X233.631 Z2. I-0.318 K0. F500.
G1 X176.5 Z-0.994
G2 X173.034 Y130.225 Z-1.2 I0. J4.588
X171.913 Y133.231 I3.466 J3.006 F600.
G1 Y145.231
G2 X176.5 Y149.818 I4.587 J0.
G1 X250.5
G2 X255.087 Y145.231 I0. J-4.587
G1 Y133.231
G2 X250.5 Y128.643 I-4.587 J0.
G1 X176.5
G2 X173.034 Y130.225 I0. J4.588
G3 X172.586 Y130.257 I-0.24 J-0.208
G1 X172.346 Y130.049
X172.293 Y130.003 Z-1.192
X172.242 Y129.959 Z-1.169
X172.197 Y129.92 Z-1.131
X172.159 Y129.887 Z-1.08
X172.13 Y129.862 Z-1.02
X172.113 Y129.847 Z-0.953
X172.107 Y129.841 Z-0.883
Z3.
X148.932 Y128.643
Z2.5
Z2.317 F200.
G3 X148.631 Z2. I-0.318 K0. F500.
G1 X91.5 Z-0.994
G2 X88.034 Y130.225 Z-1.2 I0. J4.588
X86.912 Y133.231 I3.466 J3.006 F600.
G1 Y145.231
G2 X91.5 Y149.818 I4.588 J0.
G1 X165.5
G2 X170.087 Y145.231 I0. J-4.587
G1 Y133.231
G2 X165.5 Y128.643 I-4.587 J0.
G1 X91.5
G2 X88.034 Y130.225 I0. J4.588
G3 X87.586 Y130.257 I-0.24 J-0.208
G1 X87.346 Y130.049
X87.293 Y130.003 Z-1.192
X87.242 Y129.959 Z-1.169
X87.197 Y129.92 Z-1.131
X87.159 Y129.887 Z-1.08
X87.13 Y129.862 Z-1.02
X87.113 Y129.847 Z-0.953
X87.107 Y129.841 Z-0.883
Z3.
X1.075 Y104.385
Z2.5
Z2.318 F200.
X1.082 Y104.382 Z2.247 F750.
X1.103 Y104.371 Z2.18
X1.137 Y104.355 Z2.12
X1.183 Y104.334 Z2.069
X1.237 Y104.308 Z2.031
X1.298 Y104.279 Z2.008
X1.361 Y104.248 Z2.
X1.648 Y104.112
G3 X2.071 Y104.262 I0.136 J0.287
G2 X5.353 Y106.923 Z1.771 I4.429 J-2.108 F500.
X1.595 Y111.692 Z1.428 I1.147 J4.769
G1 Y123.692 Z0.799
G2 X5.355 Y128.462 Z0.456 I4.905 J0.
X1.595 Y133.231 Z0.113 I1.145 J4.77
G1 Y145.231 Z-0.516
G2 X5.353 Y150. Z-0.859 I4.905 J0.
X1.595 Y154.721 Z-1.2 I1.147 J4.769
G1 Y154.769 F600.
Y166.769
G2 X5.355 Y171.538 I4.905 J0.
X1.595 Y176.308 I1.145 J4.77
G1 Y188.308
G2 X5.353 Y193.077 I4.905 J0.
X1.595 Y197.846 I1.147 J4.769
G1 Y209.846
G2 X5.355 Y214.615 I4.905 J0.
X1.595 Y219.385 I1.145 J4.77
G1 Y231.385
G2 X5.353 Y236.154 I4.905 J0.
X1.595 Y240.923 I1.147 J4.769
G1 Y252.923
G2 X5.355 Y257.693 I4.905 J0.
X1.595 Y262.462 I1.145 J4.77
G1 Y274.462
G2 X5.353 Y279.231 I4.905 J0.
X1.595 Y284. I1.147 J4.769
G1 Y296.
G2 X6.5 Y300.905 I4.905 J0.
G1 X80.5
G2 X85.405 Y296. I0. J-4.905
G1 Y284.
G2 X81.647 Y279.231 I-4.905 J0.
X85.405 Y274.462 I-1.147 J-4.769
G1 Y262.462
G2 X81.645 Y257.693 I-4.905 J0.
X85.405 Y252.923 I-1.145 J-4.77
G1 Y240.923
G2 X81.647 Y236.154 I-4.905 J0.
X85.405 Y231.385 I-1.147 J-4.769
G1 Y219.385
G2 X81.645 Y214.615 I-4.905 J0.
X85.405 Y209.846 I-1.145 J-4.77
G1 Y197.846
G2 X81.647 Y193.077 I-4.905 J0.
X85.405 Y188.308 I-1.147 J-4.769
G1 Y176.308
G2 X81.645 Y171.538 I-4.905 J0.
X85.405 Y166.769 I-1.145 J-4.77
G1 Y154.769
G2 X81.647 Y150. I-4.905 J0.
X85.405 Y145.231 I-1.147 J-4.769
G1 Y133.231
G2 X81.645 Y128.462 I-4.905 J0.
X85.405 Y123.692 I-1.145 J-4.77
G1 Y111.692
G2 X81.647 Y106.923 I-4.905 J0.
X85.405 Y102.154 I-1.147 J-4.769
G1 Y90.154
G2 X81.646 Y85.385 I-4.905 J0.
X85.405 Y80.615 I-1.146 J-4.769
G1 Y68.615
G2 X81.646 Y63.846 I-4.905 J0.
X85.405 Y59.077 I-1.146 J-4.769
G1 Y47.077
G2 X81.646 Y42.308 I-4.905 J0.
X85.405 Y37.539 I-1.146 J-4.769
G1 Y25.538
G2 X81.646 Y20.769 I-4.905 J0.
X85.405 Y16. I-1.146 J-4.769
G1 Y4.
G2 X80.5 Y-0.905 I-4.905 J0.
G1 X6.5
G2 X1.595 Y4. I0. J4.905
G1 Y16.
G2 X5.354 Y20.769 I4.905 J0.
X1.595 Y25.538 I1.146 J4.769
G1 Y37.539
G2 X5.354 Y42.308 I4.905 J0.
X1.595 Y47.077 I1.146 J4.769
G1 Y59.077
G2 X5.354 Y63.846 I4.905 J0.
X1.595 Y68.615 I1.146 J4.769
G1 Y80.615
G2 X5.354 Y85.385 I4.905 J0.
X1.595 Y90.154 I1.146 J4.769
G1 Y102.154
G2 X5.353 Y106.923 I4.905 J0.
X1.595 Y111.692 I1.147 J4.769
G1 Y123.692
G2 X5.355 Y128.462 I4.905 J0.
X1.595 Y133.231 I1.145 J4.77
G1 Y145.231
G2 X5.353 Y150. I4.905 J0.
X1.595 Y154.721 I1.147 J4.769
X1.754 Y154.961 I0.257 J0.002
G3 X1.913 Y155.201 I-0.102 J0.24
G1 Y166.769
G2 X6.5 Y171.357 I4.587 J0.
G1 X80.5
G2 X85.088 Y166.769 I0. J-4.588
G1 Y154.769
G2 X80.5 Y150.182 I-4.588 J0.
G1 X6.5
G2 X1.913 Y154.769 I0. J4.587
G1 Y155.201
G3 X1.595 Y155.518 I-0.317 J0.
G1 X1.278
G3 X0.96 Z-0.883 I0. K0.318
G1 Z3.
X48.61 Y128.643
Z2.5
Z2.317 F200.
G3 X48.309 Z2. I-0.318 K0. F500.
G1 X6.5 Z-0.191
G2 X1.913 Y133.231 Z-0.569 I0. J4.588
G1 Y145.231 Z-1.198
Y145.275 Z-1.2
G2 X6.5 Y149.818 I4.587 J-0.044 F600.
G1 X80.5
G2 X85.088 Y145.231 I0. J-4.587
G1 Y133.231
G2 X80.5 Y128.643 I-4.588 J0.
G1 X6.5
G2 X1.913 Y133.231 I0. J4.588
G1 Y145.231
Y145.275
G3 X1.598 Y145.596 I-0.317 J0.003
G1 X1.281 Y145.599
X1.21 Y145.6 Z-1.192
X1.143 Z-1.169
X1.083 Y145.601 Z-1.131
X1.033 Z-1.08
X0.995 Y145.602 Z-1.02
X0.971 Z-0.953
X0.963 Z-0.883
Z3.
X48.607 Y107.104
Z2.5
Z2.317 F200.
G3 X48.306 Z2. I-0.318 K0. F500.
G1 X6.5 Z-0.191
G2 X1.913 Y111.692 Z-0.569 I0. J4.588
G1 Y123.692 Z-1.198
Y123.74 Z-1.2
G2 X6.5 Y128.279 I4.587 J-0.048 F600.
G1 X80.5
G2 X85.088 Y123.692 I0. J-4.587
G1 Y111.692
G2 X80.5 Y107.104 I-4.588 J0.
G1 X6.5
G2 X1.913 Y111.692 I0. J4.588
G1 Y123.692
Y123.74
G3 X1.599 Y124.06 I-0.317 J0.003
G1 X1.281 Y124.064
X1.21 Z-1.192
X1.143 Y124.065 Z-1.169
X1.083 Y124.066 Z-1.131
X1.033 Z-1.08
X0.995 Y124.067 Z-1.02
X0.972 Z-0.953
X0.964 Z-0.883
Z3.
X48.603 Y85.566
Z2.5
Z2.317 F200.
G3 X48.303 Z2. I-0.318 K0. F500.
G1 X6.5 Z-0.191
G2 X1.913 Y90.154 Z-0.568 I0. J4.588
G1 Y102.154 Z-1.197
Y102.205 Z-1.2
G2 X6.5 Y106.742 I4.587 J-0.051 F600.
G1 X80.5
G2 X85.088 Y102.154 I0. J-4.588
G1 Y90.154
G2 X80.5 Y85.566 I-4.588 J0.
G1 X6.5
G2 X1.913 Y90.154 I0. J4.588
G1 Y102.154
Y102.205
G3 X1.599 Y102.526 I-0.317 J0.004
G1 X1.281 Y102.529
X1.211 Y102.53 Z-1.192
X1.144 Y102.531 Z-1.169
X1.083 Y102.532 Z-1.131
X1.033 Z-1.08
X0.995 Y102.533 Z-1.02
X0.972 Z-0.953
X0.964 Z-0.883
Z3.
X48.6 Y64.028
Z2.5
Z2.317 F200.
G3 X48.299 Z2. I-0.318 K0. F500.
G1 X6.5 Z-0.191
G2 X1.913 Y68.615 Z-0.568 I0. J4.588
G1 Y80.615 Z-1.197
Y80.67 Z-1.2
G2 X6.5 Y85.203 I4.587 J-0.054 F600.
G1 X80.5
G2 X85.088 Y80.615 I0. J-4.588
G1 Y68.615
G2 X80.5 Y64.028 I-4.588 J0.
G1 X6.5
G2 X1.913 Y68.615 I0. J4.588
G1 Y80.615
Y80.67
G3 X1.599 Y80.991 I-0.317 J0.004
G1 X1.282 Y80.995
X1.211 Y80.996 Z-1.192
X1.144 Y80.997 Z-1.169
X1.084 Z-1.131
X1.033 Y80.998 Z-1.08
X0.996 Z-1.02
X0.972 Y80.999 Z-0.953
X0.964 Z-0.883
Z3.
X48.596 Y42.489
Z2.5
Z2.317 F200.
G3 X48.295 Z2. I-0.318 K0. F500.
G1 X6.5 Z-0.19
G2 X1.913 Y47.077 Z-0.568 I0. J4.588
G1 Y59.077 Z-1.197
Y59.135 Z-1.2
G2 X6.5 Y63.664 I4.587 J-0.058 F600.
G1 X80.5
G2 X85.088 Y59.077 I0. J-4.587
G1 Y47.077
G2 X80.5 Y42.489 I-4.588 J0.
G1 X6.5
G2 X1.913 Y47.077 I0. J4.588
G1 Y59.077
Y59.135
G3 X1.599 Y59.457 I-0.317 J0.004
G1 X1.282 Y59.461
X1.211 Y59.462 Z-1.192
X1.144 Y59.463 Z-1.169
X1.084 Z-1.131
X1.034 Y59.464 Z-1.08
X0.996 Y59.465 Z-1.02
X0.972 Z-0.953
X0.964 Z-0.883
Z3.
X48.592 Y20.951
Z2.5
Z2.317 F200.
G3 X48.291 Z2. I-0.318 K0. F500.
G1 X6.5 Z-0.19
G2 X1.913 Y25.538 Z-0.568 I0. J4.587
G1 Y37.539 Z-1.197
Y37.57 Z-1.198
Y37.601 Z-1.2
G2 X6.5 Y42.126 I4.587 J-0.063 F600.
G1 X80.5
G2 X85.088 Y37.539 I0. J-4.587
G1 Y25.538
G2 X80.5 Y20.951 I-4.588 J0.
G1 X6.5
G2 X1.913 Y25.538 I0. J4.587
G1 Y37.539
Y37.57
Y37.601
G3 X1.6 Y37.923 I-0.317 J0.004
G1 X1.282 Y37.927
X1.212 Y37.928 Z-1.192
X1.145 Y37.929 Z-1.169
X1.084 Y37.93 Z-1.131
X1.034 Y37.931 Z-1.08
X0.996 Z-1.02
X0.973 Y37.932 Z-0.953
X0.965 Z-0.883
Z3.
X45.487 Y20.587
Z2.5
Z2.317 F200.
G2 X45.788 Z2. I0.318 K0. F500.
G1 X80.5 Z0.181
G2 X85.088 Y16. Z-0.197 I0. J-4.587
G1 Y4. Z-0.826
G2 X80.564 Y-0.587 Z-1.2 I-4.588 J0.
G1 X80.5 F600.
X6.5
G2 X1.913 Y4. I0. J4.587
G1 Y16.
G2 X6.5 Y20.587 I4.587 J0.
G1 X80.5
G2 X85.088 Y16. I0. J-4.587
G1 Y4.
G2 X80.564 Y-0.587 I-4.588 J0.
G3 X80.251 Y-0.909 I0.004 J-0.317
G1 X80.256 Y-1.226
X80.257 Y-1.297 Z-1.192
X80.258 Y-1.364 Z-1.169
Y-1.424 Z-1.131
X80.259 Y-1.475 Z-1.08
X80.26 Y-1.512 Z-1.02
Y-1.536 Z-0.953
Y-1.544 Z-0.883
Z3.
X108.068 Y63.664
Z2.5
Z2.317 F200.
G2 X108.369 Z2. I0.318 K0. F500.
G1 X165.5 Z-0.994
G2 X168.966 Y62.082 Z-1.2 I0. J-4.587
X170.087 Y59.077 I-3.466 J-3.005 F600.
G1 Y47.077
G2 X165.5 Y42.489 I-4.587 J0.
G1 X91.5
G2 X86.912 Y47.077 I0. J4.588
G1 Y59.077
G2 X91.5 Y63.664 I4.588 J0.
G1 X165.5
G2 X168.966 Y62.082 I0. J-4.587
G3 X169.414 Y62.05 I0.24 J0.208
G1 X169.654 Y62.258
X169.707 Y62.305 Z-1.192
X169.758 Y62.349 Z-1.169
X169.803 Y62.388 Z-1.131
X169.841 Y62.421 Z-1.08
X169.87 Y62.446 Z-1.02
X169.888 Y62.461 Z-0.953
X169.894 Y62.466 Z-0.883
Z3.
X126.623 Y85.203
Z2.5
Z2.317 F200.
G2 X126.924 Z2. I0.317 K0. F500.
G1 X165.5 Z-0.022
G2 X170.087 Y80.615 Z-0.399 I0. J-4.588
G1 Y68.615 Z-1.028
G2 X168.966 Y65.61 Z-1.2 I-4.587 J0.
X165.5 Y64.028 I-3.466 J3.005 F600.
G1 X91.5
G2 X86.912 Y68.615 I0. J4.588
G1 Y80.615
G2 X91.5 Y85.203 I4.588 J0.
G1 X165.5
G2 X170.087 Y80.615 I0. J-4.588
G1 Y68.615
G2 X168.966 Y65.61 I-4.587 J0.
G3 X168.998 Y65.162 I0.24 J-0.208
G1 X169.238 Y64.954
X169.291 Y64.908 Z-1.192
X169.342 Y64.864 Z-1.169
X169.387 Y64.824 Z-1.131
X169.425 Y64.791 Z-1.08
X169.454 Y64.767 Z-1.02
X169.472 Y64.751 Z-0.953
X169.478 Y64.746 Z-0.883
Z3.
X233.932 Y64.028
Z2.5
Z2.317 F200.
G3 X233.631 Z2. I-0.317 K0. F500.
G1 X176.5 Z-0.994
G2 X173.034 Y65.61 Z-1.2 I0. J4.588
X171.913 Y68.615 I3.466 J3.005 F600.
G1 Y80.615
G2 X176.5 Y85.203 I4.587 J0.
G1 X250.5
G2 X255.087 Y80.615 I0. J-4.588
G1 Y68.615
G2 X250.5 Y64.028 I-4.587 J0.
G1 X176.5
G2 X173.034 Y65.61 I0. J4.588
G3 X172.586 Y65.642 I-0.24 J-0.208
G1 X172.346 Y65.434
X172.293 Y65.388 Z-1.192
X172.242 Y65.344 Z-1.169
X172.197 Y65.304 Z-1.131
X172.159 Y65.271 Z-1.08
X172.13 Y65.246 Z-1.02
X172.112 Y65.231 Z-0.953
X172.106 Y65.226 Z-0.883
Z3.
X233.932 Y85.566
Z2.5
Z2.317 F200.
G3 X233.631 Z2. I-0.318 K0. F500.
G1 X176.5 Z-0.994
G2 X173.034 Y87.148 Z-1.2 I0. J4.588
X171.913 Y90.154 I3.466 J3.005 F600.
G1 Y102.154
G2 X176.5 Y106.742 I4.587 J0.
G1 X250.5
G2 X255.087 Y102.154 I0. J-4.588
G1 Y90.154
G2 X250.5 Y85.566 I-4.587 J0.
G1 X176.5
G2 X173.034 Y87.148 I0. J4.588
G3 X172.586 Y87.18 I-0.24 J-0.208
G1 X172.346 Y86.972
X172.293 Y86.926 Z-1.192
X172.242 Y86.882 Z-1.169
X172.197 Y86.843 Z-1.131
X172.159 Y86.81 Z-1.08
X172.13 Y86.785 Z-1.02
X172.112 Y86.769 Z-0.953
X172.106 Y86.764 Z-0.883
Z3.
X148.932 Y85.566
Z2.5
Z2.317 F200.
G3 X148.631 Z2. I-0.318 K0. F500.
G1 X91.5 Z-0.994
G2 X88.034 Y87.148 Z-1.2 I0. J4.588
X86.912 Y90.154 I3.466 J3.005 F600.
G1 Y102.154
G2 X91.5 Y106.742 I4.588 J0.
G1 X165.5
G2 X170.087 Y102.154 I0. J-4.588
G1 Y90.154
G2 X165.5 Y85.566 I-4.587 J0.
G1 X91.5
G2 X88.034 Y87.148 I0. J4.588
G3 X87.586 Y87.18 I-0.24 J-0.208
G1 X87.346 Y86.972
X87.293 Y86.926 Z-1.192
X87.242 Y86.882 Z-1.169
X87.197 Y86.843 Z-1.131
X87.159 Y86.81 Z-1.08
X87.13 Y86.785 Z-1.02
X87.112 Y86.769 Z-0.953
X87.106 Y86.764 Z-0.883
Z3.
X130.377 Y107.104
Z2.5
Z2.317 F200.
G3 X130.076 Z2. I-0.318 K0. F500.
G1 X91.5 Z-0.022
G2 X86.912 Y111.692 Z-0.399 I0. J4.588
G1 Y123.692 Z-1.028
G2 X88.034 Y126.698 Z-1.2 I4.588 J0.
X91.5 Y128.279 I3.466 J-3.006 F600.
G1 X165.5
G2 X170.087 Y123.692 I0. J-4.587
G1 Y111.692
G2 X165.5 Y107.104 I-4.587 J0.
G1 X91.5
G2 X86.912 Y111.692 I0. J4.588
G1 Y123.692
G2 X88.034 Y126.698 I4.588 J0.
G3 X88.002 Y127.145 I-0.24 J0.208
G1 X87.762 Y127.353
X87.709 Y127.4 Z-1.192
X87.658 Y127.444 Z-1.169
X87.613 Y127.483 Z-1.131
X87.575 Y127.516 Z-1.08
X87.546 Y127.541 Z-1.02
X87.529 Y127.556 Z-0.953
X87.523 Y127.561 Z-0.883
Z3.
X130.377 Y150.182
Z2.5
Z2.317 F200.
G3 X130.076 Z2. I-0.318 K0. F500.
G1 X91.5 Z-0.022
G2 X86.912 Y154.769 Z-0.399 I0. J4.587
G1 Y166.769 Z-1.028
G2 X88.034 Y169.775 Z-1.2 I4.588 J0.
X91.5 Y171.357 I3.466 J-3.006 F600.
G1 X165.5
G2 X170.087 Y166.769 I0. J-4.588
G1 Y154.769
G2 X165.5 Y150.182 I-4.587 J0.
G1 X91.5
G2 X86.912 Y154.769 I0. J4.587
G1 Y166.769
G2 X88.034 Y169.775 I4.588 J0.
G3 X88.002 Y170.222 I-0.24 J0.208
G1 X87.762 Y170.43
X87.709 Y170.477 Z-1.192
X87.658 Y170.521 Z-1.169
X87.613 Y170.56 Z-1.131
X87.575 Y170.593 Z-1.08
X87.546 Y170.618 Z-1.02
X87.529 Y170.633 Z-0.953
X87.523 Y170.638 Z-0.883
Z3.
X126.623 Y192.895
Z2.5
Z2.317 F200.
G2 X126.924 Z2. I0.317 K0. F500.
G1 X165.5 Z-0.022
G2 X170.087 Y188.308 Z-0.399 I0. J-4.587
G1 Y176.308 Z-1.028
G2 X168.966 Y173.302 Z-1.2 I-4.587 J0.
X165.5 Y171.721 I-3.466 J3.006 F600.
G1 X91.5
G2 X86.912 Y176.308 I0. J4.587
G1 Y188.308
G2 X91.5 Y192.895 I4.588 J0.
G1 X165.5
G2 X170.087 Y188.308 I0. J-4.587
G1 Y176.308
G2 X168.966 Y173.302 I-4.587 J0.
G3 X168.998 Y172.855 I0.24 J-0.208
G1 X169.238 Y172.647
X169.291 Y172.6 Z-1.192
X169.342 Y172.556 Z-1.169
X169.387 Y172.517 Z-1.131
X169.425 Y172.484 Z-1.08
X169.454 Y172.459 Z-1.02
X169.471 Y172.444 Z-0.953
X169.477 Y172.439 Z-0.883
Z3.
X233.932 Y171.721
Z2.5
Z2.317 F200.
G3 X233.631 Z2. I-0.318 K0. F500.
G1 X176.5 Z-0.994
G2 X173.034 Y173.302 Z-1.2 I0. J4.587
X171.913 Y176.308 I3.466 J3.006 F600.
G1 Y188.308
G2 X176.5 Y192.895 I4.587 J0.
G1 X250.5
G2 X255.087 Y188.308 I0. J-4.587
G1 Y176.308
G2 X250.5 Y171.721 I-4.587 J0.
G1 X176.5
G2 X173.034 Y173.302 I0. J4.587
G3 X172.586 Y173.334 I-0.24 J-0.208
G1 X172.346 Y173.126
X172.293 Y173.08 Z-1.192
X172.242 Y173.036 Z-1.169
X172.197 Y172.997 Z-1.131
X172.159 Y172.964 Z-1.08
X172.13 Y172.939 Z-1.02
X172.113 Y172.924 Z-0.953
X172.107 Y172.918 Z-0.883
Z3.
X215.377 Y150.182
Z2.5
Z2.317 F200.
G3 X215.076 Z2. I-0.318 K0. F500.
G1 X176.5 Z-0.022
G2 X171.913 Y154.769 Z-0.399 I0. J4.587
G1 Y166.769 Z-1.028
G2 X173.034 Y169.775 Z-1.2 I4.587 J0.
X176.5 Y171.357 I3.466 J-3.006 F600.
G1 X250.5
G2 X255.087 Y166.769 I0. J-4.588
G1 Y154.769
G2 X250.5 Y150.182 I-4.587 J0.
G1 X176.5
G2 X171.913 Y154.769 I0. J4.587
G1 Y166.769
G2 X173.034 Y169.775 I4.587 J0.
G3 X173.002 Y170.222 I-0.24 J0.208
G1 X172.762 Y170.43
X172.709 Y170.477 Z-1.192
X172.658 Y170.521 Z-1.169
X172.613 Y170.56 Z-1.131
X172.575 Y170.593 Z-1.08
X172.546 Y170.618 Z-1.02
X172.529 Y170.633 Z-0.953
X172.523 Y170.638 Z-0.883
Z3.
X215.377 Y193.258
Z2.5
Z2.317 F200.
G3 X215.076 Z2. I-0.318 K0. F500.
G1 X176.5 Z-0.022
G2 X171.913 Y197.846 Z-0.399 I0. J4.587
G1 Y209.846 Z-1.028
G2 X173.034 Y212.852 Z-1.2 I4.587 J0.
X176.5 Y214.434 I3.466 J-3.006 F600.
G1 X250.5
G2 X255.087 Y209.846 I0. J-4.588
G1 Y197.846
G2 X250.5 Y193.258 I-4.587 J0.
G1 X176.5
G2 X171.913 Y197.846 I0. J4.587
G1 Y209.846
G2 X173.034 Y212.852 I4.587 J0.
G3 X173.002 Y213.299 I-0.24 J0.208
G1 X172.762 Y213.507
X172.709 Y213.554 Z-1.192
X172.658 Y213.598 Z-1.169
X172.613 Y213.637 Z-1.131
X172.575 Y213.67 Z-1.08
X172.546 Y213.695 Z-1.02
X172.529 Y213.71 Z-0.953
X172.523 Y213.715 Z-0.883
Z3.
X233.932 Y214.798
Z2.5
Z2.317 F200.
G3 X233.631 Z2. I-0.318 K0. F500.
G1 X176.5 Z-0.994
G2 X173.034 Y216.379 Z-1.2 I0. J4.587
X171.913 Y219.385 I3.466 J3.006 F600.
G1 Y231.385
G2 X176.5 Y235.973 I4.587 J0.
G1 X250.5
G2 X255.087 Y231.385 I0. J-4.588
G1 Y219.385
G2 X250.5 Y214.798 I-4.587 J0.
G1 X176.5
G2 X173.034 Y216.379 I0. J4.587
G3 X172.586 Y216.411 I-0.24 J-0.208
G1 X172.346 Y216.203
X172.293 Y216.157 Z-1.192
X172.242 Y216.113 Z-1.169
X172.197 Y216.074 Z-1.131
X172.159 Y216.041 Z-1.08
X172.13 Y216.016 Z-1.02
X172.113 Y216.001 Z-0.953
X172.107 Y215.995 Z-0.883
Z3.
X148.932 Y214.798
Z2.5
Z2.317 F200.
G3 X148.631 Z2. I-0.318 K0. F500.
G1 X91.5 Z-0.994
G2 X88.034 Y216.379 Z-1.2 I0. J4.587
X86.912 Y219.385 I3.466 J3.006 F600.
G1 Y231.385
G2 X91.5 Y235.973 I4.588 J0.
G1 X165.5
G2 X170.087 Y231.385 I0. J-4.588
G1 Y219.385
G2 X165.5 Y214.798 I-4.587 J0.
G1 X91.5
G2 X88.034 Y216.379 I0. J4.587
G3 X87.586 Y216.411 I-0.24 J-0.208
G1 X87.346 Y216.203
X87.293 Y216.157 Z-1.192
X87.242 Y216.113 Z-1.169
X87.197 Y216.074 Z-1.131
X87.159 Y216.041 Z-1.08
X87.13 Y216.016 Z-1.02
X87.113 Y216.001 Z-0.953
X87.107 Y215.995 Z-0.883
Z3.
X60.709 Y214.798
Z2.5
Z2.317 F200.
G3 X60.408 Z2. I-0.318 K0. F500.
G1 X6.5 Z-0.825
G2 X1.913 Y219.331 Z-1.2 I0. J4.587
G1 Y219.385 F600.
Y231.385
G2 X6.5 Y235.973 I4.587 J0.
G1 X80.5
G2 X85.088 Y231.385 I0. J-4.588
G1 Y219.385
G2 X80.5 Y214.798 I-4.588 J0.
G1 X6.5
G2 X1.913 Y219.331 I0. J4.587
G3 X1.592 Y219.644 I-0.317 J-0.004
G1 X1.274 Y219.64
X1.203 Z-1.192
X1.136 Y219.639 Z-1.169
X1.076 Y219.638 Z-1.131
X1.026 Y219.637 Z-1.08
X0.988 Z-1.02
X0.965 Z-0.953
X0.957 Z-0.883
Z3.
X60.705 Y193.258
Z2.5
Z2.317 F200.
G3 X60.404 Z2. I-0.318 K0. F500.
G1 X6.5 Z-0.825
G2 X1.913 Y197.795 Z-1.2 I0. J4.587
G1 Y197.846 F600.
Y209.846
G2 X6.5 Y214.434 I4.587 J0.
G1 X80.5
G2 X85.088 Y209.846 I0. J-4.588
G1 Y197.846
G2 X80.5 Y193.258 I-4.588 J0.
G1 X6.5
G2 X1.913 Y197.795 I0. J4.587
G3 X1.592 Y198.109 I-0.317 J-0.004
G1 X1.274 Y198.106
X1.204 Y198.105 Z-1.192
X1.137 Y198.104 Z-1.169
X1.076 Y198.103 Z-1.131
X1.026 Z-1.08
X0.988 Y198.102 Z-1.02
X0.965 Z-0.953
X0.957 Z-0.883
Z3.
X60.702 Y171.721
Z2.5
Z2.317 F200.
G3 X60.401 Z2. I-0.318 K0. F500.
G1 X6.5 Z-0.825
G2 X1.913 Y176.26 Z-1.2 I0. J4.587
G1 Y176.308 F600.
Y188.308
G2 X6.5 Y192.895 I4.587 J0.
G1 X80.5
G2 X85.088 Y188.308 I0. J-4.587
G1 Y176.308
G2 X80.5 Y171.721 I-4.588 J0.
G1 X6.5
G2 X1.913 Y176.26 I0. J4.587
G3 X1.592 Y176.575 I-0.317 J-0.003
G1 X1.274 Y176.571
X1.204 Z-1.192
X1.137 Y176.57 Z-1.169
X1.077 Y176.569 Z-1.131
X1.026 Z-1.08
X0.988 Y176.568 Z-1.02
X0.965 Z-0.953
X0.957 Z-0.883
Z3.
X60.713 Y236.335
Z2.5
Z2.317 F200.
G3 X60.412 Z2. I-0.318 K0. F500.
G1 X6.5 Z-0.825
G2 X1.913 Y240.865 Z-1.2 I0. J4.588
G1 Y240.923 F600.
Y252.923
G2 X6.5 Y257.51 I4.587 J0.
G1 X80.5
G2 X85.088 Y252.923 I0. J-4.587
G1 Y240.923
G2 X80.5 Y236.335 I-4.588 J0.
G1 X6.5
G2 X1.913 Y240.865 I0. J4.588
G3 X1.591 Y241.178 I-0.317 J-0.004
G1 X1.274 Y241.174
X1.203 Y241.173 Z-1.192
X1.136 Y241.172 Z-1.169
X1.076 Y241.171 Z-1.131
X1.026 Z-1.08
X0.988 Y241.17 Z-1.02
X0.964 Z-0.953
X0.956 Z-0.883
Z3.
X60.717 Y257.875
Z2.5
Z2.317 F200.
G3 X60.416 Z2. I-0.318 K0. F500.
G1 X6.5 Z-0.826
G2 X1.913 Y262.399 Z-1.2 I0. J4.587
G1 Y262.462 F600.
Y274.462
G2 X6.5 Y279.049 I4.587 J0.
G1 X80.5
G2 X85.088 Y274.462 I0. J-4.587
G1 Y262.462
G2 X80.5 Y257.875 I-4.588 J0.
G1 X6.5
G2 X1.913 Y262.399 I0. J4.587
G3 X1.591 Y262.712 I-0.317 J-0.004
G1 X1.274 Y262.708
X1.203 Y262.707 Z-1.192
X1.136 Y262.706 Z-1.169
X1.076 Y262.705 Z-1.131
X1.025 Z-1.08
X0.988 Y262.704 Z-1.02
X0.964 Z-0.953
X0.956 Z-0.883
Z3.
X19.187 Y301.54
Z2.5
Z2.318 F200.
G2 Y301.223 Z2. J-0.318 K0. F750.
G0 Y300.905
G3 X19.505 Y300.587 I0.317 J0.
G1 X80.5 Z-1.197 F500.
X80.532 Z-1.198
X80.564 Z-1.2
G2 X85.088 Y296. I-0.064 J-4.587 F600.
G1 Y284.
G2 X80.5 Y279.413 I-4.588 J0.
G1 X6.5
G2 X1.913 Y284. I0. J4.587
G1 Y296.
G2 X6.5 Y300.587 I4.587 J0.
G1 X80.5
X80.532
X80.564
G3 X80.886 Y300.9 I0.004 J0.317
G1 X80.891 Y301.218
X80.892 Y301.288 Z-1.192
X80.893 Y301.355 Z-1.169
Y301.415 Z-1.131
X80.894 Y301.466 Z-1.08
X80.895 Y301.504 Z-1.02
Y301.527 Z-0.953
Y301.535 Z-0.883
Z3.
X126.623 Y279.049
Z2.5
Z2.317 F200.
G2 X126.924 Z2. I0.317 K0. F500.
G1 X165.5 Z-0.022
G2 X170.087 Y274.462 Z-0.399 I0. J-4.587
G1 Y262.462 Z-1.028
G2 X168.966 Y259.456 Z-1.2 I-4.587 J0.
X165.5 Y257.875 I-3.466 J3.006 F600.
G1 X91.5
G2 X86.912 Y262.462 I0. J4.587
G1 Y274.462
G2 X91.5 Y279.049 I4.588 J0.
G1 X165.5
G2 X170.087 Y274.462 I0. J-4.587
G1 Y262.462
G2 X168.966 Y259.456 I-4.587 J0.
G3 X168.998 Y259.009 I0.24 J-0.208
G1 X169.238 Y258.801
X169.291 Y258.754 Z-1.192
X169.342 Y258.71 Z-1.169
X169.387 Y258.671 Z-1.131
X169.425 Y258.638 Z-1.08
X169.454 Y258.613 Z-1.02
X169.471 Y258.598 Z-0.953
X169.477 Y258.593 Z-0.883
Z3.
X130.377 Y236.335
Z2.5
Z2.317 F200.
G3 X130.076 Z2. I-0.318 K0. F500.
G1 X91.5 Z-0.022
G2 X86.912 Y240.923 Z-0.399 I0. J4.588
G1 Y252.923 Z-1.028
G2 X88.034 Y255.929 Z-1.2 I4.588 J0.
X91.5 Y257.51 I3.466 J-3.006 F600.
G1 X165.5
G2 X170.087 Y252.923 I0. J-4.587
G1 Y240.923
G2 X165.5 Y236.335 I-4.587 J0.
G1 X91.5
G2 X86.912 Y240.923 I0. J4.588
G1 Y252.923
G2 X88.034 Y255.929 I4.588 J0.
G3 X88.002 Y256.376 I-0.24 J0.208
G1 X87.762 Y256.584
X87.709 Y256.631 Z-1.192
X87.658 Y256.675 Z-1.169
X87.613 Y256.714 Z-1.131
X87.575 Y256.747 Z-1.08
X87.546 Y256.772 Z-1.02
X87.529 Y256.787 Z-0.953
X87.523 Y256.792 Z-0.883
Z3.
X108.068 Y214.434
Z2.5
Z2.317 F200.
G2 X108.369 Z2. I0.317 K0. F500.
G1 X165.5 Z-0.994
G2 X168.966 Y212.852 Z-1.2 I0. J-4.588
X170.087 Y209.846 I-3.466 J-3.006 F600.
G1 Y197.846
G2 X165.5 Y193.258 I-4.587 J0.
G1 X91.5
G2 X86.912 Y197.846 I0. J4.587
G1 Y209.846
G2 X91.5 Y214.434 I4.588 J0.
G1 X165.5
G2 X168.966 Y212.852 I0. J-4.588
G3 X169.414 Y212.82 I0.24 J0.208
G1 X169.654 Y213.028
X169.707 Y213.074 Z-1.192
X169.758 Y213.118 Z-1.169
X169.803 Y213.157 Z-1.131
X169.841 Y213.19 Z-1.08
X169.87 Y213.215 Z-1.02
X169.887 Y213.23 Z-0.953
X169.893 Y213.236 Z-0.883
Z3.
X215.377 Y236.335
Z2.5
Z2.317 F200.
G3 X215.076 Z2. I-0.318 K0. F500.
G1 X176.5 Z-0.022
G2 X171.913 Y240.923 Z-0.399 I0. J4.588
G1 Y252.923 Z-1.028
G2 X173.034 Y255.929 Z-1.2 I4.587 J0.
X176.5 Y257.51 I3.466 J-3.006 F600.
G1 X250.5
G2 X255.087 Y252.923 I0. J-4.587
G1 Y240.923
G2 X250.5 Y236.335 I-4.587 J0.
G1 X176.5
G2 X171.913 Y240.923 I0. J4.588
G1 Y252.923
G2 X173.034 Y255.929 I4.587 J0.
G3 X173.002 Y256.376 I-0.24 J0.208
G1 X172.762 Y256.584
X172.709 Y256.631 Z-1.192
X172.658 Y256.675 Z-1.169
X172.613 Y256.714 Z-1.131
X172.575 Y256.747 Z-1.08
X172.546 Y256.772 Z-1.02
X172.529 Y256.787 Z-0.953
X172.523 Y256.792 Z-0.883
Z3.
X233.932 Y257.875
Z2.5
Z2.317 F200.
G3 X233.631 Z2. I-0.318 K0. F500.
G1 X176.5 Z-0.994
G2 X173.034 Y259.456 Z-1.2 I0. J4.587
X171.913 Y262.462 I3.466 J3.006 F600.
G1 Y274.462
G2 X176.5 Y279.049 I4.587 J0.
G1 X250.5
G2 X255.087 Y274.462 I0. J-4.587
G1 Y262.462
G2 X250.5 Y257.875 I-4.587 J0.
G1 X176.5
G2 X173.034 Y259.456 I0. J4.587
G3 X172.586 Y259.488 I-0.24 J-0.208
G1 X172.346 Y259.28
X172.293 Y259.234 Z-1.192
X172.242 Y259.19 Z-1.169
X172.197 Y259.151 Z-1.131
X172.159 Y259.118 Z-1.08
X172.13 Y259.093 Z-1.02
X172.113 Y259.078 Z-0.953
X172.107 Y259.072 Z-0.883
Z3.
X211.504 Y279.413
Z2.5
Z2.317 F200.
G3 X211.203 Z2. I-0.318 K0. F500.
G1 X176.5 Z0.181
G2 X171.913 Y284. Z-0.196 I0. J4.587
G1 Y296. Z-0.825
G2 X176.444 Y300.587 Z-1.2 I4.587 J0.
G1 X176.5 F600.
X250.5
G2 X255.087 Y296. I0. J-4.587
G1 Y284.
G2 X250.5 Y279.413 I-4.587 J0.
G1 X176.5
G2 X171.913 Y284. I0. J4.587
G1 Y296.
G2 X176.444 Y300.587 I4.587 J0.
G3 X176.758 Y300.909 I-0.004 J0.317
G1 X176.754 Y301.226
X176.753 Y301.297 Z-1.192
X176.752 Y301.364 Z-1.169
X176.751 Y301.424 Z-1.131
Y301.474 Z-1.08
X176.75 Y301.512 Z-1.02
Y301.535 Z-0.953
Y301.543 Z-0.883
Z3.
X255.615 Y244.057
Z2.5
Z2.317 F200.
G3 Y244.358 Z2. J0.317 K0. F500.
G1 Y295.788 Z-0.695
G2 X260.52 Y300.693 Z-1.099 I4.905 J0.
G1 X262.445 Z-1.2
X272.52 F600.
G2 X277.425 Y295.788 I0. J-4.905
G1 Y221.788
G2 X272.52 Y216.883 I-4.905 J0.
G1 X260.52
G2 X255.615 Y221.788 I0. J4.905
G1 Y295.788
G2 X260.52 Y300.693 I4.905 J0.
G1 X262.445
G2 X262.683 Y300.534 I0. J-0.258
G3 X262.921 Y300.375 I0.238 J0.099
G1 X272.52
G2 X277.108 Y295.788 I0. J-4.587
G1 Y221.788
G2 X272.52 Y217.201 I-4.588 J0.
G1 X260.52
G2 X255.932 Y221.788 I0. J4.587
G1 Y295.788
G2 X260.52 Y300.375 I4.587 J0.
G1 X262.921
G3 X263.239 Y300.693 I0. J0.318
G1 Y301.01
G3 Y301.328 Z-0.883 J0. K0.318
G1 Z3.
X300.378 Y283.098
Z2.5
Z2.318 F200.
G3 X300.06 Z2. I-0.318 K0. F750.
G0 X299.742
G3 X299.425 Y282.78 I0. J-0.318
G1 Y221.788 Z-1.196 F500.
Y221.754 Z-1.198
Y221.72 Z-1.2
G2 X294.52 Y216.883 I-4.905 J0.068 F600.
G1 X282.52
G2 X277.615 Y221.788 I0. J4.905
G1 Y295.788
G2 X282.52 Y300.693 I4.905 J0.
G1 X294.52
G2 X299.425 Y295.788 I0. J-4.905
G1 Y221.788
Y221.754
Y221.72
G2 X299.256 Y221.481 I-0.26 J0.004
G3 X299.076 Y221.25 I0.1 J-0.264
G2 X294.52 Y217.201 I-4.556 J0.538
G1 X282.52
G2 X277.932 Y221.788 I0. J4.587
G1 Y295.788
G2 X282.52 Y300.375 I4.587 J0.
G1 X294.52
G2 X299.108 Y295.788 I0. J-4.587
G1 Y221.788
G2 X299.076 Y221.25 I-4.588 J0.
G3 X299.354 Y220.897 I0.315 J-0.037
G1 X299.669 Y220.86
X299.739 Y220.852 Z-1.192
X299.806 Y220.844 Z-1.169
X299.866 Y220.837 Z-1.131
X299.916 Y220.831 Z-1.08
X299.953 Y220.826 Z-1.02
X299.977 Y220.824 Z-0.953
X299.984 Y220.823 Z-0.883
Z3.
X215.377 Y107.104
Z2.5
Z2.317 F200.
G3 X215.076 Z2. I-0.318 K0. F500.
G1 X176.5 Z-0.022
G2 X171.913 Y111.692 Z-0.399 I0. J4.588
G1 Y123.692 Z-1.028
G2 X173.034 Y126.698 Z-1.2 I4.587 J0.
X176.5 Y128.279 I3.466 J-3.006 F600.
G1 X250.5
G2 X255.087 Y123.692 I0. J-4.587
G1 Y111.692
G2 X250.5 Y107.104 I-4.587 J0.
G1 X176.5
G2 X171.913 Y111.692 I0. J4.588
G1 Y123.692
G2 X173.034 Y126.698 I4.587 J0.
G3 X173.002 Y127.145 I-0.24 J0.208
G1 X172.762 Y127.353
X172.709 Y127.4 Z-1.192
X172.658 Y127.444 Z-1.169
X172.613 Y127.483 Z-1.131
X172.575 Y127.516 Z-1.08
X172.546 Y127.541 Z-1.02
X172.529 Y127.556 Z-0.953
X172.523 Y127.561 Z-0.883
Z7.

M5
G91 Z0.
G90
G91 X0. Y0.
G90
M30
