(1005)
(T3 D=6. CR=0. TAPER=15DEG - ZMIN=0. - CHAMFER MILL)
G90 G94 G91.1 G40 G49 G17
G21
(WHEN USING FUSION FOR PERSONAL USE, THE FEEDRATE OF RAPID)
(MOVES IS REDUCED TO MATCH THE FEEDRATE OF CUTTING MOVES,)
(WHICH CAN INCREASE MACHINING TIME. UNRESTRICTED RAPID MOVES)
(ARE AVAILABLE WITH A FUSION SUBSCRIPTION.)
G28 G91 Z0.
G90

(TAG5)
T3 M6
S20000 M3
G17 G90 G94
G54
G0 X17.692 Y149.456
G43 Z15. H3
G1 Z5. F600.
Z0. F200.
X17.211 Y149.497 F600.
X16.974 Y149.532
X16.742 Y149.584
X16.515 Y149.655
X16.292 Y149.743
X15.854 Y149.946
X15.398 Y150.225
X15.176 Y150.371
X14.96 Y150.526
X14.751 Y150.691
X14.549 Y150.864
X14.154 Y151.224
X13.758 Y151.64
X13.378 Y152.069
X13.026 Y152.521
X12.689 Y152.986
X12.384 Y153.457
X12.092 Y153.935
X11.823 Y154.427
X11.57 Y154.928
X10.981 Y154.868
X10.395 Y154.776
X9.82 Y154.65
X9.255 Y154.479
X9.011 Y154.385
X8.771 Y154.28
X8.541 Y154.157
X8.316 Y154.023
X8.14 Y153.892
X7.98 Y153.747
X7.846 Y153.578
X7.728 Y153.394
X7.698 Y153.36
X7.667 Y153.349
X7.636 Y153.37
X7.604 Y153.408
X7.575 Y153.491
X7.566 Y153.574
X7.585 Y153.656
X7.618 Y153.739
X7.721 Y153.94
X7.842 Y154.126
X7.991 Y154.291
X8.157 Y154.444
X8.369 Y154.602
X8.587 Y154.747
X8.818 Y154.874
X9.055 Y154.99
X9.6 Y155.204
X10.16 Y155.37
X10.744 Y155.497
X11.335 Y155.577
X11.21 Y155.999
X11.114 Y156.427
X11.04 Y156.844
X10.976 Y157.263
X10.556 Y157.49
X10.126 Y157.699
X9.701 Y157.884
X9.269 Y158.051
X8.868 Y158.186
X8.461 Y158.3
X8.117 Y158.378
X7.77 Y158.438
X7.746 Y158.486
X7.751 Y158.53
X7.784 Y158.571
X7.832 Y158.611
X7.921 Y158.682
X8.015 Y158.743
X8.118 Y158.789
X8.226 Y158.825
X8.212
X8.511 Y158.819
X8.807 Y158.789
X9.098 Y158.726
X9.387 Y158.645
X9.784 Y158.514
X10.177 Y158.373
X10.948 Y158.051
X10.955 Y158.424
X10.976 Y158.756
X11.017 Y158.818
X11.045 Y158.846
X11.08 Y158.866
X11.111 Y158.873
X11.142 Y158.866
X11.166 Y158.829
X11.169 Y158.783
X11.176 Y158.341
X11.197 Y157.913
X11.669 Y157.684
X12.136 Y157.447
X12.595 Y157.194
X13.049 Y156.932
X13.902 Y156.41
X14.741 Y155.868
X15.389 Y155.424
X16.02 Y154.956
X16.338 Y154.701
X16.486 Y154.563
X16.628 Y154.417
Y154.43
X16.69 Y154.14
X16.787 Y153.691
X16.863 Y153.311
X16.888 Y153.227
X16.889 Y153.208
X16.877 Y153.214
X16.606 Y153.464
X16.317 Y153.691
X15.668 Y154.188
X15.011 Y154.672
X14.139 Y155.292
X13.256 Y155.895
X12.307 Y156.508
X11.335 Y157.084
X11.558 Y156.383
X11.819 Y155.695
X11.984 Y155.31
X12.16 Y154.93
X12.351 Y154.557
X12.551 Y154.189
X12.775 Y153.815
X13.007 Y153.447
X13.255 Y153.089
X13.512 Y152.738
X13.781 Y152.406
X14.063 Y152.085
X14.365 Y151.784
X14.679 Y151.494
X15. Y151.242
X15.331 Y151.008
X15.683 Y150.806
X16.048 Y150.623
X16.426 Y150.485
X16.617 Y150.426
X16.811 Y150.378
X17.008 Y150.345
X17.207 Y150.323
X17.609 Y150.299
X17.841 Y150.323
X17.951 Y150.347
X18.055 Y150.384
X18.15 Y150.439
X18.239 Y150.508
X18.404 Y150.672
X18.526 Y150.905
X18.577 Y151.024
X18.617 Y151.147
X18.643 Y151.273
X18.659 Y151.403
X18.673 Y151.667
X18.645 Y152.03
X18.593 Y152.389
X18.505 Y152.742
X18.397 Y153.09
X18.225 Y153.52
X18.033 Y153.941
X17.809 Y154.346
X17.568 Y154.741
X17.257 Y155.182
X16.93 Y155.609
X16.576 Y156.014
X16.206 Y156.407
X15.77 Y156.81
X15.546 Y157.005
X15.316 Y157.191
X15.078 Y157.367
X14.833 Y157.535
X14.334 Y157.858
X14.33 Y157.9
X14.361 Y157.934
X14.441 Y157.986
X14.527 Y158.023
X14.657 Y158.06
X14.79 Y158.079
X14.957 Y158.078
X15.122 Y158.051
X15.566 Y157.893
X15.781 Y157.801
X15.986 Y157.693
X16.182 Y157.568
X16.37 Y157.428
X16.732 Y157.125
X17.09 Y156.747
X17.263 Y156.552
X17.426 Y156.351
X17.578 Y156.141
X17.722 Y155.925
X17.996 Y155.481
X18.241 Y155.001
X18.465 Y154.513
X18.652 Y154.01
X18.818 Y153.498
X18.938 Y153.019
X19.034 Y152.537
X19.066 Y152.293
X19.088 Y152.048
X19.115 Y151.556
X19.095 Y151.146
X19.032 Y150.741
X18.987 Y150.565
X18.931 Y150.394
X18.856 Y150.23
X18.77 Y150.071
X18.677 Y149.941
X18.574 Y149.821
X18.455 Y149.716
X18.328 Y149.621
X18.177 Y149.548
X18.022 Y149.493
X17.859 Y149.466
X17.692 Y149.456
Z5.
X12.648 Y149.691
Z0. F200.
X12.631 Y149.865 F600.
X12.598 Y150.034
X12.538 Y150.196
X12.461 Y150.354
X12.236 Y150.694
X11.971 Y151.003
X11.64 Y151.314
X11.28 Y151.591
X10.891 Y151.843
X10.485 Y152.067
X10.095 Y152.247
X9.691 Y152.392
X9.356 Y152.475
X9.186 Y152.498
X9.014 Y152.51
X8.83 Y152.493
X8.654 Y152.441
X8.574 Y152.39
X8.506 Y152.329
X8.457 Y152.251
X8.419 Y152.164
X8.392 Y152.136
X8.405
X8.392 Y152.109
X8.378 Y151.805
X8.399 Y151.625
X8.454 Y151.452
X8.539 Y151.269
X8.64 Y151.093
X8.753 Y150.927
X8.875 Y150.768
X9.096 Y150.52
X9.178 Y150.281
X9.275 Y150.049
X9.397 Y149.828
X9.532 Y149.614
X9.86 Y149.179
X10.223 Y148.772
X10.599 Y148.401
X10.997 Y148.053
X11.667 Y147.521
X11.692 Y147.52
X11.708 Y147.531
X11.715 Y147.583
X11.716 Y147.644
X11.694 Y147.701
X11.025 Y148.256
X10.382 Y148.841
X10.083 Y149.158
X9.941 Y149.322
X9.809 Y149.493
X9.689 Y149.672
X9.578 Y149.859
X9.373 Y150.243
X9.96 Y149.808
X10.264 Y149.606
X10.582 Y149.428
X10.911 Y149.278
X11.252 Y149.158
X11.433 Y149.114
X11.615 Y149.08
X11.985 Y149.055
X12.12 Y149.06
X12.251 Y149.081
X12.373 Y149.131
X12.489 Y149.2
X12.565 Y149.31
X12.619 Y149.427
X12.642 Y149.556
X12.648 Y149.691
Z5.
X11.612 Y147.781
Z0. F200.
X11.252 Y148.094 F600.
X10.865 Y148.385
X10.458 Y148.647
X10.069 Y148.856
X9.663 Y149.027
X9.498 Y149.081
X9.33 Y149.125
X9.159 Y149.151
X8.986 Y149.165
X8.739 Y149.117
X8.633 Y149.076
X8.548 Y149.014
X8.488 Y148.927
X8.449 Y148.82
X8.405 Y148.571
X8.421 Y148.458
X8.448 Y148.349
X8.544 Y148.143
X8.698 Y147.888
X8.868 Y147.645
X9.056 Y147.406
X9.255 Y147.175
X9.566 Y146.83
X9.278 Y146.939
X8.986 Y147.037
X8.696 Y147.146
X8.419 Y147.286
X8.323 Y147.535
X8.177 Y147.873
X8.032 Y148.198
X7.949 Y148.392
X7.725 Y148.842
X7.48 Y149.283
X7.343 Y149.498
X7.197 Y149.706
X7.036 Y149.902
X6.865 Y150.091
X6.683 Y150.259
X6.492 Y150.415
X6.285 Y150.549
X6.07 Y150.672
X5.83 Y150.767
X5.586 Y150.841
X5.333 Y150.877
X5.075 Y150.893
X4.879 Y150.877
X4.785 Y150.862
X4.694 Y150.836
X4.608 Y150.798
X4.526 Y150.748
X4.37 Y150.63
X4.259 Y150.468
X4.212 Y150.384
X4.176 Y150.296
X4.136 Y150.108
X4.122 Y149.912
X4.143 Y149.712
X4.186 Y149.52
X4.264 Y149.34
X4.363 Y149.165
X4.503 Y148.979
X4.652 Y148.8
X4.814 Y148.633
X4.985 Y148.474
X5.403 Y148.144
X5.849 Y147.853
X6.328 Y147.575
X6.816 Y147.314
X7.279 Y147.085
X7.749 Y146.871
X8.502 Y146.554
X8.829 Y146.114
X9.175 Y145.691
X9.554 Y145.298
X9.953 Y144.923
X10.8 Y144.213
X11.667 Y143.527
X11.681 Y143.569
X11.664 Y143.677
X11.636 Y143.722
X11.598 Y143.762
X10.14 Y145.027
X9.799 Y145.34
X9.471 Y145.666
X9.166 Y146.014
X8.875 Y146.374
X9.718 Y146.028
X10.824 Y145.559
X11.895 Y145.068
X12.28 Y144.873
X12.648 Y144.647
X12.701 Y144.83
X12.717 Y145.02
X12.713 Y145.117
X12.696 Y145.213
X12.673 Y145.27
X12.634 Y145.317
X12.524 Y145.379
X12.358 Y145.462
X12.483 Y145.581
X12.528 Y145.653
X12.565 Y145.731
X12.607 Y145.898
X12.62 Y146.07
X12.602 Y146.245
X12.568 Y146.416
X12.508 Y146.58
X12.434 Y146.74
X12.209 Y147.103
X11.943 Y147.438
X11.612 Y147.781
Z5.
X11.971 Y143.541
Z0. F200.
X12.236 Y143.232 F600.
X12.461 Y142.892
X12.538 Y142.734
X12.598 Y142.572
X12.631 Y142.402
X12.648 Y142.228
X12.642 Y142.094
X12.619 Y141.965
X12.565 Y141.847
X12.489 Y141.738
X12.373 Y141.668
X12.251 Y141.619
X12.12 Y141.598
X11.985 Y141.593
X11.615 Y141.617
X11.433 Y141.652
X11.252 Y141.696
X10.911 Y141.816
X10.582 Y141.966
X10.264 Y142.144
X9.96 Y142.346
X9.373 Y142.781
X9.578 Y142.396
X9.689 Y142.21
X9.809 Y142.031
X9.941 Y141.86
X10.083 Y141.695
X10.382 Y141.378
X11.025 Y140.794
X11.694 Y140.238
X11.716 Y140.182
X11.715 Y140.121
X11.708 Y140.069
X11.692 Y140.058
X11.667 Y140.059
X10.997 Y140.591
X10.599 Y140.939
X10.223 Y141.309
X9.86 Y141.717
X9.532 Y142.152
X9.397 Y142.366
X9.275 Y142.586
X9.178 Y142.818
X9.096 Y143.057
X8.875 Y143.306
X8.753 Y143.465
X8.64 Y143.631
X8.539 Y143.806
X8.454 Y143.99
X8.399 Y144.163
X8.378 Y144.343
X8.392 Y144.647
X8.405 Y144.674
X8.392
X8.419 Y144.702
X8.457 Y144.789
X8.506 Y144.867
X8.574 Y144.928
X8.654 Y144.978
X8.83 Y145.031
X9.014 Y145.047
X9.186 Y145.035
X9.356 Y145.013
X9.691 Y144.93
X10.095 Y144.785
X10.485 Y144.605
X10.891 Y144.38
X11.28 Y144.128
X11.64 Y143.852
X11.971 Y143.541
Z5.
X12.152 Y142.015
Z0. F200.
X12.358 Y141.993 F600.
X12.439 Y142.008
X12.503 Y142.042
X12.536 Y142.105
X12.551 Y142.187
X12.514 Y142.349
X12.488 Y142.427
X12.453 Y142.499
X12.356 Y142.631
X12.24 Y142.753
X12.066 Y142.909
X11.887 Y143.057
X11.501 Y143.32
X11.078 Y143.556
X10.637 Y143.755
X10.471 Y143.818
X10.302 Y143.872
X10.129 Y143.906
X9.953 Y143.928
X9.838 Y143.915
X9.728 Y143.887
X9.627 Y143.835
X9.532 Y143.769
X9.445 Y143.68
X9.369 Y143.584
X9.31 Y143.476
X9.262 Y143.361
X9.424 Y143.227
X9.601 Y143.113
X9.861 Y142.963
X10.126 Y142.822
X10.748 Y142.525
X11.384 Y142.256
X11.664 Y142.151
X11.95 Y142.062
X12.152 Y142.015
Z5.
X9.891 Y144.117
Z0. F200.
X10.052 Y144.114 F600.
X10.216 Y144.094
X9.628 Y144.32
X9.475 Y144.372
X9.32 Y144.415
X9.161 Y144.44
X9. Y144.453
X8.87 Y144.443
X8.744 Y144.412
X8.69 Y144.376
X8.651 Y144.331
X8.633 Y144.273
X8.627 Y144.208
X8.646 Y144.099
X8.68 Y143.997
X8.737 Y143.906
X8.806 Y143.82
X9.11 Y143.486
X9.19 Y143.657
X9.287 Y143.813
X9.348 Y143.88
X9.418 Y143.939
X9.573 Y144.045
X9.731 Y144.091
X9.891 Y144.117
Z5.
X10.593 Y146.419
Z0. F200.
X10.977 Y146.216 F600.
X11.373 Y146.039
X11.777 Y145.876
X11.886 Y145.844
X11.998 Y145.828
X12.233 Y145.821
X12.313 Y145.835
X12.385 Y145.87
X12.446 Y145.924
X12.468 Y146.001
X12.443 Y146.132
X12.401 Y146.256
X12.334 Y146.37
X12.254 Y146.478
X11.992 Y146.768
X11.701 Y147.03
X11.332 Y147.32
X10.948 Y147.59
X10.546 Y147.847
X10.133 Y148.087
X9.772 Y148.275
X9.4 Y148.44
X9.157 Y148.526
X8.903 Y148.571
X8.805 Y148.56
X8.762 Y148.547
X8.725 Y148.527
X8.698 Y148.497
X8.679 Y148.457
X8.654 Y148.364
X8.693 Y148.211
X8.772 Y148.074
X8.958 Y147.797
X9.235 Y147.466
X9.38 Y147.308
X9.532 Y147.157
X9.694 Y147.017
X9.864 Y146.886
X10.216 Y146.636
X10.593 Y146.419
Z5.
X12.358 Y149.456
Z0. F200.
X12.439 Y149.471 F600.
X12.503 Y149.504
X12.536 Y149.567
X12.551 Y149.649
X12.514 Y149.812
X12.488 Y149.889
X12.453 Y149.962
X12.356 Y150.093
X12.24 Y150.216
X12.066 Y150.372
X11.887 Y150.52
X11.501 Y150.782
X11.078 Y151.018
X10.637 Y151.218
X10.471 Y151.281
X10.302 Y151.334
X10.129 Y151.369
X9.953 Y151.39
X9.838 Y151.377
X9.728 Y151.35
X9.627 Y151.298
X9.532 Y151.231
X9.445 Y151.142
X9.369 Y151.046
X9.31 Y150.938
X9.262 Y150.824
X9.424 Y150.69
X9.601 Y150.575
X9.861 Y150.425
X10.126 Y150.285
X10.748 Y149.988
X11.384 Y149.718
X11.664 Y149.613
X11.95 Y149.525
X12.152 Y149.477
X12.358 Y149.456
Z5.
X9.891 Y151.58
Z0. F200.
X10.052 Y151.576 F600.
X10.216 Y151.556
X9.628 Y151.782
X9.475 Y151.835
X9.32 Y151.877
X9.161 Y151.902
X9. Y151.915
X8.87 Y151.906
X8.744 Y151.874
X8.69 Y151.839
X8.651 Y151.794
X8.633 Y151.736
X8.627 Y151.67
X8.646 Y151.562
X8.68 Y151.46
X8.737 Y151.368
X8.806 Y151.282
X9.11 Y150.948
X9.19 Y151.12
X9.287 Y151.275
X9.348 Y151.342
X9.418 Y151.402
X9.573 Y151.508
X9.731 Y151.553
X9.891 Y151.58
Z5.
X6.961 Y149.58
Z0. F200.
X6.775 Y149.805 F600.
X6.576 Y150.018
X6.357 Y150.209
X6.125 Y150.388
X5.873 Y150.528
X5.745 Y150.587
X5.612 Y150.635
X5.475 Y150.668
X5.334 Y150.689
X5.047 Y150.713
X4.943 Y150.705
X4.84 Y150.685
X4.718 Y150.645
X4.605 Y150.582
X4.498 Y150.488
X4.412 Y150.375
X4.374 Y150.294
X4.346 Y150.211
X4.329 Y150.036
X4.378 Y149.793
X4.414 Y149.678
X4.465 Y149.571
X4.531 Y149.471
X4.609 Y149.377
X4.785 Y149.2
X5.04 Y148.991
X5.303 Y148.793
X5.579 Y148.615
X5.863 Y148.447
X6.48 Y148.125
X7.113 Y147.839
X8.101 Y147.424
X7.858 Y147.972
X7.604 Y148.516
X7.462 Y148.793
X7.31 Y149.064
X7.141 Y149.325
X6.961 Y149.58
Z5.
X7.751 Y136.057
Z0. F200.
X7.878 Y136.076 F600.
X8.007 Y136.081
X8.249 Y136.07
X8.343 Y136.054
X8.433 Y136.024
X8.592 Y135.935
X8.762 Y135.796
X10.603 Y134.005
X11.158 Y133.489
X11.448 Y133.245
X11.745 Y133.01
X12.193 Y132.7
X12.666 Y132.432
X13.035 Y132.273
X13.226 Y132.214
X13.421 Y132.164
X13.738 Y132.117
X14.058 Y132.1
X14.344 Y132.125
X14.622 Y132.2
X14.749 Y132.256
X14.87 Y132.321
X14.983 Y132.401
X15.089 Y132.489
X15.187 Y132.596
X15.274 Y132.71
X15.345 Y132.834
X15.408 Y132.964
X15.46 Y133.125
X15.499 Y133.287
X15.518 Y133.453
X15.526 Y133.622
X15.518 Y133.821
X15.499 Y134.018
X15.46 Y134.212
X15.408 Y134.404
X15.292 Y134.713
X15.152 Y135.011
X15.029 Y135.232
X14.896 Y135.447
X14.82 Y135.57
X14.778 Y135.708
X14.785 Y135.754
X14.806 Y135.797
X14.846 Y135.835
X14.896 Y135.861
X14.977 Y135.886
X15.062 Y135.9
X15.311 Y135.915
X15.491 Y135.908
X15.622 Y135.884
X15.726 Y135.839
X15.791 Y135.788
X15.847 Y135.728
X15.951 Y135.588
X16.045 Y135.441
X16.178 Y135.19
X16.291 Y134.928
X16.406 Y134.593
X16.495 Y134.25
X16.558 Y133.863
X16.578 Y133.471
X16.567 Y133.18
X16.537 Y132.893
X16.476 Y132.611
X16.394 Y132.332
X16.298 Y132.111
X16.186 Y131.9
X16.048 Y131.706
X15.892 Y131.522
X15.725 Y131.374
X15.548 Y131.241
X15.355 Y131.133
X15.152 Y131.041
X14.932 Y130.973
X14.709 Y130.92
X14.482 Y130.893
X14.252 Y130.882
X13.823 Y130.901
X13.397 Y130.958
X13.159 Y131.016
X12.925 Y131.086
X12.698 Y131.177
X12.476 Y131.28
X12.189 Y131.439
X11.909 Y131.609
X11.639 Y131.794
X11.375 Y131.989
X11.014 Y132.283
X10.66 Y132.585
X9.98 Y133.222
X8.499 Y134.641
Y130.743
X8.49 Y130.687
X8.467 Y130.636
X8.426 Y130.585
X8.374 Y130.546
X8.299 Y130.511
X8.218 Y130.491
X8. Y130.473
X7.779 Y130.491
X7.696 Y130.509
X7.616 Y130.539
X7.561 Y130.573
X7.519 Y130.622
X7.495 Y130.677
X7.488 Y130.736
Y135.686
X7.493 Y135.772
X7.512 Y135.856
X7.544 Y135.923
X7.592 Y135.981
X7.666 Y136.029
X7.751 Y136.057
Z5.
X8.887 Y128.707
Z0. F200.
X9.062 Y128.784 F600.
X9.24 Y128.852
X9.608 Y128.956
X9.984 Y129.037
X10.472 Y129.103
X10.962 Y129.153
X11.453 Y129.177
X11.946 Y129.186
X12.419 Y129.175
X12.89 Y129.147
X13.359 Y129.092
X13.826 Y129.019
X14.209 Y128.929
X14.584 Y128.815
X14.766 Y128.742
X14.944 Y128.66
X15.294 Y128.479
X15.575 Y128.277
X15.709 Y128.168
X15.833 Y128.051
X15.946 Y127.923
X16.05 Y127.785
X16.242 Y127.496
X16.392 Y127.138
X16.456 Y126.956
X16.505 Y126.771
X16.538 Y126.582
X16.558 Y126.39
X16.578 Y126.001
X16.561 Y125.631
X16.543 Y125.448
X16.513 Y125.267
X16.469 Y125.09
X16.412 Y124.915
X16.277 Y124.571
X16.1 Y124.296
X16.004 Y124.165
X15.899 Y124.044
X15.783 Y123.933
X15.657 Y123.83
X15.391 Y123.64
X15.047 Y123.468
X14.872 Y123.39
X14.694 Y123.323
X14.326 Y123.219
X13.95 Y123.138
X13.462 Y123.072
X12.972 Y123.022
X12.481 Y122.998
X11.988 Y122.989
X11.514 Y123.
X11.042 Y123.026
X10.573 Y123.081
X10.105 Y123.152
X9.722 Y123.242
X9.348 Y123.355
X9.167 Y123.428
X8.989 Y123.511
X8.641 Y123.692
X8.359 Y123.896
X8.225 Y124.005
X8.101 Y124.123
X7.988 Y124.252
X7.884 Y124.389
X7.692 Y124.679
X7.541 Y125.039
X7.478 Y125.222
X7.429 Y125.408
X7.396 Y125.598
X7.376 Y125.79
X7.356 Y126.181
X7.374 Y126.549
X7.392 Y126.731
X7.421 Y126.911
X7.465 Y127.088
X7.522 Y127.261
X7.657 Y127.604
X7.834 Y127.879
X7.93 Y128.01
X8.035 Y128.131
X8.152 Y128.242
X8.277 Y128.344
X8.544 Y128.535
X8.887 Y128.707
Z5.
X11.905 Y124.208
Z0. F200.
X12.508 Y124.219 F600.
X13.109 Y124.256
X13.583 Y124.312
X14.051 Y124.398
X14.41 Y124.498
X14.754 Y124.641
X15.012 Y124.797
X15.128 Y124.893
X15.238 Y124.997
X15.325 Y125.105
X15.402 Y125.219
X15.464 Y125.342
X15.515 Y125.471
X15.582 Y125.767
X15.602 Y126.07
X15.586 Y126.325
X15.569 Y126.45
X15.542 Y126.572
X15.501 Y126.689
X15.449 Y126.803
X15.325 Y127.026
X15.161 Y127.204
X14.982 Y127.364
X14.78 Y127.493
X14.563 Y127.604
X14.287 Y127.704
X14.006 Y127.789
X13.719 Y127.847
X13.428 Y127.891
X12.73 Y127.949
X12.029 Y127.967
X11.601 Y127.962
X11.174 Y127.946
X10.748 Y127.911
X10.323 Y127.863
X10.027 Y127.811
X9.737 Y127.744
X9.454 Y127.649
X9.177 Y127.534
X8.987 Y127.423
X8.812 Y127.294
X8.664 Y127.136
X8.533 Y126.96
X8.444 Y126.757
X8.377 Y126.549
X8.345 Y126.333
X8.332 Y126.112
X8.34 Y125.937
X8.36 Y125.764
X8.402 Y125.596
X8.457 Y125.43
X8.527 Y125.29
X8.608 Y125.158
X8.705 Y125.037
X8.814 Y124.924
X8.943 Y124.821
X9.077 Y124.726
X9.221 Y124.646
X9.371 Y124.575
X9.725 Y124.446
X10.091 Y124.353
X10.516 Y124.281
X10.946 Y124.239
X11.425 Y124.215
X11.905 Y124.208
Z5.
X14.806 Y121.425
Z0. F200.
X14.846 Y121.463 F600.
X14.896 Y121.489
X14.977 Y121.513
X15.062 Y121.528
X15.311 Y121.542
X15.491 Y121.536
X15.622 Y121.511
X15.726 Y121.466
X15.791 Y121.416
X15.847 Y121.356
X15.951 Y121.216
X16.045 Y121.068
X16.178 Y120.817
X16.291 Y120.556
X16.406 Y120.221
X16.495 Y119.877
X16.558 Y119.49
X16.578 Y119.099
X16.567 Y118.808
X16.537 Y118.521
X16.476 Y118.239
X16.394 Y117.96
X16.298 Y117.739
X16.186 Y117.528
X16.048 Y117.334
X15.892 Y117.15
X15.725 Y117.002
X15.548 Y116.869
X15.355 Y116.761
X15.152 Y116.669
X14.932 Y116.601
X14.709 Y116.548
X14.482 Y116.521
X14.252 Y116.509
X13.823 Y116.528
X13.397 Y116.586
X13.159 Y116.643
X12.925 Y116.714
X12.698 Y116.805
X12.476 Y116.907
X12.189 Y117.066
X11.909 Y117.236
X11.639 Y117.422
X11.375 Y117.617
X11.014 Y117.911
X10.66 Y118.213
X9.98 Y118.849
X8.499 Y120.269
Y116.371
X8.49 Y116.315
X8.467 Y116.264
X8.426 Y116.213
X8.374 Y116.174
X8.299 Y116.139
X8.218 Y116.118
X8. Y116.101
X7.779 Y116.118
X7.696 Y116.137
X7.616 Y116.167
X7.561 Y116.201
X7.519 Y116.25
X7.495 Y116.305
X7.488 Y116.364
Y121.314
X7.493 Y121.4
X7.512 Y121.484
X7.544 Y121.551
X7.592 Y121.608
X7.666 Y121.657
X7.751 Y121.684
X7.878 Y121.704
X8.007 Y121.709
X8.249 Y121.698
X8.343 Y121.682
X8.433 Y121.652
X8.592 Y121.562
X8.762 Y121.423
X10.603 Y119.633
X11.158 Y119.116
X11.448 Y118.873
X11.745 Y118.637
X12.193 Y118.328
X12.666 Y118.06
X13.035 Y117.901
X13.226 Y117.841
X13.421 Y117.792
X13.738 Y117.745
X14.058 Y117.728
X14.344 Y117.752
X14.622 Y117.828
X14.749 Y117.884
X14.87 Y117.949
X14.983 Y118.029
X15.089 Y118.117
X15.187 Y118.224
X15.274 Y118.337
X15.345 Y118.462
X15.408 Y118.592
X15.46 Y118.752
X15.499 Y118.915
X15.518 Y119.081
X15.526 Y119.249
X15.518 Y119.448
X15.499 Y119.645
X15.46 Y119.839
X15.408 Y120.032
X15.292 Y120.34
X15.152 Y120.639
X15.029 Y120.86
X14.896 Y121.075
X14.82 Y121.198
X14.778 Y121.335
X14.785 Y121.382
X14.806 Y121.425
Z5.
X8.201 Y114.606
Z0. F200.
X8.415 Y114.612 F600.
X8.627 Y114.602
X8.704 Y114.589
X8.779 Y114.564
X8.826 Y114.536
X8.866 Y114.498
X8.886 Y114.457
X8.893 Y114.412
X8.862 Y114.3
X8.807 Y114.197
X8.706 Y114.005
X8.62 Y113.806
X8.514 Y113.505
X8.429 Y113.197
X8.389 Y112.983
X8.359 Y112.769
X8.339 Y112.335
X8.347 Y112.119
X8.365 Y111.905
X8.402 Y111.693
X8.45 Y111.483
X8.512 Y111.304
X8.588 Y111.131
X8.685 Y110.969
X8.796 Y110.815
X8.927 Y110.682
X9.067 Y110.561
X9.223 Y110.462
X9.388 Y110.376
X9.599 Y110.304
X9.814 Y110.25
X10.034 Y110.225
X10.257 Y110.216
X10.451 Y110.225
X10.643 Y110.247
X10.83 Y110.292
X11.015 Y110.351
X11.171 Y110.43
X11.316 Y110.523
X11.444 Y110.638
X11.562 Y110.767
X11.669 Y110.932
X11.762 Y111.104
X11.831 Y111.287
X11.887 Y111.476
X11.936 Y111.73
X11.972 Y111.985
X11.989 Y112.242
X11.995 Y112.501
X11.986 Y112.865
X11.953 Y113.228
X11.923 Y113.511
X11.912 Y113.796
X11.915 Y113.872
X11.928 Y113.944
X11.959 Y114.01
X12.002 Y114.072
X12.082 Y114.115
X12.167 Y114.143
X12.348 Y114.156
X15.996
X16.089 Y114.151
X16.177 Y114.135
X16.259 Y114.098
X16.336 Y114.048
X16.386 Y113.98
X16.423 Y113.906
X16.44 Y113.825
X16.446 Y113.74
Y109.773
X16.438 Y109.717
X16.415 Y109.666
X16.374 Y109.616
X16.322 Y109.579
X16.244 Y109.547
X16.162 Y109.527
X15.934 Y109.51
X15.736 Y109.522
X15.546 Y109.576
X15.492 Y109.609
X15.448 Y109.649
X15.422 Y109.701
X15.408 Y109.762
Y112.965
X12.895
X12.923 Y112.727
X12.936 Y112.488
X12.943 Y111.924
X12.932 Y111.596
X12.903 Y111.27
X12.842 Y110.949
X12.76 Y110.63
X12.663 Y110.381
X12.549 Y110.141
X12.404 Y109.918
X12.241 Y109.707
X12.059 Y109.534
X11.866 Y109.379
X11.653 Y109.254
X11.427 Y109.146
X11.169 Y109.064
X10.907 Y109.001
X10.639 Y108.969
X10.368 Y108.956
X10.039 Y108.972
X9.715 Y109.012
X9.398 Y109.092
X9.087 Y109.199
X8.824 Y109.333
X8.575 Y109.487
X8.351 Y109.676
X8.142 Y109.884
X7.959 Y110.127
X7.797 Y110.382
X7.667 Y110.656
X7.557 Y110.94
X7.469 Y111.274
X7.403 Y111.612
X7.37 Y111.955
X7.356 Y112.3
X7.37 Y112.696
X7.415 Y113.089
X7.477 Y113.424
X7.561 Y113.754
X7.638 Y113.996
X7.73 Y114.232
X7.788 Y114.356
X7.862 Y114.471
X7.904 Y114.511
X7.952 Y114.543
X8.052 Y114.581
X8.201 Y114.606
Z5.
Z15.

M5
G28 G91 Z0.
G90
G28 G91 X0. Y0.
G90
M30
