(1006)
(T3 D=6. CR=0. TAPER=15DEG - ZMIN=0. - CHAMFER MILL)
G90 G94 G91.1 G40 G49 G17
G21
(WHEN USING FUSION FOR PERSONAL USE, THE FEEDRATE OF RAPID)
(MOVES IS REDUCED TO MATCH THE FEEDRATE OF CUTTING MOVES,)
(WHICH CAN INCREASE MACHINING TIME. UNRESTRICTED RAPID MOVES)
(ARE AVAILABLE WITH A FUSION SUBSCRIPTION.)
G28 G91 Z0.
G90

(ROXIE)
T3 M6
S20000 M3
G17 G90 G94
G54
G0 X97.397 Y153.695
G43 Z11. H3
G1 Z2. F600.
Z0. F200.
G2 Y154.319 I0.231 J0.312 F600.
X99.893 I1.248 J-2.321
Y153.695 I-0.231 J-0.312
X97.397 I-1.248 J2.317
G1 Z2.
Z4.
X97.241 Y151.355
Z2.
Z0. F200.
X98.489 F600.
Z2.
Z4.
X97.865 Y150.887
Z2.
Z0. F200.
Y152.447 F600.
X100.049 Y151.823
Z2.
Z4.
Y148.859
Z2.
Z0. F200.
Y149.951 F600.
X98.801
Y149.327
G2 X98.177 Y148.703 I-0.624 J0.
G1 X97.865
G2 X97.241 Y149.327 I0. J0.624
G1 Y149.951
Z2.
Z4.
X97.932 Y147.671
Z2.
Z0. F200.
G2 X99.893 Y147.455 I0.713 J-2.539 F600.
Y146.831 I-0.232 J-0.312
X97.397 I-1.248 J2.317
Y147.455 I0.231 J0.312
G1 X97.659 Y147.578
X97.932 Y147.671
Z2.
Z4.
X97.241 Y144.491
Z2.
Z0. F200.
X98.489 F600.
Z2.
Z4.
X97.865 Y144.023
Z2.
Z0. F200.
Y145.583 F600.
X100.049 Y144.959
Z2.
Z4.
X99.425 Y143.087
Z2.
Z0. F200.
X100.049 Y142.463 F600.
X97.241
Z2.
Z4.
X97.659 Y141.338
Z2.
Z0. F200.
G2 X99.893 Y141.215 I0.986 J-2.447 F600.
Y140.591 I-0.232 J-0.312
X97.397 I-1.248 J2.317
Y141.215 I0.231 J0.312
G1 X97.659 Y141.338
Z2.
Z4.
X99.581 Y139.343
Z2.
Z0. F200.
G2 X100.003 Y138.484 I-0.164 J-0.613 F600.
X99.095 Y138.183 I-0.586 J0.246
G1 X97.241 Y139.343
Y138.095
Z2.
Z4.
X96.318 Y138.189
Z2.
Z0. F200.
X95.928 F600.
Z2.
Z4.
X93.978
Z2.
Z0. F200.
X89.298 F600.
Z2.
Z4.
X87.362 Y138.744
Z2.
Z0. F200.
X87.307 Y138.636 F600.
X87.223 Y138.551
G2 X84.727 I-1.248 J2.317
Y139.175 I0.231 J0.312
X87.223 I1.248 J-2.32
X87.362 Y138.744 I-0.231 J-0.312
G1 Z2.
Z4.
X85.262 Y137.207
Z2.
Z0. F200.
G2 X87.223 Y136.991 I0.713 J-2.538 F600.
Y136.367 I-0.231 J-0.312
X84.727 I-1.248 J2.318
Y136.991 I0.231 J0.312
G1 X84.988 Y137.113
X85.262 Y137.207
Z2.
Z4.
X86.755 Y135.119
Z2.
Z0. F200.
X87.379 Y134.495 F600.
X84.571
Z2.
Z4.
X89.298 Y132.729
Z2.
Z0. F200.
Y134.679 F600.
G2 X90.468 Y135.849 I1.17 J0.
G1 X92.418
G2 X93.978 Y134.289 I0. J-1.56
X92.418 Y132.729 I-1.56 J0.
G1 X91.638
Y135.849
Z2.
Z4.
X93.978 Y140.529
Z2.
Z0. F200.
X89.298 Y143.649 F600.
Z2.
Z4.
X90.376 Y146.066
Z2.
Z0. F200.
G2 X90.858 Y149.109 I0.482 J1.483 F600.
G1 X92.418
G2 X93.978 Y147.549 I0. J-1.56
X92.418 Y145.989 I-1.56 J0.
G1 X90.858
X90.614 Y146.009
X90.376 Y146.066
Z2.
Z4.
X89.298 Y151.449
Z2.
Z0. F200.
X92.418 Y153.009 F600.
Z2.
Z4.
X89.298 Y155.349
Z2.
Z0. F200.
X96.318 F600.
Y153.399
G2 X92.418 I-1.95 J0.
G1 Y155.349
Z2.
Z4.
X87.362 Y154.27
Z2.
Z0. F200.
G2 X87.223 Y153.839 I-0.369 J-0.119 F600.
X84.727 I-1.248 J2.318
Y154.463 I0.231 J0.312
X87.223 I1.248 J-2.32
G1 X87.307 Y154.377
X87.362 Y154.27
Z2.
Z4.
X84.571 Y151.499
Z2.
Z0. F200.
X85.819 F600.
Z2.
Z4.
X85.195 Y151.031
Z2.
Z0. F200.
Y152.591 F600.
X87.379 Y151.967
Z2.
Z4.
X86.911 Y150.095
Z2.
Z0. F200.
G2 X87.333 Y149.236 I-0.164 J-0.613 F600.
X86.424 Y148.935 I-0.585 J0.246
G1 X84.571 Y150.095
Y148.847
Z2.
Z4.
X86.755 Y147.911
Z2.
Z0. F200.
X87.379 Y147.287 F600.
X84.571
Z2.
Z4.
X84.905 Y146.279
Z2.
Z0. F200.
G2 X85.797 I0.446 J-1.176 F600.
X85.507 Y145.103 I-0.29 J-0.552
G1 X85.195
G2 X84.905 Y146.279 I0. J0.624
G1 Z2.
Z4.
X86.19 Y145.992
Z2.
Z0. F200.
G2 X87.32 Y145.461 I0.565 J-0.265 F600.
X86.142 Y145.844 I-0.565 J0.265
G1 X86.19 Y145.992
Z2.
Z4.
X85.195 Y142.607
Z2.
Z0. F200.
Y144.167 F600.
X87.379 Y143.543
Z2.
Z4.
X87.067 Y141.671
Z2.
Z0. F200.
X87.379 F600.
Y140.423
X84.571 Y141.047
Z2.
Z4.
Y143.075
Z2.
Z0. F200.
X85.819 F600.
Z2.
Z4.
X89.298 Y140.529
Z2.
Z0. F200.
X93.978 Y143.649 F600.
Z2.
Z4.
X97.241 Y136.067
Z2.
Z0. F200.
X98.489 F600.
Z2.
Z4.
X97.865 Y135.599
Z2.
Z0. F200.
Y137.159 F600.
X100.049 Y136.535
Z2.
Z4.
X99.425 Y134.663
Z2.
Z0. F200.
X100.049 Y134.039 F600.
X97.241
Z2.
Z11.

M5
G28 G91 Z0.
G90
G28 G91 X0. Y0.
G90
M30
